<?xml version="1.0" encoding="UTF-8"?>
<map version="1.10" tiledversion="1.10.2" orientation="orthogonal" renderorder="right-down" width="60" height="60" tilewidth="16" tileheight="16" infinite="0" nextlayerid="7" nextobjectid="1">
 <tileset firstgid="1" name="pokemonStarStandradTileSet" tilewidth="16" tileheight="16" tilecount="21000" columns="140">
  <image source="../../../../../../pokemon-star/public/assets/pokemonStarStandradTileSet.png" width="2240" height="2400"/>
 </tileset>
 <tileset firstgid="21001" name="pokemonStarStandradTileSet" tilewidth="16" tileheight="16" tilecount="21000" columns="140">
  <image source="../../pokemonStarStandradTileSet.png" width="2240" height="2400"/>
 </tileset>
 <layer id="4" name="WaterLayer" width="60" height="60">
  <data encoding="csv">
0,0,0,0,0,0,0,0,0,0,0,0,0,0,0,0,0,0,0,0,0,0,0,0,0,0,0,0,0,0,0,0,0,0,0,0,0,0,0,0,0,0,0,0,0,0,0,0,0,0,0,0,0,0,0,0,0,0,0,0,
0,0,0,0,0,0,0,0,0,0,0,0,0,0,0,0,0,0,0,0,0,0,0,0,0,0,0,0,0,0,0,0,0,0,0,0,0,0,0,0,0,0,0,0,0,0,0,0,0,0,0,0,0,0,0,0,0,0,0,0,
0,0,0,0,0,0,0,0,0,0,0,0,0,0,0,0,0,0,0,0,0,0,0,0,0,0,0,0,0,0,0,0,0,0,0,0,0,0,0,0,0,0,0,0,0,0,0,0,0,0,0,0,0,0,0,0,0,0,0,0,
0,0,0,0,0,0,0,0,0,0,0,0,0,0,0,0,0,0,0,0,0,0,0,0,0,0,0,0,0,0,0,0,0,0,0,0,0,0,0,0,0,0,0,0,0,0,0,0,0,0,0,0,0,0,0,0,0,0,0,0,
0,0,0,0,0,0,0,0,0,0,0,0,0,0,0,0,0,0,0,0,0,0,0,0,0,0,0,0,0,0,0,0,0,0,0,0,0,0,0,0,0,0,0,0,0,0,0,0,0,0,0,0,0,0,0,0,0,0,0,0,
0,0,0,0,0,0,0,0,0,0,0,0,0,0,0,0,0,0,0,0,0,0,0,0,0,0,0,0,0,0,0,0,0,0,0,0,0,0,0,0,0,0,0,0,0,0,0,0,0,0,0,0,0,0,0,0,0,0,0,0,
0,0,0,0,0,0,0,0,0,0,0,0,0,0,0,0,0,0,0,0,0,0,0,0,0,0,0,0,0,0,0,0,0,0,0,0,0,0,0,0,0,0,0,0,0,0,0,0,0,0,0,0,0,0,0,0,0,0,0,0,
0,0,0,0,0,0,0,0,0,0,0,0,0,0,0,0,0,0,0,0,0,0,0,0,0,0,0,0,0,0,0,0,0,0,0,0,0,0,0,0,0,0,0,0,0,0,0,0,0,0,0,0,0,0,0,0,0,0,0,0,
0,0,0,0,0,0,0,0,0,0,0,0,0,0,0,0,0,0,0,0,0,0,0,0,0,0,0,0,0,0,0,0,0,0,0,0,0,0,0,0,0,0,0,0,0,0,0,0,0,0,0,0,0,0,0,0,0,0,0,0,
0,0,0,0,0,0,0,0,0,0,0,0,0,0,0,0,0,0,0,0,0,0,0,0,0,0,0,0,0,0,0,0,0,0,0,0,0,0,0,0,0,0,0,0,0,0,0,0,0,0,0,0,0,0,0,0,0,0,0,0,
0,0,0,0,0,0,0,0,0,0,0,0,0,0,0,0,0,0,0,0,0,0,0,0,0,0,0,0,0,0,0,0,0,0,0,0,0,0,0,0,0,0,0,0,0,0,0,0,0,0,0,0,0,0,0,0,0,0,0,0,
0,0,0,0,0,0,0,0,0,0,0,0,0,0,0,0,0,0,0,0,0,0,0,0,0,0,0,0,0,0,0,0,0,0,0,0,0,0,0,0,0,0,0,0,0,0,0,0,0,0,0,0,0,0,0,0,0,0,0,0,
0,0,0,0,0,0,0,0,0,0,0,0,0,0,0,0,0,0,0,0,0,0,0,0,0,0,0,0,0,0,0,0,0,0,0,0,0,0,0,0,0,0,0,0,0,0,0,0,0,0,0,0,0,0,0,0,0,0,0,0,
0,0,0,0,0,0,0,0,0,0,0,0,0,0,0,0,0,0,0,0,0,0,0,0,0,0,0,0,0,0,0,0,0,0,0,0,0,0,0,0,0,0,0,0,0,0,0,0,0,0,0,0,0,0,0,0,0,0,0,0,
0,0,0,0,0,0,0,0,0,0,0,0,0,0,0,0,0,0,0,0,0,0,0,0,0,0,0,0,0,0,0,0,0,0,0,0,0,0,0,0,0,0,0,0,0,0,0,0,0,0,0,0,0,0,0,0,0,0,0,0,
0,0,0,0,0,0,0,0,0,0,0,0,0,0,0,0,0,0,0,0,0,0,0,0,0,0,0,0,0,0,0,0,0,0,0,0,0,0,0,0,0,0,0,0,0,0,0,0,0,0,0,0,0,0,0,0,0,0,0,0,
0,0,0,0,0,0,0,0,0,0,0,0,0,0,0,0,0,0,0,0,0,0,0,0,0,0,0,0,0,0,0,0,0,0,0,0,0,0,0,0,0,0,0,0,0,0,0,0,0,0,0,0,0,0,0,0,0,0,0,0,
0,0,0,0,0,0,0,0,0,0,0,0,0,0,0,0,0,0,0,0,0,0,0,0,0,0,0,0,0,0,0,0,0,0,0,0,0,0,0,0,0,0,0,0,0,0,0,0,0,0,0,0,0,0,0,0,0,0,0,0,
0,0,0,0,0,0,0,0,0,0,0,0,0,0,0,0,0,0,0,0,0,0,0,0,0,0,0,0,0,0,0,0,0,0,0,0,0,0,0,0,0,0,0,0,0,0,0,0,0,0,0,0,0,0,0,0,0,0,0,0,
0,0,0,0,0,0,0,0,0,0,0,0,0,0,0,0,0,0,0,0,0,0,0,0,0,0,0,0,0,0,0,0,0,0,0,0,0,0,0,0,0,0,0,0,0,0,0,0,0,0,0,0,0,0,0,0,0,0,0,0,
0,0,0,0,0,0,0,0,0,0,0,0,0,0,0,0,0,0,0,0,0,0,0,0,0,0,0,0,0,0,0,0,0,0,0,0,0,0,0,0,0,0,0,0,0,0,0,0,0,0,0,0,0,0,0,0,0,0,0,0,
0,0,0,0,0,0,0,0,0,0,0,0,0,0,0,0,0,0,0,0,0,0,0,0,0,0,0,0,0,0,0,0,0,0,0,0,0,0,0,0,0,0,0,0,0,0,0,0,0,0,0,0,0,0,0,0,0,0,0,0,
0,0,0,0,0,0,0,0,0,0,0,0,0,0,0,0,0,0,0,0,0,0,0,0,0,0,0,0,0,0,0,0,0,0,0,0,0,0,0,0,0,0,0,0,0,0,0,0,0,0,0,0,0,0,0,0,0,0,0,0,
0,0,0,0,0,0,0,0,0,0,0,0,0,0,0,0,0,0,0,0,0,0,0,0,0,0,0,0,0,0,0,0,0,0,0,0,0,0,0,0,0,0,0,0,0,0,0,0,0,0,0,0,0,0,0,0,0,0,0,0,
0,0,0,0,0,0,0,0,0,0,0,0,0,0,0,0,0,0,0,0,0,0,0,0,0,0,0,0,0,0,0,0,0,0,0,0,0,0,0,0,0,0,0,0,0,0,0,0,0,0,0,0,0,0,0,0,0,0,0,0,
0,0,0,0,0,0,0,0,0,0,0,0,0,0,0,0,0,0,0,0,0,0,0,0,0,0,0,0,0,0,0,0,0,0,0,0,0,0,0,0,0,0,0,0,0,0,0,0,0,0,0,0,0,0,0,0,0,0,0,0,
0,0,0,0,0,0,0,0,0,0,0,0,0,0,0,0,0,0,0,0,0,0,0,0,0,0,0,0,0,0,0,0,0,0,0,0,0,0,0,0,0,0,0,0,0,0,0,0,0,0,0,0,0,0,0,0,0,0,0,0,
0,0,0,0,0,0,0,0,0,0,0,0,0,0,0,0,0,0,0,0,0,0,0,0,0,0,0,0,0,0,0,0,0,0,0,0,0,0,0,0,0,0,0,0,0,0,0,0,0,0,0,0,0,0,0,0,0,0,0,0,
0,0,0,0,0,0,0,0,0,0,0,0,0,0,0,0,0,0,0,0,0,0,0,0,0,0,0,0,0,0,0,0,0,0,0,0,0,0,0,0,0,0,0,0,0,0,0,0,0,0,0,0,0,0,0,0,0,0,0,0,
0,0,0,0,0,0,0,0,0,0,0,0,0,0,0,0,0,0,0,0,0,0,0,0,0,0,0,0,0,0,0,0,0,0,0,0,0,0,0,0,0,0,0,0,0,0,0,0,0,0,0,0,0,0,0,0,0,0,0,0,
0,0,0,0,0,0,0,0,0,0,0,0,0,0,0,0,0,0,0,0,0,0,0,0,0,0,0,0,0,0,0,0,0,0,0,0,0,0,0,0,0,0,0,0,0,0,0,0,0,0,0,0,0,0,0,0,0,0,0,0,
0,0,0,0,0,0,0,0,0,0,0,0,0,0,0,0,0,0,0,0,0,0,0,0,0,0,0,0,0,0,0,0,0,0,0,0,0,0,0,0,0,0,0,0,0,0,0,0,0,0,0,0,0,0,0,0,0,0,0,0,
0,0,0,0,0,0,0,0,0,0,0,0,0,0,0,0,0,0,0,0,0,0,0,0,0,0,0,0,0,0,0,0,0,0,0,0,0,0,0,0,0,0,0,0,0,0,0,0,0,0,0,0,0,0,0,0,0,0,0,0,
0,0,0,0,0,0,0,0,0,0,0,0,0,0,0,0,0,0,0,0,0,0,0,0,0,0,0,0,0,0,0,0,0,0,0,0,0,0,0,0,0,0,0,0,0,0,0,0,0,0,0,0,0,0,0,0,0,0,0,0,
0,0,0,0,0,0,0,0,0,0,0,0,0,0,0,0,0,0,0,0,0,0,0,0,0,0,0,0,0,0,0,0,0,0,0,0,0,0,0,0,0,0,0,0,0,0,0,0,0,0,0,0,0,0,0,0,0,0,0,0,
0,0,0,0,0,0,0,0,0,0,0,0,0,0,0,0,0,0,0,0,0,0,0,0,0,0,0,0,0,0,0,0,0,0,0,0,0,0,0,0,0,0,0,0,0,0,0,0,0,0,0,0,0,0,0,0,0,0,0,0,
0,0,0,0,0,0,0,0,0,0,0,0,0,0,0,0,0,0,0,0,0,0,0,0,0,0,0,0,0,0,0,0,0,0,0,0,0,0,0,0,0,0,0,0,0,0,0,0,0,0,0,0,0,0,0,0,0,0,0,0,
0,0,0,0,0,0,0,0,0,0,0,0,0,0,0,23258,23258,23258,0,0,0,0,0,0,0,0,0,0,0,0,0,0,0,0,0,0,0,0,0,0,0,0,0,0,0,0,0,23258,23258,23258,0,0,0,0,0,0,0,0,0,0,
0,0,0,0,0,0,0,0,0,0,0,0,23258,23258,23258,23258,23258,23258,23258,0,0,0,0,0,0,0,0,0,0,0,0,0,0,0,0,0,0,0,0,0,0,0,0,0,0,0,0,0,23258,23258,23258,0,0,0,0,0,0,0,0,0,
0,0,0,0,0,0,0,23258,0,0,0,23258,23258,23258,23258,23258,23258,23258,23258,0,0,0,0,0,0,0,0,0,0,0,0,0,0,0,0,0,0,0,0,0,0,0,0,0,0,23258,23258,23258,23258,23258,23258,0,0,0,0,0,0,0,0,0,
0,0,0,0,0,0,0,23258,23258,23258,23258,23258,23258,23258,23258,23258,23258,23258,23258,23258,0,0,0,0,0,0,0,0,0,0,0,0,0,0,0,0,0,0,0,0,0,0,0,0,23258,23258,23258,23258,23258,23258,23258,23258,23258,23258,23258,23258,23258,23258,0,0,
23258,23258,23258,23258,23258,23258,23258,23258,23258,23258,23258,23258,23258,23258,23258,23258,23258,23258,23258,23258,0,0,0,0,0,0,0,0,0,0,0,0,0,0,0,0,0,0,0,0,0,23258,23258,23258,23258,23258,23258,23258,23258,23258,23258,23258,23258,23258,23258,23258,23258,0,0,0,
23258,23258,23258,23258,23258,23258,23258,23258,23258,23258,23258,23258,23258,23258,23258,23258,23258,23258,23258,23258,23258,23258,0,0,0,0,0,0,0,0,0,0,0,0,0,0,23258,23258,23258,0,23258,23258,23258,23258,23258,23258,23258,23258,23258,23258,23258,23258,23258,23258,23258,23258,23258,23258,23258,0,
23258,23258,23258,23258,23258,23258,23258,23258,23258,23258,23258,23258,23258,23258,23258,23258,23258,23258,23258,23258,23258,23258,23258,23258,23258,23258,23258,23258,23258,0,0,0,0,0,0,0,23258,23258,23258,23258,23258,23258,23258,23258,23258,23258,23258,23258,23258,23258,23258,23258,23258,23258,23258,23258,23258,23258,23258,23258,
23258,23258,23258,23258,23258,23258,23258,23258,23258,23258,23258,23258,23258,23258,23258,23258,23258,23258,23258,23258,23258,23258,23258,23258,23258,23258,23258,23258,23258,23258,23258,23258,23258,23258,23258,23258,23258,23258,23258,23258,23258,23258,23258,23258,23258,23258,23258,23258,23258,23258,23258,23258,23258,23258,23258,23258,23258,23258,23258,23258,
23258,23258,23258,23258,23258,23258,23258,23258,23258,23258,23258,23258,23258,23258,23258,23258,23258,23258,23258,23258,23258,23258,23258,23258,23258,23258,23258,23258,23258,23258,0,23258,23258,23258,23258,23258,23258,23258,23258,23258,23258,23258,23258,23258,23258,23258,23258,23258,23258,23258,23258,23258,23258,23258,23258,23258,23258,23258,23258,23258,
23258,23258,23258,23258,23258,23258,23258,23258,23258,23258,0,0,0,23258,23258,0,0,0,23258,23258,23258,23258,23258,23258,23258,23258,23258,23258,23258,23258,23258,23258,23258,23258,23258,23258,23258,23258,23258,23258,23258,23258,23258,23258,23258,23258,23258,23258,23258,23258,23258,23258,23258,23258,23258,23258,23258,23258,23258,23258,
23258,23258,23258,23258,23258,23258,23258,0,0,0,23258,23258,23258,0,0,0,0,0,23258,23258,23258,23258,23258,23258,23258,23258,23258,23258,23258,23258,0,23258,23258,23258,23258,23258,23258,23258,23258,23258,23258,23258,23258,23258,23258,23258,23258,23258,23258,23258,23258,23258,23258,23258,23258,23258,23258,23258,23258,23258,
0,0,0,0,0,0,0,0,0,0,0,0,0,0,0,0,0,0,0,0,23258,23258,23258,23258,23258,23258,23258,0,23258,23258,23258,23258,23258,23258,23258,23258,23258,23258,23258,23258,23258,23258,23258,23258,23258,23258,23258,23258,23258,23258,23258,23258,23258,23258,23258,23258,23258,23258,23258,0,
0,0,0,0,0,0,0,0,0,0,0,0,0,0,0,0,0,0,0,0,0,0,0,0,0,0,0,0,0,0,0,0,0,0,23258,23258,23258,23258,23258,23258,23258,23258,0,0,0,23258,23258,23258,23258,23258,23258,23258,23258,23258,23258,23258,23258,23258,23258,23258,
0,0,0,0,0,0,0,0,0,0,0,0,0,0,0,0,0,0,0,0,0,0,0,0,0,0,0,0,0,0,0,0,0,0,0,0,0,0,0,0,23258,23258,0,0,0,23258,23258,0,0,0,23258,23258,23258,23258,23258,23258,23258,23258,23258,23258,
0,0,0,0,0,0,0,0,0,0,0,0,0,0,0,0,0,0,0,0,0,0,0,0,0,0,0,0,0,0,0,0,0,0,0,0,0,0,0,0,0,0,0,0,23258,0,0,0,0,0,0,0,0,0,0,0,0,0,0,0,
0,0,0,0,0,0,0,0,0,0,0,0,0,0,0,0,0,0,0,0,0,0,0,0,0,0,0,0,0,0,0,0,0,0,0,0,0,0,0,0,0,0,0,0,0,0,0,0,0,0,0,0,0,0,0,0,0,0,0,0,
0,0,0,0,0,0,0,0,0,0,0,0,0,0,0,0,0,0,0,0,0,0,0,0,0,0,0,0,0,0,0,0,0,0,0,0,0,0,0,0,0,0,0,0,0,0,0,0,0,0,0,0,0,0,0,0,0,0,0,0,
0,0,0,0,0,0,0,0,0,0,0,0,0,0,0,0,0,0,0,0,0,0,0,0,0,0,0,0,0,0,0,0,0,0,0,0,0,0,0,0,0,0,0,0,0,0,0,0,0,0,0,0,0,0,0,0,0,0,0,0,
0,0,0,0,0,0,0,0,0,0,0,0,0,0,0,0,0,0,0,0,0,0,0,0,0,0,0,0,0,0,0,0,0,0,0,0,0,0,0,0,0,0,0,0,0,0,0,0,0,0,0,0,0,0,0,0,0,0,0,0,
0,0,0,0,0,0,0,0,0,0,0,0,0,0,0,0,0,0,0,0,0,0,0,0,0,0,0,0,0,0,0,0,0,0,0,0,0,0,0,0,0,0,0,0,0,0,0,0,0,0,0,0,0,0,0,0,0,0,0,0,
0,0,0,0,0,0,0,0,0,0,0,0,0,0,0,0,0,0,0,0,0,0,0,0,0,0,0,0,0,0,0,0,0,0,0,0,0,0,0,0,0,0,0,0,0,0,0,0,0,0,0,0,0,0,0,0,0,0,0,0,
0,0,0,0,0,0,0,0,0,0,0,0,0,0,0,0,0,0,0,0,0,0,0,0,0,0,0,0,0,0,0,0,0,0,0,0,0,0,0,0,0,0,0,0,0,0,0,0,0,0,0,0,0,0,0,0,0,0,0,0,
0,0,0,0,0,0,0,0,0,0,0,0,0,0,0,0,0,0,0,0,0,0,0,0,0,0,0,0,0,0,0,0,0,0,0,0,0,0,0,0,0,0,0,0,0,0,0,0,0,0,0,0,0,0,0,0,0,0,0,0
</data>
 </layer>
 <layer id="1" name="TerrainLayer" width="60" height="60">
  <data encoding="csv">
23816,23816,23816,23816,23816,23816,23816,23816,23816,23816,23816,23816,23816,23816,23816,23816,23816,23816,23816,23816,23816,23816,23816,23816,23816,23816,23816,23816,23816,23816,23816,23816,23816,23816,23816,23816,23816,23816,23816,23816,23816,23816,23816,23816,23816,23816,23816,23816,23816,23816,23816,23816,23816,23816,23816,23816,23816,23816,23816,23816,
23816,23816,23816,23816,23816,23816,23816,23816,23816,23816,23816,23816,23816,23816,23816,23816,23816,23816,23816,23816,23816,23816,23816,23816,23816,23816,23816,23816,23816,23816,23816,23816,23816,23816,23816,23816,23816,23816,23816,23816,23816,23816,23816,23816,23816,23816,23816,23816,23816,23816,23816,23816,23816,23816,23816,23816,23816,23816,23816,23816,
23816,23816,23816,23816,23816,23816,23816,23816,23816,23816,23816,23816,23816,23816,23816,23816,23816,23816,23816,23816,23816,23816,23816,23816,23816,23816,23816,23816,23816,23816,23816,23816,23816,23816,23816,23816,23816,23816,23816,23816,23816,23816,23816,23816,23816,23816,23816,23816,23816,23816,23816,23816,23816,23816,23816,23816,23816,23816,23816,23816,
23816,23816,23816,23816,23816,23816,23816,23816,23816,23816,23816,23816,23816,23816,23816,23816,23816,23816,23816,23816,23816,23816,23816,23816,23816,23816,23816,23816,23816,23816,23816,23816,23816,23816,23816,23816,23816,23816,23816,23816,23816,23816,23816,23816,23816,23816,23816,23816,23816,23816,23816,23816,23816,23816,23816,23816,23816,23816,23816,23816,
23816,23816,23816,23816,23816,23816,23816,23816,23816,23816,23816,23816,23816,23816,23816,23816,23816,23816,23816,23816,23816,23816,23816,23816,23816,23816,23816,23816,23816,23816,23816,23816,23816,23816,23816,23816,23816,23816,23816,23816,23816,23816,23816,23816,23816,23816,23816,23816,23816,23816,23816,23816,23816,23816,23816,23816,23816,23816,23816,23816,
23816,23816,23816,23816,23816,23816,23816,23816,23816,23816,23816,23816,23816,23816,23816,23816,23816,23816,23816,23816,23816,23816,23816,23816,23816,23816,23816,23816,23816,23816,23816,23816,23816,23816,23816,23816,23816,23816,23816,23816,23816,23816,23816,23816,23816,23816,23816,23816,23816,23816,23816,23816,23816,23816,23816,23816,23816,23816,23816,23816,
23816,23816,23816,23816,23816,23816,23816,23816,23816,23816,23816,23816,23816,23816,23816,23816,23816,23816,23816,23816,23816,23816,23816,23816,23816,23816,23816,23816,23816,23816,23816,23816,23816,23816,23816,23816,23816,23816,23816,23816,23816,23816,23816,23816,23816,23816,23816,23816,23816,23816,23816,23816,23816,23816,23816,23816,23816,23816,23816,23816,
23816,23816,23816,23816,23816,23816,23816,23816,23816,23816,23816,23816,23816,23816,23816,23816,23816,23816,23816,23816,23816,23816,23816,23816,23816,23816,23816,23816,23816,23816,23816,23816,23816,23816,23816,23816,23816,23816,23816,23816,23816,23816,23816,23816,23816,23816,23816,23816,23816,23816,23816,23816,23816,23816,23816,23816,23816,23816,23816,23816,
23816,23816,23816,23816,23816,23816,23816,23816,23816,23816,23816,23816,23816,23816,23816,23816,23816,23816,23816,23816,23816,23816,23816,23816,23816,23816,23816,23816,23816,23816,23816,23816,23816,23816,23816,23816,23816,23816,23816,23816,23816,23816,23816,23816,23816,23816,23816,23816,23816,23816,23816,23816,23816,23816,23816,23816,23816,23816,23816,23816,
23816,23816,23816,23816,23816,23816,23816,23816,23816,23816,23816,23816,23816,23816,23816,23816,23816,23816,23816,23816,23816,23816,23816,23816,23816,23816,23816,23816,23816,23816,23816,23816,23816,23816,23816,23816,23816,23816,23816,23816,23816,23816,23816,23816,23816,23816,23816,23816,23816,23816,23816,23816,23816,23816,23816,23816,23816,23816,23816,23816,
23816,23816,23816,23816,23816,23816,23816,23816,23816,23816,23816,23816,23816,23816,23816,23816,23816,23816,23816,23816,23816,23816,23816,23816,23816,23816,23816,23816,23816,23816,23816,23816,23816,23816,23816,23816,23816,23816,23816,23816,23816,23816,23816,23816,23816,23816,23816,23816,23816,23816,23816,23816,23816,23816,23816,23816,23816,23816,23816,23816,
23816,23816,23816,23816,23816,23816,23816,23816,23816,23816,23816,23816,23816,23816,23816,23816,23816,23816,23816,23816,23816,23816,23816,23816,23816,23816,23816,23816,23816,23816,23816,23816,23816,23816,23816,23816,23816,23816,23816,23816,23816,23816,23816,23816,23816,23816,23816,23816,23816,23816,23816,23816,23816,23816,23816,23816,23816,23816,23816,23816,
23816,23816,23816,23816,23816,23816,23816,23816,23816,23816,23816,23816,23816,23816,23816,23816,23816,23816,23816,23816,23816,23816,23816,23816,23816,23816,23816,23816,23816,23816,23816,23816,23816,23816,23816,23816,23816,23816,23816,23816,23816,23816,23816,23816,23816,23816,23816,23816,23816,23816,23816,23816,23816,23816,23816,23816,23816,23816,23816,23816,
23816,23816,23816,23816,23816,23816,23816,23816,23816,23816,23816,23816,23816,23816,23816,23816,23816,23816,23816,23816,23816,23816,23816,23816,23816,23816,23816,23816,23816,23816,23816,23816,23816,23816,23816,23816,23816,23816,23816,23816,23816,23816,23816,23816,23816,23816,23816,23816,23816,23816,23816,23816,23816,23816,23816,23816,23816,23816,23816,23816,
23816,23816,23816,23816,23816,23816,23816,23816,23816,23816,23816,23816,23816,23816,23816,23816,23816,23816,23816,23816,23816,23816,23816,23816,23816,23816,23816,23816,23816,23816,23816,23816,23816,23816,23816,23816,23816,23816,23816,23816,23816,23816,23816,23816,23816,23816,23816,23816,23816,23816,23816,23816,23816,23816,23816,23816,23816,23816,23816,23816,
23816,23816,23816,23816,23816,23816,23816,23816,23816,23816,23816,23816,23816,23816,23816,23816,23816,23816,23816,23816,23816,23816,23816,23816,23816,23816,23816,23816,23816,23816,23816,23816,23816,23816,23816,23816,23816,23816,23816,23816,23816,23816,23816,23816,23816,23816,23816,23816,23816,23816,23816,23816,23816,23816,23816,23816,23816,23816,23816,23816,
23816,23816,23816,23816,23816,23816,23816,23816,23816,23816,23816,23816,23816,23816,23816,23816,23816,23816,23816,23816,23816,23816,23816,23816,23816,23816,23816,23816,23816,23816,23816,23816,23816,23816,23816,23816,23816,23816,23816,23816,23816,23816,23816,23816,23816,23816,23816,23816,23816,23816,23816,23816,23816,23816,23816,23816,23816,23816,23816,23816,
23816,23816,23816,23816,23816,23816,23816,23816,23816,23816,23816,23816,23816,23816,23816,23816,23816,23816,23816,23816,23816,23816,23816,23816,23816,23816,23816,23816,23816,23816,23816,23816,23816,23816,23816,23816,23816,23816,23816,23816,23816,23816,23816,23816,23816,23816,23816,23816,23816,23816,23816,23816,23816,23816,23816,23816,23816,23816,23816,23816,
23816,23816,23816,23816,23816,23816,23816,23816,23816,23816,23816,23816,23816,23816,23816,23816,23816,23816,23816,23816,23816,23816,23816,23816,23816,23816,23816,23816,23816,23816,23816,23816,23816,23816,23816,23816,23816,23816,23816,23816,23816,23816,23816,23816,23816,23816,23816,23816,23816,23816,23816,23816,23816,23816,23816,23816,23816,23816,23816,23816,
23816,23816,23816,23816,23816,23816,23816,23816,23816,23816,23816,23816,23816,23816,2115,2115,2115,2115,2115,2115,2115,2115,2115,2115,2115,2115,2115,2115,23816,23816,23816,23816,23816,23816,23816,23816,23816,23816,23816,23816,23816,23816,23816,23816,23816,23816,23816,23816,23816,23816,23816,23816,23816,23816,23816,23816,23816,23816,23816,23816,
23816,23816,23816,23816,23816,23816,23816,23816,23816,23816,23816,23816,23816,23816,2255,2255,2255,2255,2255,2255,2255,2255,2255,2255,2255,2255,2255,2255,23816,23816,23816,23816,23816,23816,23816,23816,23816,23816,23816,23816,23816,23816,23816,23816,23816,23816,23816,23816,23816,23816,23816,23816,23816,23816,23816,23816,23816,23816,23816,23816,
23816,23816,23816,23816,23816,23816,23816,23816,23816,23816,23816,23816,23816,23816,2395,2395,2395,2395,2395,2395,2395,2395,2395,2395,2395,2395,2395,2395,23816,23816,23816,23816,23816,23816,23816,23816,23816,23816,23816,23816,23816,23816,23816,23816,23816,23816,23816,23816,23816,23816,23816,23816,23816,23816,23816,23816,23816,23816,23816,23816,
23816,23816,23816,23816,23816,23816,23816,23816,23816,23816,23816,23816,23816,23816,23816,23816,23816,23816,23816,23816,23816,23816,23816,23816,23816,23816,23816,23816,2254,2255,2256,23816,23816,23816,23816,23816,23816,23816,23816,23816,23816,23816,23816,23816,23816,23816,23816,23816,23816,23816,23816,23816,23816,23816,23816,23816,23816,23816,23816,23816,
23816,23816,23816,23816,23816,23816,23816,23816,23816,23816,23816,23816,23816,23816,23816,23816,23816,23816,23816,23816,23816,23816,23816,23816,23816,23816,23816,23816,2254,2255,2256,23816,23816,23816,23816,23816,23816,23816,23816,23816,23816,23816,23816,23816,23816,23816,23816,23816,23816,23816,23816,23816,23816,23816,23816,23816,23816,23816,23816,23816,
23816,23816,23816,23816,23816,23816,23816,23816,23816,23816,23816,23816,23816,23816,23816,23816,23816,23816,23816,23816,23816,23816,23816,23816,23816,23816,23816,23816,2254,2255,2256,23816,23816,23816,23816,23816,23816,23816,23816,23816,23816,23816,23816,23816,23816,23816,23816,23816,23816,23816,23816,23816,23816,23816,23816,23816,23816,23816,23816,23816,
23816,23816,23816,23816,23816,23816,23816,23816,23816,23816,23816,23816,23816,23816,23816,23816,23816,23816,23816,23816,23816,23816,23816,23816,23816,23816,23816,23816,2254,2255,2256,23816,23816,23816,23816,23816,23816,23816,23816,23816,23816,23816,23816,23816,23816,23816,23816,23816,23816,23816,23816,23816,23816,23816,23816,23816,23816,23816,23816,23816,
23816,23816,23816,23816,23816,23816,23816,23816,23816,23816,23816,23816,23816,23816,23816,23816,23816,23816,23816,23816,23816,23816,23816,23816,23816,23816,23816,23816,2254,2255,2256,23816,23816,23816,23816,23816,23816,23816,23816,23816,23816,23816,23816,23816,23816,23816,23816,23816,23816,23816,23816,23816,23816,23816,23816,23816,23816,23816,23816,23816,
23816,23816,23816,23816,23816,23816,23816,23816,23816,23816,23816,23816,23816,23816,23816,23816,23816,23816,23816,23816,23816,23816,23816,23816,23816,23816,23816,23816,23816,23816,23816,23816,23816,23816,23816,23816,23816,23816,23816,23816,23816,23816,23816,23816,23816,23816,23816,23816,23816,23816,23816,23816,23816,23816,23816,23816,23816,23816,23816,23816,
23816,23816,23816,23816,23816,23816,23816,23816,23816,23816,23816,23816,23816,23816,23816,23816,23816,23816,23816,23816,23816,23816,23816,23816,23816,23816,23816,23816,23816,23816,23816,23816,23816,23816,23816,23816,23816,23816,23816,23816,23816,23816,23816,23816,23816,23816,23816,23816,23816,23816,23816,23816,23816,23816,23816,23816,23816,23816,23816,23816,
23816,23816,23816,23816,23816,23816,23816,23816,23816,23816,23816,23816,23816,23816,23816,23816,23816,23816,23816,23816,23816,23816,23816,23816,23816,23816,23816,23816,23816,23816,23816,23816,23816,23816,23816,23816,23816,23816,23816,23816,23816,23816,23816,23816,23816,23816,23816,23816,23816,23816,23816,23816,23816,23816,23816,23816,23816,23816,23816,23816,
23816,23816,23816,23816,23816,23816,23816,23816,23816,23816,23816,23816,23816,23816,23816,23816,23816,23816,23816,23816,23816,23816,23816,23816,23816,23816,23816,23816,23816,23816,23816,23816,23816,23816,23816,23816,23816,23816,23816,23816,23816,23816,23816,23816,23816,23816,23816,23816,23816,23816,23816,23816,23816,23816,23816,23816,23816,23816,23816,23816,
23816,23816,23816,23816,23816,23816,23816,23816,23816,23816,23816,23816,23816,23816,23816,23816,23816,23816,23816,23816,23816,23816,23816,23816,23816,23816,23816,23816,23816,23816,23816,23816,23816,23816,23816,23816,23816,23816,23816,23816,23816,23816,23816,23816,23816,23816,23816,23816,23816,23816,23816,23816,23816,23816,23816,23816,23816,23816,23816,23816,
23816,23816,23816,23816,23816,23816,23816,23816,23816,23816,23816,23816,23816,23816,23816,23816,23816,23816,23816,23816,23816,23816,23816,23816,23816,23816,23816,23816,23816,23816,23816,23816,23816,23816,23816,23816,23816,23816,23816,23816,23816,23816,23114,23115,23115,23115,23115,23115,23115,23116,23816,23816,23816,23816,23816,23816,23816,23816,23816,23816,
23816,23816,23816,23816,23816,23816,23816,23816,23816,23816,23816,23816,23816,23816,23816,23816,23816,23816,23816,23816,23816,23816,23816,23816,23816,23816,23816,23816,23816,23816,23816,23816,23816,23816,23816,23816,23816,23816,23816,23816,23816,23816,23254,23255,23255,23255,23255,23255,23255,23256,23816,23816,23816,23816,23816,23816,23816,23816,23816,23816,
23816,23816,23816,23816,23816,23816,23816,23816,23816,23816,23816,23816,23816,23816,23816,23816,25656,25656,25656,23816,23816,23816,23816,23816,23816,23816,23816,23816,23816,23816,23816,23816,23816,23816,23816,23114,23115,23115,23115,23115,23115,23115,23675,23255,23255,23534,23395,23395,23395,23396,23816,23816,23816,23816,23816,23816,23816,23816,23816,23816,
23816,23816,23816,23816,23816,23816,23816,23816,23816,23816,23816,23816,25656,25656,25656,25656,25656,25656,25656,25656,23816,23816,23816,23816,23816,23816,23816,23816,23816,23816,23816,23115,23115,23115,23115,23675,23255,23255,23255,23255,23255,23255,23255,23255,23255,23256,23816,23816,26640,26640,26640,23816,23816,23816,23816,23816,23816,23816,23816,23816,
23816,25656,25656,23816,23816,23816,23816,23816,23816,23816,25656,25656,25656,25656,25656,25953,25814,25814,25656,25656,25656,23816,23816,23816,23816,23816,23816,23816,23816,23816,23816,23255,23255,23255,23255,23255,23534,23395,23395,23395,23395,23395,23395,23395,23395,23396,23816,26640,26640,26640,26640,26640,23816,23816,23816,23816,23816,23816,23816,23816,
25656,25656,25656,25656,23816,23816,23816,23816,23816,23816,25656,25656,25656,26637,25656,25675,0,0,25673,25656,25656,25656,23816,23816,23816,23816,23816,23816,23254,23255,23256,23395,23395,23395,23395,23395,23396,23816,23816,23816,23816,23816,23816,23816,23816,23816,25656,25656,25656,26637,25656,25656,26640,23816,23816,25656,25656,25656,23816,23816,
25656,25656,25656,25656,23816,23816,25656,25656,25656,25656,25656,25953,25814,26777,25814,25815,0,0,25813,25954,25656,25656,23816,25656,25656,23816,23816,23816,23254,23255,23256,23816,23816,23816,23816,23816,23816,23816,23816,23816,23816,23816,23816,25656,25656,25656,25656,26640,26775,26777,26778,25656,25656,26640,26640,26640,26640,25656,23816,23816,
25656,25656,26637,25656,25656,25656,25656,25656,25953,25814,25814,25815,0,0,0,0,0,0,0,25673,25656,25656,25656,25656,25656,25656,23816,23816,23254,23255,23256,23816,23816,23816,23816,23816,23816,25656,25656,25656,25656,25656,25656,25656,26640,26640,26640,26775,25815,0,25673,25656,25656,25656,26640,26640,26640,25656,25656,26640,
25814,25814,26777,25814,25954,25656,25656,25656,25675,0,0,0,0,0,0,0,0,0,0,25673,25656,25656,25656,25656,25656,25656,25656,23816,23254,23255,23256,23816,23816,25656,25656,25656,25656,25656,25656,25656,25656,26635,25656,25656,26637,25656,26775,25815,26074,0,25813,25954,25656,26357,25656,25656,26640,26640,26640,26640,
0,0,0,0,25813,25814,25814,25814,25815,0,0,0,0,0,0,0,0,0,0,25813,25814,25954,25656,25656,26637,25656,25656,25656,23254,23255,23256,25656,25656,25656,25656,25656,25656,25656,25656,25656,25656,26075,25814,25814,26777,25814,25815,0,0,0,0,25795,25796,25796,25796,25796,26076,25656,26640,26640,
0,0,0,0,0,0,0,0,0,0,0,0,0,0,0,0,0,0,0,0,0,25813,25814,25814,26777,25954,25656,25656,23254,23255,23256,25656,25656,25656,25656,26637,25656,25953,25814,25814,25814,25815,0,0,0,0,0,0,0,0,0,25935,25936,25936,25936,25936,26216,25656,25656,25656,
0,0,0,0,0,0,0,0,0,0,0,0,0,0,0,0,0,0,0,0,0,0,0,0,0,25813,25814,25814,25814,25814,25814,25814,25814,25814,25814,26777,25814,25815,0,0,0,0,0,0,0,0,0,0,0,0,0,0,0,0,0,0,25795,25796,25796,25796,
0,0,0,0,0,0,0,0,0,25536,25537,25537,25538,0,0,0,0,0,0,0,0,0,0,0,0,0,0,0,0,0,0,0,0,0,0,0,0,0,0,0,0,0,0,0,0,0,0,0,0,0,0,0,0,0,0,0,25935,25936,25936,25936,
0,0,0,0,0,0,0,25536,25537,26097,25659,25659,26096,25537,25537,25537,25538,0,0,0,0,0,0,0,0,0,0,0,0,0,0,0,0,0,0,0,0,0,0,0,0,0,0,0,0,0,0,0,0,0,0,0,0,0,0,0,0,0,0,0,
0,0,0,0,0,25536,25537,26097,25659,25659,25659,25659,25659,25659,25659,25659,26096,25537,25537,25538,0,0,0,0,0,0,0,0,0,0,0,0,0,0,0,0,0,0,0,0,0,0,0,0,0,0,0,0,0,0,0,0,0,0,0,0,0,0,0,0,
0,0,0,0,25536,26097,25659,25659,25659,25659,25659,25659,25659,25659,25659,25659,25659,25659,25659,26096,25537,25537,25538,0,0,0,0,25518,25519,25519,25519,25520,25375,25375,0,0,0,0,0,0,0,0,0,0,0,0,0,0,0,0,0,0,0,0,0,0,0,0,0,0,
25537,25537,25537,25537,26097,25659,25659,25659,25659,25659,25659,25659,25659,25659,25659,25659,25659,25659,25659,25659,25659,25659,26096,25537,25537,25537,25537,26359,2242,2243,2244,26358,25519,25519,25519,25519,25519,25520,0,0,0,25518,25519,25519,25520,0,0,0,0,0,0,0,0,0,0,0,0,0,25518,25519,
25659,25659,25659,25659,25659,25659,25659,25659,25659,25659,25659,25659,25659,25659,25659,25659,25659,25659,25659,25659,25659,25659,25659,25659,25659,25659,2802,2802,2242,2243,2244,2802,2802,25659,25659,25659,25659,26358,25519,25519,25519,26359,25659,25659,26358,25519,25519,25519,25520,0,0,0,0,25518,25519,25519,25519,25519,26359,25659,
25659,25659,25659,25659,25659,25659,25659,25659,25659,25659,25659,25659,25659,25659,25659,25659,25659,25659,25659,25659,25659,25659,25659,25659,25659,25659,2802,2802,2242,2243,2244,2802,2802,25659,25659,25659,25659,25659,25659,25659,25659,25659,25659,25659,25659,25659,25659,25659,26358,25519,25519,25519,25519,26359,25659,25659,25659,25659,25659,25659,
25659,25659,25659,25659,25659,25659,25659,25659,25659,25659,25659,25659,25659,25659,25659,25659,25659,25659,25659,25659,25659,25659,25659,25659,25659,25659,2802,2802,2242,2243,2244,2802,2802,25659,25659,25659,25659,25659,25659,25659,25659,25659,25659,25659,25659,25659,25659,25659,25659,25659,25659,25659,25659,25659,25659,25659,25659,25659,25659,25659,
25659,25659,25659,25659,25659,25659,25659,25659,25659,25659,25659,25659,25659,25659,25659,25659,25659,25659,25659,25659,25659,25659,25659,25659,25659,25659,25659,25659,23242,23243,23244,25659,25659,25659,25659,25659,25659,25659,25659,25659,25659,25659,25659,25659,25659,25659,25659,25659,25659,25659,25659,25659,25659,25659,25659,25659,25659,25659,25659,25659,
25659,0,25659,25659,25659,25659,25659,25659,25659,25659,25659,25659,25659,25659,25659,25659,25659,25659,25659,25659,25659,25659,25659,25659,25659,25659,25659,25659,23242,23243,23244,25659,25659,25659,25659,25659,25659,25659,25659,25659,25659,25659,25659,25659,25659,25659,25659,25659,25659,25659,25659,25659,25659,25659,25659,25659,25659,25659,25659,25659,
25659,25659,25659,25659,25659,25659,25659,25659,25659,25659,25659,25659,25659,25659,25659,25659,25659,25659,25659,25659,25659,25659,25659,25659,25659,25659,25659,25659,23242,23243,23244,25659,25659,25659,25659,25659,25659,25659,25659,25659,25659,25659,25659,25659,25659,25659,25659,25659,25659,25659,25659,25659,25659,25659,25659,25659,25659,25659,25659,25659,
25659,25659,25659,25659,25659,25659,25659,25659,25659,25659,25659,25659,25659,25659,25659,25659,25659,25659,25659,25659,25659,25659,25659,25659,25659,25659,25659,25659,23242,23243,23244,25659,25659,25659,25659,25659,25659,25659,25659,25659,25659,25659,25659,25659,25659,25659,25659,25659,25659,25659,25659,25659,25659,25659,25659,25659,25659,25659,25659,25659,
25659,25659,25659,25659,25659,25659,25659,25659,25659,25659,25659,25659,25659,25659,25659,25659,25659,25659,25659,25659,25659,25659,25659,25659,25659,25659,25659,25659,23242,23243,23244,25659,25659,25659,25659,25659,25659,25659,25659,25659,25659,25659,25659,25659,25659,25659,25659,25659,25659,25659,25659,25659,25659,25659,25659,25659,25659,25659,25659,25659,
25659,25659,25659,25659,25659,25659,25659,25659,25659,25659,25659,25659,25659,25659,25659,25659,25659,25659,25659,25659,25659,25659,25659,25659,25659,25659,25659,25659,23242,23243,23244,25659,25659,25659,25659,25659,25659,25659,25659,25659,25659,25659,25659,25659,25659,25659,25659,25659,25659,25659,25659,25659,25659,25659,25659,25659,25659,25659,25659,25659,
25659,25659,25659,25659,25659,25659,25659,25659,25659,25659,25659,25659,25659,25659,25659,25659,25659,25659,25659,25659,25659,25659,25659,25659,25659,25659,25659,25659,23242,23243,23244,25659,25659,25659,25659,25659,25659,25659,25659,25659,25659,25659,25659,25659,25659,25659,25659,25659,25659,25659,25659,25659,25659,25659,25659,25659,25659,25659,25659,25659,
25659,25659,25659,25659,25659,25659,25659,25659,25659,25659,25659,25659,25659,25659,25659,25659,25659,25659,25659,25659,25659,25659,25659,25659,25659,25659,25659,25659,23242,23243,23244,25659,25659,25659,25659,25659,25659,25659,25659,25659,25659,25659,25659,25659,25659,25659,25659,25659,25659,25659,25659,25659,25659,25659,25659,25659,25659,25659,25659,25659
</data>
 </layer>
 <layer id="6" name="IntermediaryLayer" width="60" height="60">
  <data encoding="csv">
0,0,0,0,0,0,0,0,0,0,0,0,0,0,0,0,0,0,0,0,0,0,0,0,0,0,0,0,0,0,0,0,0,0,0,0,0,0,0,0,0,0,0,0,0,0,0,0,0,0,0,0,0,0,0,0,0,0,0,0,
0,0,0,0,0,0,0,0,0,0,0,0,0,0,0,0,0,0,0,0,0,0,0,0,0,0,0,0,0,0,0,0,0,0,0,0,0,0,0,0,0,0,0,0,0,0,0,0,0,0,0,0,0,0,0,0,0,0,0,0,
0,0,0,0,0,0,0,0,0,0,0,0,0,0,0,0,0,0,0,0,0,0,0,0,0,0,0,0,0,0,0,0,0,0,0,0,0,0,0,0,0,0,0,0,0,0,0,0,0,0,0,0,0,0,0,0,0,0,0,0,
0,0,0,0,0,0,0,0,0,0,0,0,0,0,0,0,0,0,0,0,0,0,0,0,0,0,0,0,0,0,0,0,0,0,0,0,0,0,0,0,0,0,0,0,0,0,0,0,0,0,0,0,0,0,0,0,0,0,0,0,
0,0,0,0,0,0,0,0,0,0,0,0,0,0,0,0,0,0,0,0,0,0,0,0,0,0,0,0,0,0,0,0,0,0,0,0,0,0,0,0,0,0,0,0,0,0,0,0,0,0,0,0,0,0,0,0,0,0,0,0,
0,0,0,0,0,0,0,0,0,0,0,0,0,0,0,0,0,0,0,0,0,0,0,0,0,0,0,0,0,0,0,0,0,0,0,0,0,0,0,0,0,0,0,0,0,0,0,0,0,0,0,0,0,0,0,0,0,0,0,0,
0,0,0,0,0,0,0,0,0,0,0,0,0,0,0,0,0,0,0,0,0,0,0,0,0,0,0,0,0,0,0,0,0,0,0,0,0,0,0,0,0,0,0,0,0,0,0,0,0,0,0,0,0,0,0,0,0,0,0,0,
0,0,0,0,0,0,0,0,0,0,0,0,0,0,0,0,0,0,0,0,0,0,0,0,0,0,0,0,0,0,0,0,0,0,0,0,0,0,0,0,0,0,0,0,0,0,0,0,0,0,0,0,0,0,0,0,0,0,0,0,
0,0,0,0,0,0,0,0,0,0,0,0,0,0,0,0,0,0,0,0,0,0,0,0,0,0,0,0,0,0,0,0,0,0,0,0,0,0,0,0,0,0,0,0,0,0,0,0,0,0,0,0,0,0,0,0,0,0,0,0,
0,0,0,0,0,0,0,0,0,0,0,0,0,0,0,0,0,0,0,0,0,0,0,0,0,0,0,0,0,0,0,0,0,0,0,0,0,0,0,0,0,0,0,0,0,0,0,0,0,0,0,0,0,0,0,0,0,0,0,0,
0,0,0,0,0,0,0,0,0,0,0,0,0,0,0,0,0,0,0,0,0,0,0,0,0,0,0,0,0,0,0,0,0,0,0,0,0,0,0,0,0,0,0,0,0,0,0,0,0,0,0,0,0,0,0,0,0,0,0,0,
0,0,0,0,0,0,0,0,0,0,0,0,0,0,0,0,0,0,0,0,0,0,0,0,0,0,0,0,0,0,0,0,0,0,0,0,0,0,0,0,0,0,0,0,0,0,0,0,0,0,0,0,0,0,0,0,0,0,0,0,
0,0,0,0,0,0,0,0,0,0,0,0,0,0,0,0,0,0,0,0,0,0,0,0,0,0,0,0,0,0,0,0,0,0,0,0,0,0,0,0,0,0,0,0,0,0,0,0,0,0,0,0,0,0,0,0,0,0,0,0,
0,0,0,0,0,0,0,0,0,0,0,0,0,0,0,0,0,0,0,0,0,0,0,0,0,0,0,0,0,0,0,0,0,0,0,0,0,0,0,0,0,0,0,0,0,0,0,0,0,0,0,0,0,0,0,0,0,0,0,0,
0,0,0,0,0,0,0,0,0,0,0,0,0,0,0,0,0,0,0,0,0,0,0,0,0,0,0,0,0,0,0,0,0,0,0,0,0,0,0,0,0,0,0,0,0,0,0,0,0,0,0,0,0,0,0,0,0,0,0,0,
0,0,0,0,0,0,0,0,0,0,0,0,0,0,0,0,0,0,0,0,0,0,0,0,0,0,0,0,0,0,0,0,0,0,0,0,0,0,0,0,0,0,0,0,0,0,0,0,0,0,0,0,0,0,0,0,0,0,0,0,
0,0,0,0,0,0,0,0,0,0,0,0,0,0,0,0,0,0,0,0,0,0,0,0,0,0,0,0,0,0,0,0,0,0,0,0,0,0,0,0,0,0,0,0,0,0,0,0,0,0,0,0,0,0,0,0,0,0,0,0,
0,0,0,0,0,0,0,0,0,0,0,0,0,0,0,0,0,0,0,0,0,0,0,0,0,0,0,0,0,0,0,0,0,0,0,0,0,0,0,0,0,0,0,0,0,0,0,0,0,0,0,0,0,0,0,0,0,0,0,0,
0,0,0,0,0,0,0,0,0,0,0,0,0,0,5182,5183,5183,5183,5183,5183,5183,5183,5183,5183,5183,5183,5184,5185,0,0,0,5182,5183,5184,5183,5183,5183,5183,5183,5183,5183,5183,5183,5183,5184,5183,5183,5184,5184,5185,0,0,0,0,0,0,0,0,0,0,
0,0,0,0,0,0,0,0,0,0,0,0,0,0,0,0,0,0,0,0,0,0,0,0,0,0,0,0,0,0,0,0,0,0,0,0,0,0,0,0,0,0,0,0,0,0,0,0,0,0,0,0,0,0,0,0,0,0,0,0,
0,0,0,0,0,0,0,0,0,0,0,0,0,0,0,0,0,0,0,0,0,0,0,0,0,0,0,0,0,0,0,0,0,0,0,0,0,0,0,0,0,0,0,0,0,0,0,0,0,0,0,0,0,0,0,0,0,0,0,0,
0,0,0,0,0,0,0,0,0,0,0,0,0,0,0,0,0,0,0,0,0,0,0,0,0,0,0,0,0,0,0,0,0,0,0,0,0,0,0,0,0,0,0,0,0,0,0,0,0,0,0,0,0,0,0,0,0,0,0,0,
0,0,0,0,0,0,0,0,0,0,0,0,0,0,0,0,0,0,0,0,0,0,0,0,0,0,0,0,0,0,0,0,0,0,0,0,0,0,0,0,0,0,0,0,0,0,0,0,0,0,0,0,0,0,0,0,0,0,0,0,
0,0,0,0,0,0,0,0,0,0,0,0,0,0,0,0,0,0,0,0,0,0,0,0,0,0,0,0,0,0,0,0,0,0,0,0,0,0,0,0,0,0,0,0,0,0,0,0,0,0,0,0,0,0,0,0,0,0,0,0,
0,0,0,0,0,0,0,0,0,0,0,0,0,0,0,0,0,0,0,0,0,0,0,0,0,0,0,0,0,0,0,0,0,0,0,0,0,0,0,0,0,0,0,0,0,0,0,0,0,0,0,0,0,0,0,0,0,0,0,0,
0,0,0,0,0,0,0,0,0,0,0,0,0,0,0,0,0,0,0,0,0,0,0,0,0,0,0,0,0,0,0,0,0,0,0,0,30009,0,0,0,0,0,0,0,0,0,0,0,0,0,0,0,0,0,0,0,0,0,0,0,
0,0,0,0,0,0,0,0,0,0,0,0,0,0,0,0,0,0,0,0,0,0,0,0,0,0,0,0,0,0,0,0,0,0,0,0,30149,0,0,0,30288,30289,0,0,0,0,0,0,0,0,0,0,0,0,0,0,0,0,0,0,
0,0,0,0,0,0,0,0,0,0,0,0,0,0,0,0,0,0,0,0,0,0,0,0,0,0,0,0,23254,23255,23674,23115,23115,23115,23115,23115,23115,23115,23115,23115,23115,23115,23115,23116,0,0,0,0,0,0,0,0,0,0,0,0,0,0,0,0,
0,0,0,0,0,0,0,0,0,0,0,0,0,0,0,0,0,0,0,0,0,0,0,0,0,0,0,0,23254,23255,23255,23255,23255,23255,23255,23255,23255,23255,23255,23255,23255,23255,23255,23256,0,0,0,0,0,0,0,0,0,0,0,0,0,0,0,0,
0,0,0,0,0,0,0,0,0,0,0,0,0,0,0,0,0,0,0,0,0,0,0,0,0,0,0,0,23254,23255,23534,23395,23395,23395,23395,23395,23395,23395,23535,23255,23534,23395,23395,23396,0,0,0,0,0,0,0,0,0,0,0,0,0,0,0,0,
0,0,0,0,0,0,0,0,0,0,0,0,0,0,0,0,0,0,0,0,0,0,0,0,0,0,0,0,23254,23255,23256,0,0,0,0,0,0,0,23254,23255,23256,0,0,0,0,0,0,0,0,0,0,0,0,0,0,0,0,0,0,0,
0,0,0,0,0,0,0,0,0,0,0,0,0,0,0,0,0,0,0,0,0,0,0,0,0,0,0,0,23254,23255,23256,0,0,0,0,0,0,0,23254,23255,23256,0,0,0,0,0,0,0,0,0,0,0,0,0,0,0,0,0,0,0,
0,0,0,0,0,0,0,0,0,0,0,0,0,0,0,0,0,0,0,0,0,0,0,0,0,0,0,0,23254,23255,23256,0,0,0,0,0,0,0,23254,23255,23256,0,0,0,0,0,0,0,0,0,0,0,0,0,0,0,0,0,0,0,
0,0,0,0,0,0,0,0,0,0,0,0,0,0,0,0,0,0,0,0,0,0,0,0,0,0,0,0,23254,23255,23256,0,0,0,0,0,0,0,23254,23255,23256,0,0,0,0,0,0,0,0,0,0,0,0,0,0,0,0,0,0,0,
0,0,0,0,0,0,0,0,0,0,0,0,0,0,0,0,0,0,0,0,0,0,0,0,0,0,0,0,23254,23255,23256,0,0,0,0,0,0,0,23675,23255,23674,0,0,0,0,0,0,0,0,0,0,0,0,0,0,0,0,0,0,0,
0,0,0,0,0,0,0,0,0,0,0,0,0,0,0,0,0,0,0,0,0,0,0,0,0,0,0,0,23254,23255,23674,0,0,0,0,0,0,0,0,0,0,0,0,0,0,0,0,0,0,0,0,0,0,0,0,0,0,0,0,0,
0,0,0,0,0,0,0,0,0,0,0,0,0,0,0,0,0,0,0,0,0,0,0,0,0,0,0,0,23254,23255,23255,23255,0,0,0,0,0,0,0,0,0,0,0,0,0,0,0,0,0,0,0,0,0,0,0,0,0,0,0,0,
0,0,0,0,0,0,0,0,0,0,0,0,0,0,0,0,0,0,0,0,0,0,0,0,0,0,0,0,0,0,23534,0,0,0,0,0,0,0,0,0,0,0,0,0,0,0,0,0,0,0,0,0,0,0,0,0,0,0,0,0,
0,0,0,0,0,0,0,0,0,0,0,0,0,0,0,0,0,0,0,0,0,0,0,0,0,0,0,0,0,0,0,0,0,0,0,0,0,0,0,0,0,0,0,0,0,0,0,0,0,0,0,0,0,0,0,0,0,0,0,0,
0,0,0,0,0,0,0,0,0,0,0,0,0,0,0,0,0,0,0,0,0,0,0,0,0,0,0,0,0,0,0,0,0,0,0,0,0,0,0,0,0,0,0,0,0,0,0,0,0,0,0,0,0,0,0,0,0,0,0,0,
0,0,0,0,0,0,0,0,0,0,0,0,0,0,0,0,0,0,0,0,0,0,0,0,0,0,0,0,0,0,0,0,0,0,0,0,0,0,0,0,0,0,0,0,0,0,0,0,0,0,0,0,0,0,0,0,0,0,0,0,
0,0,0,0,0,0,0,0,0,0,0,0,0,0,0,0,0,0,0,0,0,0,0,0,0,0,0,0,0,0,0,0,0,0,0,0,0,0,0,0,0,0,0,0,0,0,0,0,0,0,0,0,0,0,0,0,0,0,0,0,
0,0,0,0,0,0,0,0,0,0,0,0,0,0,0,0,0,0,0,0,0,0,0,0,0,0,0,0,0,0,0,0,0,0,0,0,0,0,0,0,0,0,0,0,0,0,0,0,0,0,0,0,0,0,0,0,0,0,0,0,
0,0,0,0,0,0,0,0,0,0,0,0,0,0,0,0,0,0,0,0,0,0,0,0,0,0,0,0,0,0,0,0,0,0,0,0,0,0,0,0,0,0,0,0,0,0,0,0,0,0,0,0,0,0,0,0,0,0,5207,0,
0,0,0,0,0,0,0,0,0,0,0,0,0,0,0,0,0,0,0,0,0,0,0,0,0,0,0,0,0,0,0,0,0,0,0,0,0,0,0,0,0,0,0,0,0,0,0,0,0,0,0,0,0,0,0,0,0,0,5347,0,
0,0,0,0,0,0,0,0,0,0,0,0,0,0,0,0,0,0,0,0,0,0,0,0,0,0,0,0,0,0,0,0,0,0,0,0,0,0,0,0,0,0,0,0,0,0,0,0,0,0,0,0,0,0,0,0,0,5203,0,0,
0,0,0,0,0,0,0,0,0,0,0,0,0,0,0,0,0,0,0,0,0,0,0,0,0,0,0,0,0,0,0,0,0,0,0,0,0,0,0,0,0,0,0,0,0,0,0,0,0,0,0,0,0,0,0,0,0,0,0,5203,
0,0,0,0,0,0,0,0,0,0,0,0,0,0,0,0,0,0,0,0,0,0,0,0,0,0,0,0,0,0,0,0,0,0,0,0,0,0,0,0,0,0,0,0,0,0,0,0,0,0,0,0,0,0,0,0,0,0,0,0,
0,0,0,0,0,0,0,0,0,0,0,0,0,0,0,0,0,0,0,0,0,0,0,0,0,0,0,0,0,0,0,0,0,0,0,0,0,0,0,0,0,0,0,0,0,0,0,0,0,0,0,0,0,0,0,0,0,0,0,0,
0,0,0,0,0,0,0,0,0,0,0,0,0,0,0,0,0,0,0,0,0,0,0,0,0,0,0,0,0,0,0,0,0,0,0,0,0,0,0,0,0,0,0,0,0,0,0,0,0,0,0,0,0,0,0,0,0,0,0,0,
0,0,0,0,0,0,0,0,0,0,0,0,0,0,0,0,0,0,0,0,0,0,0,0,0,0,0,0,24616,24617,24618,0,0,0,0,0,0,0,0,0,0,0,0,0,0,0,0,0,0,0,0,0,0,0,0,0,0,0,0,0,
0,0,0,0,0,0,0,0,0,0,0,0,0,0,0,0,0,0,0,0,0,0,0,0,0,0,0,0,24756,24757,24758,0,0,0,0,0,0,0,0,0,0,0,0,0,0,0,0,0,0,0,0,0,0,0,0,0,0,0,0,0,
0,0,0,0,0,0,0,0,0,0,0,0,0,0,0,0,0,0,0,0,0,0,0,0,0,0,0,0,24756,24757,24758,0,0,0,0,0,0,0,0,0,0,0,0,0,0,0,0,0,0,0,0,0,0,0,0,0,0,0,0,0,
0,0,0,0,0,0,0,0,0,0,0,0,0,0,0,0,0,0,0,0,0,0,0,0,0,0,0,0,24756,24757,24758,0,0,0,0,0,0,0,0,0,0,0,0,0,0,0,0,0,0,0,0,0,0,0,0,0,0,0,0,0,
0,0,0,0,0,0,0,0,0,0,0,0,0,0,0,0,0,0,0,0,0,0,0,0,0,0,0,0,0,0,0,0,0,0,0,0,0,0,0,0,0,0,0,0,0,0,0,0,0,0,0,0,0,0,0,0,0,0,0,0,
0,0,0,0,0,0,0,0,0,0,0,0,0,0,0,0,0,0,0,0,0,0,0,0,0,0,0,0,0,0,0,0,0,0,0,0,0,0,0,0,0,0,0,0,0,0,0,0,0,0,0,0,0,0,0,0,0,0,0,0,
0,0,0,0,0,0,0,0,0,0,0,0,0,0,0,0,0,0,0,0,0,0,0,0,0,0,0,0,0,0,0,0,0,0,0,0,0,0,0,0,0,0,0,0,0,0,0,0,0,0,0,0,0,0,0,0,0,0,0,0,
0,0,0,0,0,0,0,0,0,0,0,0,0,0,0,0,0,0,0,0,0,0,0,0,0,0,0,0,0,0,0,0,0,0,0,0,0,0,0,0,0,0,0,0,0,0,0,0,0,0,0,0,0,0,0,0,0,0,0,0,
0,0,0,0,0,0,0,0,0,0,0,0,0,0,0,0,0,0,0,0,0,0,0,0,0,0,0,0,0,0,0,0,0,0,0,0,0,0,0,0,0,0,0,0,0,0,0,0,0,0,0,0,0,0,0,0,0,0,0,0,
0,0,0,0,0,0,0,0,0,0,0,0,0,0,0,0,0,0,0,0,0,0,0,0,0,0,0,0,0,0,0,0,0,0,0,0,0,0,0,0,0,0,0,0,0,0,0,0,0,0,0,0,0,0,0,0,0,0,0,0
</data>
 </layer>
 <layer id="3" name="VegetationLayer" width="60" height="60">
  <data encoding="csv">
0,0,0,0,0,0,0,0,0,0,0,0,0,0,0,0,0,0,0,0,0,0,0,0,0,0,0,0,0,0,0,0,0,0,0,0,0,0,0,0,0,0,0,0,0,0,0,0,0,0,0,0,0,0,0,0,0,0,0,0,
0,0,0,0,0,0,0,0,0,0,0,0,0,0,0,0,0,0,0,0,0,0,0,0,0,0,0,0,0,0,0,0,0,0,0,0,0,0,0,0,0,0,0,0,0,0,0,0,0,0,0,0,0,0,0,0,0,0,0,0,
0,0,0,0,0,0,0,0,0,0,0,0,0,0,0,0,0,0,0,0,0,0,0,0,0,0,0,0,0,0,0,0,0,0,0,0,0,0,0,0,0,0,0,0,0,0,0,0,0,0,0,0,0,0,0,0,0,0,0,0,
0,0,0,0,0,0,0,0,0,0,0,0,0,0,0,0,0,0,0,0,0,0,0,0,0,0,0,0,0,0,0,0,0,0,0,0,0,0,0,0,0,0,0,0,0,0,0,0,0,0,0,0,0,0,0,0,0,0,0,0,
0,0,0,0,0,0,0,0,0,0,0,0,0,0,0,0,0,0,0,0,0,0,0,0,0,0,0,0,0,0,0,0,0,0,0,0,0,0,0,0,0,0,0,0,0,0,0,0,0,0,0,0,0,0,0,0,0,0,0,0,
0,0,0,0,0,0,0,0,0,0,0,0,0,0,0,0,0,0,0,0,0,0,0,0,0,0,0,0,0,0,0,0,0,0,0,0,0,0,0,0,0,0,0,0,0,0,0,0,0,0,0,0,0,0,0,0,0,0,0,0,
0,0,0,0,0,0,0,0,0,0,0,0,0,0,0,0,0,0,0,0,0,0,0,0,0,0,0,0,0,0,0,0,0,0,0,0,0,0,0,0,0,0,0,0,0,0,0,0,0,0,0,0,0,0,0,0,0,0,0,0,
0,0,0,0,0,0,0,0,0,0,0,0,0,0,0,0,0,0,0,0,0,0,0,0,0,0,0,0,0,0,0,0,0,0,0,0,0,0,0,0,0,0,0,0,0,0,0,0,0,0,0,0,0,0,0,0,0,0,0,0,
0,0,0,0,0,0,0,0,0,0,0,0,0,0,0,0,0,0,0,0,0,0,0,0,0,0,0,0,0,0,0,0,0,0,0,0,0,0,0,0,0,0,0,0,0,0,0,0,0,0,0,0,0,0,0,0,0,0,0,0,
0,0,0,0,0,0,0,0,0,0,0,0,0,0,0,0,0,0,0,0,0,0,0,0,0,0,0,0,0,0,0,0,0,0,0,0,0,0,0,0,0,0,0,0,0,0,0,0,0,0,0,0,0,0,0,0,0,0,0,0,
0,0,0,0,0,0,0,0,0,0,0,0,0,0,0,0,0,0,0,0,0,0,0,0,0,0,0,0,0,0,0,0,0,0,0,0,0,0,0,0,0,0,0,0,0,0,0,0,0,0,0,0,0,0,0,0,0,0,0,0,
0,0,0,0,0,0,0,0,0,0,0,0,0,0,0,0,0,0,0,0,0,0,0,0,0,0,0,0,0,0,0,0,0,0,0,0,0,0,0,0,0,0,0,0,0,0,0,0,0,0,0,0,0,0,0,0,0,0,0,0,
0,0,0,0,0,0,0,0,0,0,0,0,0,0,0,0,0,0,0,0,0,0,0,0,0,0,0,0,0,0,0,0,0,0,0,0,0,0,0,0,0,0,0,0,0,0,0,0,0,0,0,0,0,0,0,0,0,0,0,0,
0,0,0,0,0,0,0,0,0,0,0,0,0,0,0,0,0,0,0,0,0,0,0,0,0,0,0,0,0,0,0,0,0,0,0,0,0,0,0,0,0,0,0,0,0,0,0,0,0,0,0,0,0,0,0,0,0,0,0,0,
0,0,0,0,0,0,0,0,0,0,0,0,0,0,0,0,0,0,0,0,0,0,0,0,0,0,0,0,0,0,0,0,0,0,0,0,0,0,0,0,0,0,0,0,0,0,0,0,0,0,0,0,0,0,0,0,0,0,0,0,
0,0,0,0,0,0,0,0,0,0,0,0,0,0,0,0,0,0,0,0,0,0,0,0,0,0,0,0,0,0,0,0,0,0,0,0,0,0,0,0,0,0,0,0,0,0,0,0,0,0,0,0,0,0,0,0,0,0,0,0,
0,0,0,0,0,0,0,0,0,0,0,0,0,0,0,0,0,0,0,0,0,0,0,0,0,0,0,0,0,0,0,0,0,0,0,0,0,0,0,0,0,0,0,0,0,0,0,0,0,0,0,0,0,0,0,0,0,0,0,0,
0,0,0,0,0,0,0,0,0,0,0,0,0,0,0,0,0,0,0,0,0,0,0,0,0,0,0,0,0,0,0,0,0,0,0,0,0,0,0,0,0,0,0,0,0,0,0,0,0,0,0,0,0,0,0,0,0,0,0,0,
0,0,0,0,0,0,0,0,0,0,0,0,0,0,0,0,0,0,0,0,0,0,0,0,0,0,0,0,0,0,0,0,0,0,0,0,0,0,0,0,0,0,0,0,0,0,0,0,0,0,0,0,0,0,0,0,0,0,0,0,
0,0,0,0,0,0,0,0,0,0,0,0,0,0,0,0,0,0,0,0,0,0,0,0,0,0,0,0,0,0,0,0,0,0,0,0,0,0,0,0,0,0,0,0,0,0,0,0,0,0,0,0,0,0,0,0,0,0,0,0,
0,0,0,0,0,0,0,0,0,0,0,0,0,0,0,0,0,0,0,0,0,0,0,0,0,0,0,0,0,0,0,0,0,0,0,0,0,0,0,0,0,0,0,0,0,0,0,0,0,0,0,0,0,0,0,0,0,0,0,0,
0,0,0,0,0,0,0,0,0,0,0,0,0,0,0,0,0,0,0,0,0,0,0,0,0,0,0,0,0,0,0,0,0,0,0,0,0,0,0,0,0,0,0,0,0,0,0,0,0,0,0,0,0,0,0,0,0,0,0,0,
0,0,0,0,0,0,0,0,0,0,0,0,0,0,0,0,0,0,0,0,0,0,0,0,0,0,0,0,0,0,0,0,0,0,0,0,0,0,0,0,0,0,0,0,0,0,0,0,0,0,0,0,0,0,0,0,0,0,0,0,
0,0,0,0,0,0,0,0,0,0,0,0,0,0,0,0,0,0,0,0,0,0,0,0,0,0,0,0,0,0,0,0,0,0,0,0,0,0,0,0,0,0,0,0,0,0,0,0,0,0,0,0,0,0,0,0,0,0,0,0,
0,0,0,0,0,0,0,0,0,0,0,0,0,0,0,0,0,0,0,0,0,0,0,0,0,0,0,0,0,0,0,0,0,0,0,0,0,0,0,0,0,0,0,0,0,0,0,0,0,0,0,0,0,0,0,0,0,0,0,0,
0,0,0,0,0,0,0,0,0,0,0,0,0,0,0,0,0,0,0,0,0,3085,0,0,0,0,0,0,0,0,0,0,0,0,0,0,0,0,0,0,0,0,0,0,0,0,0,0,0,0,0,0,0,0,0,0,0,0,0,0,
0,0,0,0,0,0,0,0,0,0,0,0,0,0,0,0,0,0,0,0,0,0,0,0,0,0,0,0,0,0,0,0,0,0,0,0,0,0,0,0,0,0,0,0,0,0,0,0,0,0,0,0,0,0,0,0,0,0,0,0,
0,0,0,0,0,0,0,0,0,0,0,0,0,0,0,0,0,0,0,0,0,0,0,0,0,0,0,0,0,0,0,0,0,0,0,0,0,0,0,0,0,0,0,0,0,0,0,0,0,0,0,0,0,0,0,0,0,0,0,0,
0,0,0,0,0,0,0,0,0,0,0,0,0,0,0,0,0,0,0,0,0,0,0,0,0,0,0,0,0,0,0,0,0,0,0,0,0,0,0,0,0,0,0,0,0,0,0,0,0,0,0,0,0,0,0,0,0,0,0,0,
0,0,0,0,0,0,0,0,0,0,0,0,0,0,0,0,0,0,0,0,0,0,0,0,0,0,0,0,0,0,0,0,24084,0,0,0,0,24084,0,0,0,0,0,0,0,0,0,0,0,0,0,0,0,0,0,0,0,0,0,0,
0,0,0,0,0,0,0,0,0,0,0,0,0,0,0,0,0,0,0,0,0,0,0,0,0,0,0,0,0,0,0,0,0,0,0,24084,0,0,0,0,0,0,0,24084,0,0,0,0,0,0,0,0,0,0,0,0,0,0,0,0,
0,0,0,0,0,0,0,0,0,0,0,0,0,0,0,0,0,0,0,0,0,0,0,0,0,0,0,0,0,0,0,0,0,0,0,0,0,0,0,0,0,0,0,0,0,0,0,0,0,0,0,0,0,0,0,0,0,0,0,0,
0,0,0,0,0,0,0,0,0,0,0,0,0,0,0,0,0,0,0,0,0,0,0,0,0,0,0,0,0,0,0,24084,0,0,0,0,0,24084,0,0,0,0,0,0,0,0,0,0,0,0,0,0,0,0,0,0,0,0,0,0,
0,0,0,0,0,0,0,0,0,0,0,0,0,0,0,0,0,0,0,0,0,0,0,0,0,0,0,0,0,0,0,0,0,0,0,0,24084,0,0,0,0,24084,0,0,0,0,0,0,0,0,0,0,0,0,0,0,0,0,0,0,
0,0,0,0,0,0,0,0,0,0,0,0,0,0,0,0,23111,23112,23113,0,0,0,0,0,0,0,0,0,0,0,0,0,0,0,0,0,0,0,0,0,0,0,0,0,0,0,0,0,0,0,0,0,0,0,0,0,0,0,0,0,
0,0,0,0,0,0,0,0,0,0,0,0,23111,23112,23112,23112,23672,0,0,23113,0,0,0,0,0,0,0,0,0,0,0,0,0,0,0,0,0,0,0,0,0,0,0,0,0,0,0,0,23111,23112,0,0,0,0,0,0,0,0,0,0,
0,23111,23113,0,0,0,0,0,0,0,23111,23112,0,26203,0,0,0,0,0,23671,23113,0,0,0,0,0,0,0,0,0,0,0,0,0,0,0,0,0,0,0,0,0,0,0,0,24084,0,23111,0,0,0,23113,0,0,0,0,0,0,0,0,
23112,23672,23671,23113,0,0,0,0,0,23251,23251,0,0,0,0,0,0,0,0,0,23671,23113,0,0,0,0,0,0,0,0,0,0,0,0,0,0,24084,0,0,0,0,0,0,0,0,0,23111,0,0,0,0,23671,23113,0,0,23111,23112,23113,0,0,
0,0,26203,23253,0,0,23111,23112,23112,23112,23672,0,0,0,0,0,0,0,0,0,0,23253,0,23111,23113,0,0,0,0,0,0,0,0,0,0,0,0,0,0,0,0,24084,0,23111,23112,23112,23672,0,0,0,0,0,23671,23112,23112,23672,0,23253,0,0,
0,0,0,23671,23112,23112,23672,0,0,0,0,0,0,0,0,0,26769,26770,0,0,0,23671,23112,26203,23671,23113,0,0,0,0,0,0,0,24084,0,0,0,23111,23112,23112,23112,23112,23112,23672,0,0,26203,0,0,0,0,0,0,0,0,0,0,23671,23112,23112,
0,0,0,0,0,0,0,26203,0,0,0,0,26769,26770,0,26343,26909,26910,0,0,26203,0,0,0,0,23671,23113,0,0,0,0,0,23672,23111,23112,23112,23112,23672,0,0,0,0,0,26203,0,0,0,0,0,0,0,0,0,0,0,0,0,0,0,0,
0,0,0,0,0,0,0,0,0,0,0,0,26909,26910,0,0,0,24085,0,0,0,0,0,0,0,0,23671,23113,0,0,0,23111,23112,23672,0,26203,0,0,0,26203,0,0,0,0,0,0,0,0,0,0,24085,0,0,0,0,0,0,0,0,0,
24085,0,26343,0,0,0,26769,26770,0,0,0,0,0,0,0,0,0,0,0,0,0,0,0,0,0,0,0,23253,28879,28880,28881,23251,26203,0,0,0,0,0,0,0,0,0,0,0,0,0,0,0,26343,0,0,0,0,0,0,0,0,0,0,0,
0,0,0,24085,0,0,26909,26910,0,0,0,24085,0,0,0,0,0,0,26343,0,0,0,0,0,0,0,0,0,29019,29020,29021,0,0,0,0,0,0,0,0,0,0,0,26769,26770,0,0,0,0,0,26769,26770,0,0,0,0,0,0,0,0,0,
0,0,0,0,0,26343,0,0,0,0,0,0,0,0,0,0,0,0,0,0,0,26769,26770,0,0,0,0,0,29159,29160,29161,0,0,26769,26770,0,24085,24085,0,26343,0,0,26909,26910,0,0,24085,0,0,26909,26910,0,0,26343,0,0,0,0,0,0,
26769,26770,0,0,0,0,0,0,0,0,0,0,0,0,21005,21006,21007,0,0,0,0,26909,26910,0,24085,0,0,0,29159,29160,29161,0,0,26909,26910,0,0,0,0,0,0,0,0,0,0,0,0,0,0,0,0,0,0,0,0,26769,26770,0,0,0,
26909,26910,0,0,0,0,21102,21103,21104,21105,21106,0,0,0,21145,21146,21147,0,0,0,21005,21006,21007,0,0,26343,0,0,28879,28880,28881,0,0,0,0,0,0,0,0,26769,26770,0,0,0,0,0,0,0,26769,26770,0,0,0,0,0,26909,26910,0,0,0,
21005,21006,21007,0,0,0,21242,21243,21244,21245,21246,21005,21006,21007,21285,21286,21287,21005,21006,21007,21145,21146,21147,0,21005,21006,21007,0,29019,29020,29021,0,0,21005,21006,21007,0,0,0,26909,26910,21005,21006,21007,0,26343,0,0,26909,26910,0,0,26769,26770,0,0,0,21005,21006,21007,
21145,21146,21147,0,0,0,21382,21383,21384,21385,21386,21145,21146,21147,0,0,0,21145,21146,21147,21285,21286,21287,0,21145,21146,21147,0,29159,29160,29161,0,0,21145,21146,21147,0,0,0,0,0,21145,21146,21147,0,0,0,0,0,0,0,0,26909,26910,0,0,0,21145,21146,21147,
21285,21286,21287,0,0,0,21522,21523,21524,21525,21526,21285,21286,21287,0,0,0,21285,21286,21287,0,0,0,0,21285,21286,21287,0,0,0,0,0,0,21285,21286,21287,0,0,0,0,0,21285,21286,21287,0,0,0,0,0,0,0,0,0,0,0,0,0,21285,21286,21287,
21103,21104,21105,21106,21102,21103,21104,21105,21106,21102,21103,21104,21105,21106,21102,21103,21104,21105,21106,21102,21103,21104,21105,21106,21102,21103,21104,21105,21106,0,21102,21103,21104,21105,21106,21102,21103,21104,21105,21106,21102,21103,21104,21105,21106,21102,21103,21104,21105,21106,21102,21103,21104,21105,21106,21102,21103,21104,21105,21106,
21243,21244,21245,21246,21242,21243,21244,21245,21246,21242,21243,21244,21245,21246,21242,21243,21244,21245,21246,21242,21243,21244,21245,21246,21242,21243,21244,21245,21246,0,21242,21243,21244,21245,21246,21242,21243,21244,21245,21246,21242,21243,21244,21245,21246,21242,21243,21244,21245,21246,21242,21243,21244,21245,21246,21242,21243,21244,21245,21246,
21383,21384,21385,21386,21382,21383,21384,21385,21386,21382,21383,21384,21385,21386,21382,21383,21384,21385,21386,21382,21383,21384,21385,21386,21382,21383,21384,21385,21386,0,21382,21383,21384,21385,21386,21382,21383,21384,21385,21386,21382,21383,21384,21385,21386,21382,21383,21384,21385,21386,21382,21383,21384,21385,21386,21382,21383,21384,21385,21386,
21523,21524,21525,21526,21522,21523,21524,21525,21526,21522,21523,21524,21525,21526,21522,21523,21524,21525,21526,21522,21523,21524,21525,21526,21522,21523,21524,21525,21526,0,21522,21523,21524,21525,21526,21522,21523,21524,21525,21526,21522,21523,21524,21525,21526,21522,21523,21524,21525,21526,21522,21523,21524,21525,21526,21522,21523,21524,21525,21526,
21103,21104,21105,21106,21102,21103,21104,21105,21106,21102,21103,21104,21105,21106,21102,21103,21104,21105,21106,21102,21103,21104,21105,21106,21102,21103,21104,21105,21106,0,21102,21103,21104,21105,21106,21102,21103,21104,21105,21106,21102,21103,21104,21105,21106,21102,21103,21104,21105,21106,21102,21103,21104,21105,21106,21102,21103,21104,21105,21106,
21243,21244,21245,21246,21242,21243,21244,21245,21246,21242,21243,21244,21245,21246,21242,21243,21244,21245,21246,21242,21243,21244,21245,21246,21242,21243,21244,21245,21246,0,21242,21243,21244,21245,21246,21242,21243,21244,21245,21246,21242,21243,21244,21245,21246,21242,21243,21244,21245,21246,21242,21243,21244,21245,21246,21242,21243,21244,21245,21246,
21383,21384,21385,21386,21382,21383,21384,21385,21386,21382,21383,21384,21385,21386,21382,21383,21384,21385,21386,21382,21383,21384,21385,21386,21382,21383,21384,21385,21386,0,21382,21383,21384,21385,21386,21382,21383,21384,21385,21386,21382,21383,21384,21385,21386,21382,21383,21384,21385,21386,21382,21383,21384,21385,21386,21382,21383,21384,21385,21386,
21523,21524,21525,21526,21522,21523,21524,21525,21526,21522,21523,21524,21525,21526,21522,21523,21524,21525,21526,21522,21523,21524,21525,21526,21522,21523,21524,21525,21526,0,21522,21523,21524,21525,21526,21522,21523,21524,21525,21526,21522,21523,21524,21525,21526,21522,21523,21524,21525,21526,21522,21523,21524,21525,21526,21522,21523,21524,21525,21526,
21103,21104,21105,21106,21102,21103,21104,21105,21106,21102,21103,21104,21105,21106,21102,21103,21104,21105,21106,21102,21103,21104,21105,21106,21102,21103,21104,21105,21106,0,21102,21103,21104,21105,21106,21102,21103,21104,21105,21106,21102,21103,21104,21105,21106,21102,21103,21104,21105,21106,21102,21103,21104,21105,21106,21102,21103,21104,21105,21106,
21243,21244,21245,21246,21242,21243,21244,21245,21246,21242,21243,21244,21245,21246,21242,21243,21244,21245,21246,21242,21243,21244,21245,21246,21242,21243,21244,21245,21246,0,21242,21243,21244,21245,21246,21242,21243,21244,21245,21246,21242,21243,21244,21245,21246,21242,21243,21244,21245,21246,21242,21243,21244,21245,21246,21242,21243,21244,21245,21246
</data>
 </layer>
 <layer id="5" name="ObjectLayer" width="60" height="60">
  <data encoding="csv">
0,0,0,0,0,0,0,0,0,0,0,0,0,30317,0,0,0,0,0,0,0,0,0,0,0,0,0,0,0,0,0,0,0,0,0,0,0,0,0,0,0,0,0,0,0,0,0,0,0,0,8334,0,0,0,0,0,0,0,0,0,
0,0,0,0,0,0,0,0,0,0,0,0,0,30317,0,0,0,0,0,0,0,0,0,0,0,0,0,0,0,0,0,0,0,0,0,0,0,0,0,0,0,0,0,0,0,0,0,0,0,0,8334,0,0,0,0,0,0,0,0,0,
0,0,0,0,0,0,0,0,0,0,0,0,0,30317,0,0,0,0,0,0,0,0,0,0,0,0,0,0,0,0,0,0,0,0,0,0,0,0,0,0,0,0,0,0,0,0,0,0,0,0,8334,0,0,0,0,0,0,0,0,0,
0,0,0,0,0,0,0,0,0,0,0,0,0,30317,0,0,0,0,0,0,0,0,0,0,0,0,0,0,0,0,0,0,0,0,0,0,0,0,0,0,0,0,0,0,0,0,0,0,0,0,8334,0,0,0,0,0,0,0,0,0,
0,0,0,0,0,0,0,0,0,0,0,0,0,30317,0,0,0,0,0,0,0,0,0,0,0,0,0,0,0,0,0,0,0,0,0,0,0,0,0,0,0,0,0,0,0,0,0,0,0,0,8334,0,0,0,0,0,0,0,0,0,
0,0,0,0,0,0,0,0,0,0,0,0,0,30317,0,0,0,0,0,0,0,0,0,0,0,0,0,0,0,0,0,0,0,0,0,0,0,0,0,0,0,0,0,0,0,0,0,0,0,0,8334,0,0,0,0,0,0,0,0,0,
0,0,0,0,0,0,0,0,0,0,0,0,0,30317,0,0,0,0,0,0,0,0,0,0,0,0,0,0,0,0,0,0,0,0,0,0,0,0,0,0,0,0,0,0,0,0,0,0,0,0,8334,0,0,0,0,0,0,0,0,0,
0,0,0,0,0,0,0,0,0,0,0,0,0,30317,0,0,0,0,0,0,0,0,0,0,0,0,0,0,0,0,0,0,0,0,0,0,0,0,0,0,0,0,0,0,0,0,0,0,0,0,8334,0,0,0,0,0,0,0,0,0,
0,0,0,0,0,0,0,0,0,0,0,0,0,30317,0,0,0,0,0,0,0,0,0,0,0,0,0,0,0,0,0,0,0,0,0,0,0,0,0,0,0,0,0,0,0,0,0,0,0,0,8334,0,0,0,0,0,0,0,0,0,
0,0,0,0,0,0,0,0,0,0,0,0,0,30317,0,0,0,0,0,0,0,0,0,0,0,0,0,0,0,0,0,0,0,0,0,0,0,0,0,0,0,0,0,0,0,0,0,0,0,0,8334,0,0,0,0,0,0,0,0,0,
0,0,0,0,0,0,0,0,0,0,0,0,0,30317,0,0,0,0,0,0,0,0,0,0,0,0,0,0,0,0,0,0,0,0,0,0,0,0,0,0,0,0,0,0,0,0,0,0,0,0,8334,0,0,0,0,0,0,0,0,0,
0,0,0,0,0,0,0,0,0,0,0,0,0,30317,0,0,0,0,0,0,0,0,0,0,0,0,0,0,0,0,0,0,0,0,0,0,0,0,0,0,0,0,0,0,0,0,0,0,0,0,8334,0,0,0,0,0,0,0,0,0,
0,0,0,0,0,0,0,0,0,0,0,0,0,30317,0,0,0,0,0,0,0,0,0,0,0,0,0,0,0,0,0,0,0,0,0,0,0,0,0,0,0,0,0,0,0,0,0,0,0,0,8334,0,0,0,0,0,0,0,0,0,
0,0,0,0,0,0,0,0,0,0,0,0,0,30317,0,0,0,0,0,0,0,0,0,0,0,0,0,0,0,0,0,0,0,0,0,0,0,0,0,0,0,0,0,0,0,0,0,0,0,0,8334,0,0,0,0,0,0,0,0,0,
0,0,0,0,0,0,0,0,0,0,0,0,0,30317,0,0,0,0,0,0,0,0,0,0,0,0,0,0,0,0,0,0,0,0,0,0,0,0,0,0,0,0,0,0,0,0,0,0,0,0,8334,0,0,0,0,0,0,0,0,0,
0,0,0,0,0,0,0,0,0,0,0,0,0,30317,0,0,0,0,0,0,0,0,0,0,0,0,0,0,0,0,0,0,0,0,0,0,0,0,0,0,0,0,0,0,0,0,0,0,0,0,8334,0,0,0,0,0,0,0,0,0,
0,0,0,0,0,0,0,0,0,0,0,0,0,30317,0,0,0,0,0,0,0,0,0,0,0,0,0,0,0,0,0,0,0,0,0,0,0,0,0,0,0,0,0,0,0,0,0,0,0,0,8334,0,0,0,0,0,0,0,0,0,
0,0,0,0,0,0,0,0,0,0,0,0,0,30317,0,0,0,0,0,0,0,0,0,0,0,0,0,0,0,0,0,0,0,0,0,0,0,0,0,0,0,0,0,0,0,0,0,0,0,0,8334,0,0,0,0,0,0,0,0,0,
0,0,0,0,0,0,0,0,0,0,0,0,0,30317,0,0,0,0,0,0,0,0,0,0,0,0,0,0,0,0,0,0,0,0,0,0,0,0,0,0,0,0,0,0,0,0,0,0,0,0,8334,0,0,0,0,0,0,0,0,0,
0,0,0,0,0,0,0,0,0,0,0,0,0,30317,0,0,0,0,0,0,0,0,0,0,0,0,0,0,0,0,0,0,0,0,0,0,0,0,0,0,0,0,0,0,0,0,0,0,0,0,8334,0,0,0,0,0,0,0,0,0,
0,0,0,0,0,0,0,0,0,0,0,0,0,30317,0,0,0,0,0,0,0,0,0,0,0,0,0,0,0,0,0,0,0,0,0,0,0,0,0,0,0,0,0,0,0,0,0,0,0,0,8334,0,0,0,0,0,0,0,0,0,
0,0,0,0,0,0,0,0,0,0,0,0,0,30317,0,0,0,0,0,0,0,0,0,0,0,0,0,0,0,0,0,0,0,0,0,0,0,0,0,0,0,0,0,0,0,0,0,0,0,0,8334,0,0,0,0,0,0,0,0,0,
0,0,0,0,0,0,0,0,0,0,0,0,0,30317,0,0,0,0,0,0,0,0,0,0,0,0,0,0,0,0,0,31955,31956,31957,31958,31959,31960,0,0,0,0,0,0,0,0,0,0,0,0,0,8334,0,0,0,0,0,0,0,0,0,
0,0,0,0,0,0,0,0,0,0,0,0,0,30317,0,0,0,0,0,0,0,0,0,0,0,0,0,0,0,0,0,32095,32096,32097,32098,29432,29433,29434,29435,29432,29433,29434,29435,0,0,0,0,0,0,0,8334,0,0,0,0,0,0,0,0,0,
0,0,0,0,0,0,0,0,0,0,0,0,0,30317,0,0,0,0,0,0,0,0,0,0,0,0,0,0,0,0,0,32235,32236,32237,32238,29572,29573,29574,29575,29572,29573,29574,29575,0,0,0,0,0,0,0,8334,0,0,0,0,0,0,0,0,0,
0,0,0,0,0,0,0,0,0,0,0,0,0,30317,0,0,0,0,0,0,0,0,0,0,0,0,0,0,0,0,0,32375,32376,32377,32378,29712,29713,29714,29715,29712,29713,29714,29715,0,0,0,0,0,0,0,8334,0,0,0,0,0,0,0,0,0,
0,0,0,0,0,0,0,0,0,0,0,0,0,30317,0,0,0,0,0,0,0,0,0,0,0,0,0,0,0,0,0,32515,32516,32517,32518,29852,29853,29854,29855,29852,29853,29854,29855,0,0,0,0,0,0,0,8334,0,0,0,0,0,0,0,0,0,
0,0,0,0,0,0,0,0,0,0,0,0,0,30317,0,0,0,0,0,0,0,0,0,0,0,0,0,0,0,0,0,32655,32656,32657,32658,32659,32660,0,0,0,0,0,0,0,0,0,0,0,0,0,8334,0,0,0,0,0,0,0,0,0,
0,0,0,0,0,0,0,0,0,0,0,0,0,30317,0,0,0,0,0,0,0,0,0,0,0,0,0,0,0,0,0,32795,32796,32797,32798,32799,32800,0,0,0,0,0,0,38389,38390,38391,38392,38393,0,0,8334,0,0,0,0,0,0,0,0,0,
0,0,0,0,0,0,0,0,0,0,0,0,0,30317,0,0,0,0,0,0,0,0,0,0,0,0,0,0,0,0,0,0,0,0,0,0,0,0,0,0,0,0,0,38529,38530,38531,38532,38533,0,0,8334,0,0,0,0,0,0,0,0,0,
0,0,0,0,0,0,0,0,0,0,0,0,0,30317,0,0,0,0,0,0,0,0,0,0,0,0,0,0,0,0,0,30556,30557,30558,30559,30560,30561,0,0,0,0,0,0,38669,38670,38671,38672,38673,0,0,8334,0,0,0,0,0,0,0,0,0,
0,0,0,0,0,0,0,0,0,0,0,0,0,30317,0,0,0,0,0,0,0,0,0,0,0,0,0,0,30187,0,0,30696,30697,30698,30699,30700,30701,0,0,0,0,0,0,38809,38810,38811,38812,38813,0,0,8334,0,0,0,0,0,0,0,0,0,
0,0,0,0,0,0,0,0,0,0,0,0,0,30317,0,0,0,0,0,0,0,0,0,0,0,0,0,0,30327,0,0,30836,30837,30838,30839,30840,30841,0,0,0,0,0,0,38949,38950,38951,38952,38953,0,0,8334,0,0,0,0,0,0,0,0,0,
0,0,0,0,0,0,0,0,0,0,0,0,0,30317,0,0,0,0,0,0,0,0,0,0,0,0,0,0,0,0,0,30976,30977,30978,30979,30980,29482,0,0,0,0,0,0,0,0,29438,0,0,0,0,8334,0,0,0,0,0,0,0,0,0,
0,0,0,0,0,0,0,0,0,0,0,0,0,30317,0,0,0,0,0,0,0,0,0,0,0,0,0,0,0,0,0,31116,31117,31118,31119,31120,29622,0,0,0,0,0,0,0,0,29578,0,0,0,0,8334,0,0,0,0,0,0,0,0,0,
0,0,0,0,0,0,0,0,0,0,0,0,30175,30457,0,0,0,0,0,0,0,0,0,0,0,0,0,0,0,0,0,31256,31257,31258,31259,31260,31261,0,0,0,0,0,0,0,0,29718,0,0,0,0,8334,0,0,0,0,0,0,0,0,0,
0,0,0,0,0,0,0,0,0,0,30175,30457,30458,0,0,0,0,0,0,0,0,0,0,0,0,0,0,0,0,0,0,31396,31397,31398,31399,31400,31401,0,0,0,0,0,0,0,0,0,0,0,0,0,8334,0,0,0,0,0,0,0,0,0,
0,0,0,0,0,0,0,0,0,0,30315,0,0,0,0,0,0,0,0,0,0,0,0,0,0,0,0,0,0,0,0,31536,31537,31538,31539,31540,31541,0,0,0,0,0,0,0,0,0,0,0,0,0,8334,0,0,0,0,0,0,0,0,0,
0,0,0,0,0,0,0,0,0,0,30458,0,0,0,0,0,0,0,0,0,0,0,0,0,0,0,0,28789,0,0,0,0,0,0,0,0,0,0,0,0,0,0,0,0,0,0,0,0,0,0,0,0,0,0,0,0,0,0,0,0,
0,0,0,0,0,0,0,0,0,0,0,0,0,0,0,0,0,0,0,0,0,0,0,0,0,0,0,0,0,0,0,0,0,0,0,0,0,0,0,0,0,0,0,0,0,0,0,0,0,0,0,0,0,0,0,0,0,0,0,0,
0,0,0,0,0,0,0,0,0,0,0,0,0,0,0,0,0,0,0,0,0,0,0,0,0,0,0,29438,0,0,0,0,0,0,0,0,0,0,0,0,0,0,0,0,0,0,0,0,0,0,0,0,0,0,0,0,0,0,0,0,
0,0,0,0,0,0,0,0,0,0,0,0,0,0,0,0,0,0,0,0,0,0,0,0,0,0,0,29578,0,0,0,0,0,0,0,0,0,0,0,0,0,0,0,0,0,0,0,0,0,0,0,0,0,0,0,0,0,0,0,0,
0,0,0,0,0,0,0,0,0,0,0,0,0,0,0,0,0,0,0,0,0,0,0,0,0,0,0,29718,0,0,0,0,0,0,0,0,0,0,0,0,0,0,0,0,0,0,0,0,0,0,0,0,0,0,0,0,0,0,0,0,
0,0,0,0,0,0,0,0,0,0,0,0,0,0,0,0,0,0,0,0,0,0,0,0,0,0,0,0,0,0,0,0,0,0,0,0,0,0,0,0,0,0,0,0,0,0,0,0,0,0,0,0,0,0,0,0,0,0,0,0,
0,0,0,0,0,0,0,0,0,0,0,0,0,0,0,0,0,0,0,0,0,0,0,0,0,0,0,0,0,0,0,0,0,0,0,0,0,0,0,0,0,0,0,0,0,0,0,0,0,0,0,0,0,0,0,0,0,0,0,0,
0,0,0,0,0,0,0,0,0,0,0,0,0,0,0,0,0,0,0,0,0,0,0,0,0,0,0,0,0,0,0,0,0,0,0,0,0,0,0,0,0,0,0,0,0,0,0,0,0,0,0,0,0,0,0,0,0,0,0,0,
0,0,0,0,0,0,0,0,0,0,0,0,0,0,0,0,0,0,0,0,0,0,0,0,0,0,0,0,0,0,0,29438,0,0,0,0,0,0,0,0,0,0,0,0,0,0,0,0,0,0,0,0,0,0,0,0,0,0,0,0,
0,0,0,0,0,0,0,0,0,0,0,0,0,0,0,0,0,0,0,0,0,0,0,0,0,0,0,0,0,0,0,29578,0,0,0,0,0,0,0,0,0,0,0,0,0,0,0,0,0,0,0,0,0,0,0,0,0,0,0,0,
0,0,0,0,0,0,0,0,0,0,0,0,0,0,0,0,0,0,0,0,0,0,0,0,0,0,0,0,0,0,0,29718,0,0,0,0,0,0,0,0,0,0,0,0,0,0,0,0,0,0,0,0,0,0,0,0,0,0,0,0,
0,0,0,0,0,0,0,0,0,0,0,0,0,0,0,0,0,0,0,0,0,0,0,0,0,0,0,0,0,0,0,0,0,0,0,0,0,0,0,0,0,0,0,0,0,0,0,0,0,0,0,0,0,0,0,0,0,0,0,0,
0,0,0,0,0,0,0,0,0,0,0,0,0,0,0,0,0,0,0,0,0,0,0,0,0,0,0,0,0,0,0,0,0,0,0,0,0,0,0,0,0,0,0,0,0,0,0,0,0,0,0,0,0,0,0,0,0,0,0,0,
0,0,0,0,0,0,0,0,0,0,0,0,0,0,0,0,0,0,0,0,0,0,0,0,0,0,0,0,0,0,0,0,0,0,0,0,0,0,0,0,0,0,0,0,0,0,0,0,0,0,0,0,0,0,0,0,0,0,0,0,
0,0,0,0,0,0,0,0,0,0,0,0,0,0,0,0,0,0,0,0,0,0,0,0,0,0,0,0,0,0,0,0,0,0,0,0,0,0,0,0,0,0,0,0,0,0,0,0,0,0,0,0,0,0,0,0,0,0,0,0,
0,0,0,0,0,0,0,0,0,0,0,0,0,0,0,0,0,0,0,0,0,0,0,0,0,0,0,0,0,0,0,0,0,0,0,0,0,0,0,0,0,0,0,0,0,0,0,0,0,0,0,0,0,0,0,0,0,0,0,0,
0,0,0,0,0,0,0,0,0,0,0,0,0,0,0,0,0,0,0,0,0,0,0,0,0,0,0,0,0,0,0,0,0,0,0,0,0,0,0,0,0,0,0,0,0,0,0,0,0,0,0,0,0,0,0,0,0,0,0,0,
0,0,0,0,0,0,0,0,0,0,0,0,0,0,0,0,0,0,0,0,0,0,0,0,0,0,0,0,0,0,0,0,0,0,0,0,0,0,0,0,0,0,0,0,0,0,0,0,0,0,0,0,0,0,0,0,0,0,0,0,
0,0,0,0,0,0,0,0,0,0,0,0,0,0,0,0,0,0,0,0,0,0,0,0,0,0,0,0,0,0,0,0,0,0,0,0,0,0,0,0,0,0,0,0,0,0,0,0,0,0,0,0,0,0,0,0,0,0,0,0,
0,0,0,0,0,0,0,0,0,0,0,0,0,0,0,0,0,0,0,0,0,0,0,0,0,0,0,0,0,0,0,0,0,0,0,0,0,0,0,0,0,0,0,0,0,0,0,0,0,0,0,0,0,0,0,0,0,0,0,0,
0,0,0,0,0,0,0,0,0,0,0,0,0,0,0,0,0,0,0,0,0,0,0,0,0,0,0,0,0,0,0,0,0,0,0,0,0,0,0,0,0,0,0,0,0,0,0,0,0,0,0,0,0,0,0,0,0,0,0,0,
0,0,0,0,0,0,0,0,0,0,0,0,0,0,0,0,0,0,0,0,0,0,0,0,0,0,0,0,0,0,0,0,0,0,0,0,0,0,0,0,0,0,0,0,0,0,0,0,0,0,0,0,0,0,0,0,0,0,0,0
</data>
 </layer>
</map>
