<?xml version="1.0" encoding="UTF-8"?>
<map version="1.10" tiledversion="1.10.2" orientation="orthogonal" renderorder="right-down" width="60" height="60" tilewidth="16" tileheight="16" infinite="0" nextlayerid="18" nextobjectid="57">
 <editorsettings>
  <export target="route_101.json" format="json"/>
 </editorsettings>
 <tileset firstgid="1" name="standradRoute" tilewidth="16" tileheight="16" tilecount="493" columns="29">
  <image source="../../../standradRoute.jpg" width="464" height="272"/>
 </tileset>
 <tileset firstgid="494" name="pokemonStarStandradTileSet" tilewidth="16" tileheight="16" tilecount="21000" columns="140">
  <image source="../../../pokemonStarStandradTileSet.png" width="2240" height="2400"/>
 </tileset>
 <layer id="1" name="TerrainLayer" width="60" height="60">
  <data encoding="csv">
3295,3295,3295,3295,3295,3295,3295,3295,3295,3295,3295,3295,3295,3295,3295,3295,3295,3295,3295,3295,3295,3295,3295,3295,3295,3295,3295,3295,3295,3295,3295,3295,3295,3295,3295,3295,3295,3295,3295,3295,3295,3295,3295,3295,3295,3295,3295,3295,3295,3295,3295,3295,3295,3295,3295,3295,3295,3295,3295,3295,
3295,3295,3295,3295,3295,3295,3295,3295,3295,3295,3295,3295,3295,3295,3295,3295,3295,3295,3295,3295,3295,3295,3295,3295,3295,3295,3295,3295,3295,3295,3295,3295,3295,3295,3295,3295,3295,3295,3295,3295,3295,3295,3295,3295,3295,3295,3295,3295,3295,3295,3295,3295,3295,3295,3295,3295,3295,3295,3295,3295,
3295,3295,3295,3295,3295,3295,3295,3295,3295,3295,3295,3295,3295,3295,3295,3295,3295,3295,3295,3295,3295,3295,3295,3295,3295,3295,3295,3295,3295,3295,3295,3295,3295,3295,3295,3295,3295,3295,3295,3295,3295,3295,3295,3295,3295,3295,3295,3295,3295,3295,3295,3295,3295,3295,3295,3295,3295,3295,3295,3295,
3295,3295,3295,3295,3295,3295,3295,3295,3295,3295,3295,3295,3295,3295,3295,3295,3295,3295,3295,3295,3295,3295,3295,3295,3295,3295,3295,3295,3295,3295,3295,3295,3295,3295,3295,3295,3295,3295,3295,3295,3295,3295,3295,3295,3295,3295,3295,3295,3295,3295,3295,3295,3295,3295,3295,3295,3295,3295,3295,3295,
3295,3295,3295,3295,3295,3295,3295,3295,3295,3295,3295,3295,3295,3295,3295,3295,3295,3295,3295,3295,3295,3295,3295,3295,3295,3295,3295,3295,3295,3295,3295,3295,3295,3295,3295,3295,3295,3295,3295,3295,3295,3295,3295,3295,3295,3295,3295,3295,3295,3295,3295,3295,3295,3295,3295,3295,3295,3295,3295,3295,
3295,3295,3295,3295,3295,3295,3295,3295,3295,3295,3295,3295,3295,3295,3295,3295,3295,3295,3295,3295,3295,3295,3295,3295,3295,3295,3295,3295,3295,3295,3295,3295,3295,3295,3295,3295,3295,3295,3295,3295,3295,3295,3295,3295,3295,3295,3295,3295,3295,3295,3295,3295,3295,3295,3295,3295,3295,3295,3295,3295,
3295,3295,3295,3295,3295,3295,3295,3295,3295,3295,3295,3295,3295,3295,3295,3295,3295,3295,3295,3295,3295,3295,3295,3295,3295,3295,3295,3295,3295,3295,3295,3295,3295,3295,3295,3295,3295,3295,3295,3295,3295,3295,3295,3295,3295,3295,3295,3295,3295,3295,3295,3295,3295,3295,3295,3295,3295,3295,3295,3295,
3295,3295,3295,3295,3295,3295,3295,3295,3295,3295,3295,3295,3295,3295,3295,3295,3295,3295,3295,3295,3295,3295,3295,3295,3295,3295,3295,3295,3295,3295,3295,3295,3295,3295,3295,3295,3295,3295,2595,2596,2597,3295,3295,3295,3295,3295,3295,3295,3295,3295,3295,3295,3295,3295,3295,3295,3295,3295,3295,3295,
3295,3295,3295,3295,3295,3295,3295,3295,3295,3295,3295,3295,3295,3295,3295,3295,3295,3295,3295,3295,3295,3295,3295,3295,3295,3295,3295,3295,3295,3295,3295,3295,3295,3295,3295,3295,3295,3295,2735,2736,2737,3295,3295,3295,3295,3295,3295,3295,3295,3295,3295,3295,3295,3295,3295,3295,3295,3295,3295,3295,
3295,3295,3295,3295,3295,3295,3295,3295,3295,3295,3295,3295,3295,3295,3295,3295,3295,3295,3295,3295,3295,3295,3295,3295,3295,3295,3295,3295,3295,3295,3295,3295,3295,3295,3295,3295,3295,3295,2735,2736,2737,3295,3295,3295,3295,3295,3295,3295,3295,3295,3295,3295,3295,3295,3295,3295,3295,3295,3295,3295,
3295,3295,3295,3295,3295,3295,3295,3295,3295,3295,3295,3295,3295,3295,3295,3295,3295,3295,3295,3295,3295,3295,3295,3295,3295,3295,3295,3295,3295,3295,3295,3295,3295,3295,3295,3295,3295,3295,2735,2736,2737,3295,3295,3295,3295,3295,3295,3295,3295,3295,3295,3295,3295,3295,3295,3295,3295,3295,3295,3295,
3295,3295,3295,3295,3295,3295,3295,3295,3295,3295,3295,3295,3295,3295,3295,3295,3295,3295,3295,3295,3295,3295,3295,3295,3295,3295,3295,3295,3295,3295,3295,3295,3295,3295,3295,3295,3295,3295,2735,2736,2737,3295,3295,3295,3295,3295,3295,3295,3295,3295,3295,3295,3295,3295,3295,3295,3295,3295,3295,3295,
3295,3295,3295,3295,3295,3295,3295,3295,3295,3295,3295,3295,3295,3295,3295,3295,3295,3295,3295,3295,3295,3295,3295,3295,3295,3295,3295,3295,3295,3295,3295,3295,3295,3295,3295,3295,3295,3295,2875,2876,2877,3295,3295,3295,3295,3295,3295,3295,3295,3295,3295,3295,3295,3295,3295,3295,3295,3295,3295,3295,
3295,3295,3295,3295,3295,3295,3295,3295,3295,3295,3295,3295,3295,3295,3295,3295,3295,3295,3295,3296,3296,3296,3295,3296,3296,3296,3295,3296,3295,3296,3296,3296,3295,3296,3296,3296,3295,3295,3295,3295,3295,3295,3295,3296,3296,3295,3295,3295,3295,3295,3295,3295,3295,3295,3295,3295,3295,3295,3295,3295,
3295,3295,3295,3295,3295,3295,3295,3295,3295,3295,3295,3295,3295,3295,3295,3295,3295,3295,3295,3296,3296,3296,3295,3296,3296,3296,3295,3296,3295,3296,3296,3296,3295,3296,3296,3296,3295,3295,3295,3295,3295,3295,3295,3296,3296,3295,3295,3295,3295,3295,3295,3295,3295,3295,3295,3295,3295,3295,3295,3295,
3295,3295,3295,3295,3295,3295,3295,3295,3295,3295,3295,3295,3295,3295,3295,3295,3295,3295,3295,3296,3296,3296,3295,3296,3296,3296,3295,3296,3295,3296,3296,3296,3295,3296,3296,3296,3295,3295,3295,3295,3295,3295,3295,3296,3296,3295,3295,3295,3295,3295,3295,3295,3295,3295,3295,3295,3295,3295,3295,3295,
3295,3295,3295,3295,3295,3295,3295,3295,3295,3295,3295,3295,3295,3295,3295,3295,3295,3295,3295,3295,3295,3295,3295,3295,3295,3295,3295,3295,3295,3295,3295,3295,3295,3295,3295,3295,3295,3295,3295,3295,3295,3295,3295,3295,3295,3295,3295,3295,3295,3295,3295,3295,3295,3295,3295,3295,3295,3295,3295,3295,
3295,3295,3295,3295,3295,3295,3295,3295,3295,3295,3295,3295,3295,3295,3295,3295,3295,3295,3295,3295,3295,3295,3295,3295,3295,3295,3295,3295,3295,3295,3295,3295,3295,3295,3295,3295,3295,3295,3295,3295,3295,3295,3295,3295,3295,3295,3295,3295,3295,3295,3295,3295,3295,3295,3295,3295,3295,3295,3295,3295,
3295,3295,3295,3295,3295,3295,3295,3295,3295,3295,3295,3295,3295,3295,3295,3295,3295,3295,3295,3295,3295,3295,3295,3295,3295,3295,3295,3295,3295,3295,3295,3295,3295,3295,3295,3295,3295,3295,3295,3295,3295,3295,3295,3295,3295,3295,3295,3295,3295,3295,3295,3295,3295,3295,3295,3295,3295,3295,3295,3295,
3295,3295,3295,3295,3295,3295,3295,3295,3295,3295,3295,3295,3295,3295,3295,3295,3295,3295,3295,3295,3295,3295,3295,3295,3295,3295,3295,3295,3295,3295,3295,3295,3295,3295,3295,3295,3295,3295,3295,3295,3295,3295,3295,3295,3295,3295,3295,3295,3295,3295,3295,3295,3295,3295,3295,3295,3295,3295,3295,3295,
3295,3295,3295,3295,3295,3295,3295,3295,3295,3295,3295,3295,3295,3295,3295,3295,3295,3295,3295,3295,3295,3295,3295,3295,3295,3295,3295,3295,3295,3295,3295,3295,3295,3295,3295,3295,3295,3295,3295,3295,3295,3295,3295,3295,3295,3295,3295,3295,3295,3295,3295,3295,3295,3295,3295,3295,3295,3295,3295,3295,
3295,3295,3295,3295,3295,3295,3295,3295,3295,3295,3295,3295,3295,3295,3295,3295,3295,3295,3295,3295,3295,3295,3295,3295,3295,3295,3295,3295,3295,3295,3295,3295,3295,3295,3295,3295,3295,3295,3295,3295,3295,3295,3295,3295,3295,3295,3295,3295,3295,3295,3295,3295,3295,3295,3295,3295,3295,3295,3295,3295,
3295,3295,3295,3295,3295,3295,3295,3295,3295,3295,3295,3295,3295,3295,3295,3295,3295,3295,3295,3295,3295,3295,3295,3295,3295,3295,3295,3295,3295,3295,3295,3295,3295,3295,3295,3295,3295,3295,3295,3295,3295,3295,3295,3295,3295,3295,3295,3295,3295,3295,3295,3295,3295,3295,3295,3295,3295,3295,3295,3295,
3295,3295,3295,3295,3295,3295,3295,3295,3295,3295,3295,3295,3295,3295,3295,3295,3295,3295,3295,3295,3295,3295,3295,3295,3295,3295,3295,3295,3295,3295,3295,3295,3295,3295,3295,3295,3295,3295,3295,3295,3295,3295,3295,3295,3295,3295,3295,3295,3295,3295,3295,3295,3295,3295,3295,3295,3295,3295,3295,3295,
3295,3295,3295,3295,3295,3295,3295,3295,3295,3295,3295,3295,3295,3295,3295,3295,3295,3295,3295,3295,3295,3295,3295,3295,3295,3295,3295,3295,3295,3295,3295,3295,3295,3295,3295,3295,3295,3295,3295,3295,3295,3295,3295,3295,3295,3295,3295,3295,3295,3295,3295,3295,3295,3295,3295,3295,3295,3295,3295,3295,
3295,3295,3295,3295,3295,3295,3295,3295,3295,3295,3295,3295,3295,3295,3295,3295,3295,3295,3295,3295,3295,3295,3295,3295,3295,3295,3295,3295,3295,3295,3295,3295,3295,3295,3295,3295,3295,3295,3295,3295,3295,3295,3295,3295,3295,3295,3295,3295,3295,3295,3295,3295,3295,3295,3295,3295,3295,3295,3295,3295,
3295,3295,3295,3295,3295,3295,3295,3295,3295,3295,3295,3295,3295,3295,3295,3295,3295,3295,3295,3295,3295,3295,3295,3295,3295,3295,3295,3295,3295,3295,3295,3295,3295,3295,3295,3295,3295,3295,3295,3295,3295,3295,3295,2735,2736,2737,3295,3295,3295,3295,3295,3295,3295,3295,3295,3295,3295,3295,3295,3295,
3295,3295,3295,3295,3295,3295,3295,3295,3295,3295,3295,3295,3295,3295,3295,3295,3295,3295,3295,3295,3295,3295,3295,3295,3295,3295,3295,3295,3295,3295,3295,3295,3295,3295,3295,3295,3295,3295,3295,3295,3295,3295,3295,2735,2736,2737,3295,3295,3295,3295,3295,3295,3295,3295,3295,3295,3295,3295,3295,3295,
3295,3295,3295,3295,3295,3295,3295,3295,3295,3295,3295,3295,3295,3295,3295,3295,3295,3295,3295,3295,3295,3295,3295,3295,3295,3295,3295,3295,3295,3295,3295,3295,3295,3295,3295,3295,3295,3295,3295,3295,3295,3295,3295,2735,2736,2737,3295,3295,3295,3295,3295,3295,3295,3295,3295,3295,3295,3295,3295,3295,
3295,3295,3295,3295,3295,3295,3295,3295,3295,3295,3295,3295,3295,3295,3295,3295,3295,3295,3295,3295,3295,3295,3295,3295,3295,3295,3295,3295,3295,3295,3295,3295,3295,3295,3295,3295,3295,3295,3295,3295,3295,3295,3295,2735,2736,2737,3295,3295,3295,3295,3295,3295,3295,3295,3295,3295,3295,3295,3295,3295,
3295,3295,3295,3295,3295,3295,3295,3295,3295,3295,3295,3295,3295,3295,3295,3296,3296,3295,3295,3295,3295,3295,3296,3295,3295,3295,3295,3295,3296,3295,3295,3295,3295,3295,3295,3295,3296,3295,3295,3295,3295,3295,3295,2735,2736,2737,3295,3295,3295,3295,3295,3295,3295,3295,3295,3295,3295,3295,3295,3295,
3295,3295,3295,3295,3295,3295,3295,3295,3295,3295,3295,3295,3295,3295,3295,3295,3295,3295,3295,3295,3295,3295,3295,3295,3295,3295,3295,3295,3295,3295,3295,3295,3295,3295,3295,3295,3435,3436,3295,3295,3295,3295,3295,2735,2736,2737,3295,3295,3295,3295,3295,3295,3295,3295,3295,3295,3295,3295,3295,3295,
3295,3295,3295,3295,3295,3295,3295,3295,3295,3295,3295,3295,3296,3296,3295,3295,3295,3295,3295,3295,3295,3295,3295,3295,3295,3295,3295,3295,3295,3295,3295,3295,3295,3295,3295,3295,3575,3576,3295,3295,3295,3295,3295,2735,2736,2737,3295,3295,3295,3295,3295,3295,3295,3295,3295,3295,3295,3295,3295,3295,
3295,3295,3295,3295,3295,3295,3295,3295,3295,3295,3295,3295,3295,3295,3295,3295,3295,3295,3295,3295,3295,3295,3295,3295,3295,3295,3295,3295,3295,3295,3295,3295,3295,3295,3295,3295,3295,3295,3295,3295,3295,3295,3295,2735,2736,2737,3295,3295,3295,3295,3295,3295,3295,3295,3295,3295,3295,3295,3295,3295,
3295,3295,3295,3295,3295,3295,3295,3295,3295,3295,3295,3295,3295,3295,3295,3295,3295,3295,3295,3295,3295,3295,3295,3295,3295,3295,3295,3295,3295,3295,3295,3295,3295,3295,3295,3296,3295,3295,3295,3295,3295,3295,3295,2735,2736,2737,3295,3295,3295,3295,3295,3295,3295,3295,3295,3295,3295,3295,3295,3295,
3295,3295,3295,3295,3295,3295,3295,3295,3295,3295,3295,3295,3295,3295,3295,3295,3295,3295,3295,3295,3295,3295,3295,3295,3295,3295,3295,3295,3295,3295,3295,3295,3295,3295,3295,3295,3295,3295,3295,3295,3295,3295,3295,2735,2736,2737,3295,3295,3295,3295,3295,3295,3295,3295,3295,3295,3295,3295,3295,3295,
3295,3295,3295,3295,3295,3295,3295,3295,3295,3295,3295,3295,3295,3295,3295,3295,3295,3295,3295,3295,3295,3295,3295,3295,3295,3295,3295,3295,3295,3295,3295,3295,3295,3295,3295,3295,3295,3295,3295,3295,3295,3295,3295,2735,2736,2737,3295,3295,3295,3295,3295,3295,3295,3295,3295,3295,3295,3295,3295,3295,
3295,3295,3295,3295,3295,3295,3295,3295,3295,3295,3295,3296,3296,3295,3295,3295,3295,3295,3296,3295,3295,3295,3295,3296,3295,3295,3295,3295,3295,3295,3295,3295,3295,3295,3295,3295,3295,3295,3295,3295,3295,3295,3295,2735,2736,2737,3295,3295,3295,3295,3295,3295,3295,3295,3295,3295,3295,3295,3295,3295,
3295,3295,3295,3295,3295,3295,3295,3295,3295,3295,3295,3295,3295,3295,3295,3295,3295,3295,3295,3295,3295,3295,3295,3295,3296,3295,3295,3295,2595,2596,2596,2596,2596,2596,2596,2596,2596,2596,2596,2596,2596,2596,2596,3156,2736,2737,3295,3295,3295,3295,3295,3295,3295,3295,3295,3295,3295,3295,3295,3295,
3295,3295,3295,3295,3295,3295,3295,3295,3295,3295,3295,3295,3295,3295,3295,3295,3295,3295,3295,3295,3295,3295,3295,3295,3295,3295,3295,3295,2735,2736,2736,2736,2736,2736,2736,2736,2736,2736,2736,2736,2736,2736,2736,2736,2736,2737,3295,3295,3295,3295,3295,3295,3295,3295,3295,3295,3295,3295,3295,3295,
3295,3295,3295,3295,3295,3295,3295,3295,3295,3295,3295,3295,3295,3295,3295,3295,3295,3295,3295,3295,3295,3295,3295,3295,3295,3295,3295,3295,2735,2736,3015,2876,2876,2876,2876,2876,2876,2876,2876,2876,2876,2876,2876,2876,2876,2877,3295,3295,3295,3295,3295,3295,3295,3295,3295,3295,3295,3295,3295,3295,
3295,3295,3295,3295,3295,3295,3295,3295,3295,3295,3295,3295,3295,3295,3295,3295,3296,3295,3295,3295,3295,3295,3295,3295,3295,3296,3295,3295,2735,2736,2737,3295,3295,3295,3295,3295,3295,3295,3295,3295,3295,3295,3295,3295,3295,3295,3295,3295,3295,3295,3295,3295,3295,3295,3295,3295,3295,3295,3295,3295,
3295,3295,3295,3295,3295,3295,3295,3295,3295,3295,3295,3295,3295,3295,3295,3295,3295,3295,3295,3295,3295,3295,3295,3295,3295,3295,3295,3295,2735,2736,2737,3295,3295,3295,3295,3295,3295,3295,3295,3295,3295,3295,3295,3295,3295,3295,3295,3295,3295,3295,3295,3295,3295,3295,3295,3295,3295,3295,3295,3295,
3295,3295,3295,3295,3295,3295,3295,3295,3295,3295,3295,3295,3295,3295,3295,3295,3295,3295,3295,3295,3295,3295,3295,3295,3296,3295,3295,3295,2735,2736,2737,3295,3295,3295,3295,3295,3295,3295,3295,3295,3295,3295,3295,3295,3295,3295,3295,3295,3295,3295,3295,3295,3295,3295,3295,3295,3295,3295,3295,3295,
3295,3295,3295,3295,3295,3295,3295,3295,3295,3295,3295,3295,3295,3295,3295,3295,3295,3295,3295,3295,3295,3295,3295,3295,3295,3295,3295,3295,2735,2736,2737,3295,3295,3295,3295,3295,3296,3296,3295,3295,3295,3295,3295,3295,3296,3295,3295,3295,3295,3295,3295,3295,3295,3295,3295,3295,3295,3295,3295,3295,
3295,3295,3295,3295,3295,3295,3295,3295,3295,3295,3295,3295,3295,3295,3295,3296,3295,3295,3295,3295,3295,3295,3295,3295,3295,3295,3296,3295,2735,2736,2737,3295,3295,3296,3295,3295,3295,3296,3296,3296,3295,3295,3295,3295,3295,3295,3295,3295,3295,3295,3295,3295,3295,3295,3295,3295,3295,3295,3295,3295,
3295,3295,3295,3295,3295,3295,3295,3295,3295,3295,3295,3295,3295,3295,3295,3295,3295,3295,3295,3295,3295,3295,3295,3296,3295,3295,3295,3295,2735,2736,2737,3295,3295,3295,3296,3295,3295,3295,3295,3295,3295,3295,3295,3296,3295,3295,3295,3295,3295,3295,3295,3295,3295,3295,3295,3295,3295,3295,3295,3295,
3295,3295,3295,3295,3295,3295,3295,3295,3295,3295,3295,3295,3295,3295,3296,3295,3295,3295,3295,3295,3295,3295,3295,3295,3295,3295,3295,3295,2735,2736,2737,3295,3295,3295,3295,3295,3295,3296,3296,3295,3295,3295,3295,3295,3295,3295,3295,3295,3295,3295,3295,3295,3295,3295,3295,3295,3295,3295,3295,3295,
3295,3295,3295,3295,3295,3295,3295,3295,3295,3295,3295,3295,3295,3295,3295,3295,3295,3295,3295,3295,3295,3295,3295,3295,3295,3295,3295,3295,2735,2736,2737,3295,3295,3295,3295,3295,3295,3295,3295,3295,3295,3295,3295,3295,3295,3295,3295,3295,3295,3295,3295,3295,3295,3295,3295,3295,3295,3295,3295,3295,
3295,3295,3295,3295,3295,3295,3295,3295,3295,3295,3295,3295,3295,3295,3295,3295,3295,3295,3295,3295,3295,3295,3295,3295,3295,3295,3295,3295,0,0,0,3295,3295,3295,3295,3295,3295,3295,3295,3295,3295,3295,3295,3295,3295,3295,3295,3295,3295,3295,3295,3295,3295,3295,3295,3295,3295,3295,3295,3295,
3295,3295,3295,3295,3295,3295,3295,3295,3295,3295,3295,3295,3295,3295,3295,3295,3295,3295,3295,3295,3295,3295,3295,3295,3295,3295,3295,3295,3295,3295,3295,3295,3295,3295,3295,3295,3295,3295,3295,3295,3295,3295,3295,3295,3295,3295,3295,3295,3295,3295,3295,3295,3295,3295,3295,3295,3295,3295,3295,3295,
3295,3295,3295,3295,3295,3295,3295,3295,3295,3295,3295,3295,3295,3295,3295,3295,3295,3295,3295,3295,3295,3295,3295,3295,3295,3295,3295,3295,3295,3295,3295,3295,3295,3295,3295,3295,3295,3295,3295,3295,3295,3295,3295,3295,3295,3295,3295,3295,3295,3295,3295,3295,3295,3295,3295,3295,3295,3295,3295,3295,
3295,3295,3295,3295,3295,3295,3295,3295,3295,3295,3295,3295,3295,3295,3295,3295,3295,3295,3295,3295,3295,3295,3295,3295,3295,3295,3295,3295,3295,3295,3295,3295,3295,3295,3295,3295,3295,3295,3295,3295,3295,3295,3295,3295,3295,3295,3295,3295,3295,3295,3295,3295,3295,3295,3295,3295,3295,3295,3295,3295,
3295,3295,3295,3295,3295,3295,3295,3295,3295,3295,3295,3295,3295,3295,3295,3295,3295,3295,3295,3295,3295,3295,3295,3295,3295,3295,3295,3295,3295,3295,3295,3295,3295,3295,3295,3295,3295,3295,3295,3295,3295,3295,3295,3295,3295,3295,3295,3295,3295,3295,3295,3295,3295,3295,3295,3295,3295,3295,3295,3295,
3295,3295,3295,3295,3295,3295,3295,3295,3295,3295,3295,3295,3295,3295,3295,3295,3295,3295,3295,3295,3295,3295,3295,3295,3295,3295,3295,3295,3295,3295,3295,3295,3295,3295,3295,3295,3295,3295,3295,3295,3295,3295,3295,3295,3295,3295,3295,3295,3295,3295,3295,3295,3295,3295,3295,3295,3295,3295,3295,3295,
3295,3295,3295,3295,3295,3295,3295,3295,3295,3295,3295,3295,3295,3295,3295,3295,3295,3295,3295,3295,3295,3295,3295,3295,3295,3295,3295,3295,3295,3295,3295,3295,3295,3295,3295,3295,3295,3295,3295,3295,3295,3295,3295,3295,3295,3295,3295,3295,3295,3295,3295,3295,3295,3295,3295,3295,3295,3295,3295,3295,
3295,3295,3295,3295,3295,3295,3295,3295,3295,3295,3295,3295,3295,3295,3295,3295,3295,3295,3295,3295,3295,3295,3295,3295,3295,3295,3295,3295,3295,3295,3295,3295,3295,3295,3295,3295,3295,3295,3295,3295,3295,3295,3295,3295,3295,3295,3295,3295,3295,3295,3295,3295,3295,3295,3295,3295,3295,3295,3295,3295,
3295,3295,3295,3295,3295,3295,3295,3295,3295,3295,3295,3295,3295,3295,3295,3295,3295,3295,3295,3295,3295,3295,3295,3295,3295,3295,3295,3295,3295,3295,3295,3295,3295,3295,3295,3295,3295,3295,3295,3295,3295,3295,3295,3295,3295,3295,3295,3295,3295,3295,3295,3295,3295,3295,3295,3295,3295,3295,3295,3295,
3295,3295,3295,3295,3295,3295,3295,3295,3295,3295,3295,3295,3295,3295,3295,3295,3295,3295,3295,3295,3295,3295,3295,3295,3295,3295,3295,3295,3295,3295,3295,3295,3295,3295,3295,3295,3295,3295,3295,3295,3295,3295,3295,3295,3295,3295,3295,3295,3295,3295,3295,3295,3295,3295,3295,3295,3295,3295,3295,3295,
3295,3295,3295,3295,3295,3295,3295,3295,3295,3295,3295,3295,3295,3295,3295,3295,3295,3295,3295,3295,3295,3295,3295,3295,3295,3295,3295,3295,3295,3295,3295,3295,3295,3295,3295,3295,3295,3295,3295,3295,3295,3295,3295,3295,3295,3295,3295,3295,3295,3295,3295,3295,3295,3295,3295,3295,3295,3295,3295,3295
</data>
 </layer>
 <layer id="10" name="CollisionLayer" width="60" height="60">
  <data encoding="csv">
16633,16633,16633,16633,16633,16633,16633,16633,16633,16633,16633,16633,16633,16633,16633,16633,16633,16633,16633,16633,16633,16633,16633,16633,16633,16633,16633,16633,16633,16633,16633,16633,16633,16633,16633,16633,16633,16633,16633,16633,16633,16633,16633,16633,16633,16633,16633,16633,16633,16633,16633,16633,16633,16633,16633,16633,16633,16633,16633,16633,
16633,16633,16633,16633,16633,16633,16633,16633,16633,16633,16633,16633,16633,16633,16633,16633,16633,16633,16633,16633,16633,16633,16633,16633,16633,16633,16633,16633,16633,16633,16633,16633,16633,16633,16633,16633,16633,16633,16633,16633,16633,16633,16633,16633,16633,16633,16633,16633,16633,16633,16633,16633,16633,16633,16633,16633,16633,16633,16633,16633,
16633,16633,16633,16633,16633,16633,16633,16633,16633,16633,16633,16633,16633,16633,16633,16633,16633,16633,16633,16633,16633,16633,16633,16633,16633,16633,16633,16633,16633,16633,16633,16633,16633,16633,16633,16633,16633,16633,16633,16633,16633,16633,16633,16633,16633,16633,16633,16633,16633,16633,16633,16633,16633,16633,16633,16633,16633,16633,16633,16633,
16633,16633,16633,16633,16633,16633,16633,16633,16633,16633,16633,16633,16633,16633,16633,16633,16633,16633,16633,16633,16633,16633,16633,16633,16633,16633,16633,16633,16633,16633,16633,16633,16633,16633,16633,16633,16633,16633,16633,16633,16633,16633,16633,16633,16633,16633,16633,16633,16633,16633,16633,16633,16633,16633,16633,16633,16633,16633,16633,16633,
16633,16633,16633,16633,16633,16633,16633,16633,16633,16633,16633,16633,16633,16633,16633,16633,16633,16633,16633,16633,16633,16633,16633,16633,16633,16633,16633,16633,16633,16633,16633,16633,16633,16633,16633,16633,16633,16633,16633,16633,16633,16633,16633,16633,16633,16633,16633,16633,16633,16633,16633,16633,16633,16633,16633,16633,16633,16633,16633,16633,
16633,16633,16633,16633,16633,16633,16633,16633,16633,16633,16633,16633,16633,16633,16633,16633,16633,16633,16633,16633,16633,16633,16633,16633,16633,16633,16633,16633,16633,16633,16633,16633,16633,16633,16633,16633,16633,16633,16633,16633,16633,16633,16633,16633,16633,16633,16633,16633,16633,16633,16633,16633,16633,16633,16633,16633,16633,16633,16633,16633,
16633,16633,16633,16633,16633,16633,16633,16633,16633,16633,16633,16633,16633,16633,16633,16633,16633,16633,16633,16633,16633,16633,16633,16633,16633,16633,16633,16633,16633,16633,16633,16633,16633,16633,16633,16633,16633,16633,16633,16633,16633,16633,16633,16633,16633,16633,16633,16633,16633,16633,16633,16633,16633,16633,16633,16633,16633,16633,16633,16633,
16633,16633,16633,16633,16633,16633,16633,16633,16633,16633,16633,16633,16633,16633,16633,16633,16633,16633,16633,16633,16633,16633,16633,16633,16633,16633,16633,16633,16633,16633,16633,16633,16633,16633,16633,16633,16633,16633,0,0,0,16633,16633,16633,16633,16633,16633,16633,16633,16633,16633,16633,16633,16633,16633,16633,16633,16633,16633,16633,
16633,16633,16633,16633,16633,16633,16633,16633,16633,16633,16633,16633,16633,16633,16633,16633,16633,16633,16633,16633,16633,16633,16633,16633,16633,16633,16633,16633,16633,16633,16633,16633,16633,16633,16633,16633,16633,16633,0,0,0,16633,16633,16633,16633,16633,16633,16633,16633,16633,16633,16633,16633,16633,16633,16633,16633,16633,16633,16633,
16633,16633,16633,16633,16633,16633,16633,16633,16633,16633,16633,16633,16633,16633,16633,16633,16633,16633,16633,16633,16633,16633,16633,16633,16633,16633,16633,16633,16633,16633,16633,16633,16633,16633,16633,16633,16633,16633,0,0,0,16633,16633,16633,16633,16633,16633,16633,16633,16633,16633,16633,16633,16633,16633,16633,16633,16633,16633,16633,
16633,16633,16633,16633,16633,16633,16633,16633,16633,16633,16633,16633,16633,16633,16633,16633,16633,16633,16633,16633,16633,16633,16633,16633,16633,16633,16633,16633,16633,16633,16633,16633,16633,16633,16633,16633,16633,16633,0,0,0,16633,16633,16633,16633,16633,16633,16633,16633,16633,16633,16633,16633,16633,16633,16633,16633,16633,16633,16633,
16633,16633,16633,16633,16633,16633,16633,16633,16633,16633,16633,16633,16633,16633,16633,16633,16633,16633,16633,16633,16633,16633,16633,16633,16633,16633,16633,16633,16633,16633,16633,16633,16633,16633,16633,16633,16633,16633,0,0,0,16633,16633,16633,16633,16633,16633,16633,16633,16633,16633,16633,16633,16633,16633,16633,16633,16633,16633,16633,
16633,16633,16633,16633,16633,16633,16633,16633,16633,16633,16633,16633,0,0,0,0,16633,16633,0,0,0,0,0,0,0,0,0,0,0,0,0,0,0,0,0,0,0,0,0,0,0,16633,0,0,0,0,0,16633,16633,16633,16633,16633,16633,16633,16633,16633,16633,16633,16633,16633,
16633,16633,16633,16633,16633,16633,16633,16633,16633,16633,16633,16633,0,16633,16633,16633,0,16633,0,0,0,0,0,0,0,0,0,0,0,0,0,0,0,0,0,0,0,0,0,0,0,0,0,0,0,0,0,16633,16633,16633,16633,16633,16633,16633,16633,16633,16633,16633,16633,16633,
16633,16633,16633,16633,16633,16633,16633,16633,16633,16633,16633,16633,0,16633,16633,16633,0,16633,0,0,0,0,0,0,0,0,0,0,0,0,0,0,0,0,0,0,0,16633,0,0,0,16633,0,0,0,0,16633,16633,16633,16633,16633,16633,16633,16633,16633,16633,16633,16633,16633,16633,
16633,16633,16633,16633,16633,16633,16633,16633,16633,16633,16633,16633,0,0,0,0,0,16633,0,0,0,0,0,0,0,0,0,0,0,0,0,0,0,0,0,0,0,16633,0,0,0,16633,0,0,0,0,16633,16633,16633,16633,16633,16633,16633,16633,16633,16633,16633,16633,16633,16633,
16633,16633,16633,16633,16633,16633,16633,16633,16633,16633,16633,16633,0,0,0,0,0,16633,0,0,0,0,0,0,0,0,0,0,0,0,0,0,0,0,0,0,16633,16633,0,0,0,16633,0,0,0,0,16633,16633,16633,16633,16633,16633,16633,16633,16633,16633,16633,16633,16633,16633,
16633,16633,16633,16633,16633,16633,16633,16633,16633,16633,16633,16633,0,0,0,0,0,0,16633,16633,16633,16633,16633,16633,16633,16633,16633,16633,16633,16633,16633,16633,16633,16633,16633,16633,16633,0,0,0,0,16633,0,16633,16633,16633,16633,16633,16633,16633,16633,16633,16633,16633,16633,16633,16633,16633,16633,16633,
16633,16633,16633,16633,16633,16633,16633,16633,16633,16633,16633,16633,0,0,0,0,0,0,0,0,0,0,0,0,0,0,0,0,0,0,0,0,0,0,0,0,0,0,0,0,0,0,0,16633,16633,16633,0,16633,16633,16633,16633,16633,16633,16633,16633,16633,16633,16633,16633,16633,
16633,16633,16633,16633,16633,16633,16633,16633,16633,16633,16633,16633,0,0,0,0,0,0,0,0,0,0,0,0,0,0,0,0,0,0,0,0,0,0,0,0,0,0,0,0,0,0,0,0,0,0,0,16633,16633,16633,16633,16633,16633,16633,16633,16633,16633,16633,16633,16633,
16633,16633,16633,16633,16633,16633,16633,16633,16633,16633,16633,16633,0,0,0,0,0,16633,0,0,0,0,0,0,0,0,0,0,0,0,0,0,0,0,0,0,0,0,0,0,0,0,0,0,0,0,0,16633,16633,16633,16633,16633,16633,16633,16633,16633,16633,16633,16633,16633,
16633,16633,16633,16633,16633,16633,16633,16633,16633,16633,16633,16633,0,0,0,0,0,16633,0,0,0,0,0,0,0,0,0,0,0,0,0,0,0,0,0,0,0,0,0,0,0,0,0,0,16633,16633,16633,16633,16633,16633,16633,16633,16633,16633,16633,16633,16633,16633,16633,16633,
16633,16633,16633,16633,16633,16633,16633,16633,16633,16633,16633,16633,0,0,0,0,0,16633,0,0,0,0,0,0,0,0,0,0,0,0,0,0,0,0,0,0,0,0,0,0,0,0,0,0,16633,16633,16633,16633,16633,16633,16633,16633,16633,16633,16633,16633,16633,16633,16633,16633,
16633,16633,16633,16633,16633,16633,16633,16633,16633,16633,16633,16633,0,0,0,0,0,16633,16633,16633,16633,16633,16633,16633,16633,16633,16633,16633,16633,16633,16633,16633,16633,16633,16633,16633,16633,16633,16633,16633,16633,16633,16633,16633,16633,16633,16633,16633,16633,16633,16633,16633,16633,16633,16633,16633,16633,16633,16633,16633,
16633,16633,16633,16633,16633,16633,16633,16633,16633,16633,16633,16633,0,0,0,0,0,0,0,0,0,0,0,0,0,0,0,0,0,0,0,0,0,0,0,0,0,0,0,0,0,0,0,0,0,0,0,16633,16633,16633,16633,16633,16633,16633,16633,16633,16633,16633,16633,16633,
16633,16633,16633,16633,16633,16633,16633,16633,16633,16633,16633,16633,0,0,0,0,0,0,0,0,0,0,0,0,0,0,0,0,0,0,0,0,0,0,0,0,0,0,0,0,0,0,0,0,0,0,0,16633,16633,16633,16633,16633,16633,16633,16633,16633,16633,16633,16633,16633,
16633,16633,16633,16633,16633,16633,16633,16633,16633,16633,16633,16633,16633,0,0,0,0,0,0,0,0,0,0,0,0,0,0,0,0,0,0,0,0,0,0,0,0,0,0,0,0,16633,0,0,0,0,16633,16633,16633,16633,16633,16633,16633,16633,16633,16633,16633,16633,16633,16633,
16633,16633,16633,16633,16633,16633,16633,16633,16633,16633,16633,16633,16633,16633,16633,16633,0,0,0,0,0,0,0,0,0,0,0,0,0,0,0,0,0,0,0,0,0,0,0,0,0,16633,0,0,0,0,0,16633,16633,16633,16633,16633,16633,16633,16633,16633,16633,16633,16633,16633,
16633,16633,16633,16633,16633,16633,16633,16633,16633,16633,16633,16633,16633,16633,16633,16633,0,0,0,0,0,0,0,0,0,0,0,0,0,0,0,0,0,0,0,0,0,0,0,0,0,16633,0,0,0,0,0,16633,16633,16633,16633,16633,16633,16633,16633,16633,16633,16633,16633,16633,
16633,16633,16633,16633,16633,16633,16633,16633,16633,16633,16633,16633,16633,16633,16633,16633,16633,16633,16633,16633,16633,16633,16633,16633,16633,16633,16633,16633,16633,16633,16633,16633,16633,16633,16633,16633,16633,16633,16633,16633,16633,16633,0,0,0,0,0,16633,16633,16633,16633,16633,16633,16633,16633,16633,16633,16633,16633,16633,
16633,16633,16633,16633,16633,16633,16633,16633,16633,16633,16633,16633,0,0,0,0,0,0,0,0,0,0,0,16633,0,0,0,0,0,0,0,0,0,0,0,0,0,0,0,0,0,0,0,0,0,0,0,16633,16633,16633,16633,16633,16633,16633,16633,16633,16633,16633,16633,16633,
16633,16633,16633,16633,16633,16633,16633,16633,16633,16633,16633,16633,0,0,0,0,0,0,0,0,0,0,0,0,0,0,0,0,0,0,0,0,0,0,0,0,0,0,0,0,0,0,0,0,0,0,0,16633,16633,16633,16633,16633,16633,16633,16633,16633,16633,16633,16633,16633,
16633,16633,16633,16633,16633,16633,16633,16633,16633,16633,16633,16633,0,0,0,0,0,0,0,0,0,0,0,0,0,0,0,0,0,0,0,0,0,0,0,0,0,0,0,0,0,0,0,0,0,0,0,16633,16633,16633,16633,16633,16633,16633,16633,16633,16633,16633,16633,16633,
16633,16633,16633,16633,16633,16633,16633,16633,16633,16633,16633,16633,0,0,0,0,0,0,0,0,0,0,0,0,0,0,0,0,0,0,0,0,0,0,0,0,0,0,0,0,0,0,0,0,0,0,0,16633,16633,16633,16633,16633,16633,16633,16633,16633,16633,16633,16633,16633,
16633,16633,16633,16633,16633,16633,16633,16633,16633,16633,16633,16633,0,0,0,0,0,0,0,0,0,0,0,0,0,0,0,0,0,0,0,0,0,0,0,0,0,0,0,0,0,0,0,0,0,0,0,16633,16633,16633,16633,16633,16633,16633,16633,16633,16633,16633,16633,16633,
16633,16633,16633,16633,16633,16633,16633,16633,16633,16633,16633,16633,0,0,0,0,0,0,0,0,0,0,0,0,0,0,0,0,0,0,0,0,0,0,0,0,0,0,0,0,0,0,0,0,0,0,16633,16633,16633,16633,16633,16633,16633,16633,16633,16633,16633,16633,16633,16633,
16633,16633,16633,16633,16633,16633,16633,16633,16633,16633,16633,16633,0,0,0,0,0,0,0,0,0,0,0,0,0,0,0,0,0,0,0,0,0,0,0,0,0,0,0,0,0,0,0,0,0,0,16633,16633,16633,16633,16633,16633,16633,16633,16633,16633,16633,16633,16633,16633,
16633,16633,16633,16633,16633,16633,16633,16633,16633,16633,16633,16633,0,0,0,0,0,0,0,0,0,0,0,0,0,0,0,16633,0,0,0,0,0,0,0,0,0,0,0,0,0,0,16633,0,0,0,0,16633,16633,16633,16633,16633,16633,16633,16633,16633,16633,16633,16633,16633,
16633,16633,16633,16633,16633,16633,16633,16633,16633,16633,16633,16633,0,0,0,0,0,0,0,0,0,0,0,0,0,0,0,0,0,0,0,0,0,0,0,0,0,0,0,0,0,0,0,0,0,0,0,16633,16633,16633,16633,16633,16633,16633,16633,16633,16633,16633,16633,16633,
16633,16633,16633,16633,16633,16633,16633,16633,16633,16633,16633,16633,0,0,0,0,0,0,0,0,0,0,0,0,0,0,0,0,0,0,0,0,0,0,0,0,0,0,0,0,0,0,0,0,0,0,0,16633,16633,16633,16633,16633,16633,16633,16633,16633,16633,16633,16633,16633,
16633,16633,16633,16633,16633,16633,16633,16633,16633,16633,16633,16633,0,0,0,0,0,0,0,0,0,0,0,0,0,0,0,0,0,0,0,0,0,0,0,0,0,0,0,0,0,0,0,0,0,0,0,16633,16633,16633,16633,16633,16633,16633,16633,16633,16633,16633,16633,16633,
16633,16633,16633,16633,16633,16633,16633,16633,16633,16633,16633,16633,0,0,0,0,0,0,0,0,0,0,0,0,0,0,0,0,0,0,0,0,16633,16633,16633,16633,16633,16633,0,0,16633,16633,16633,16633,16633,16633,0,16633,16633,16633,16633,16633,16633,16633,16633,16633,16633,16633,16633,16633,
16633,16633,16633,16633,16633,16633,16633,16633,16633,16633,16633,16633,0,0,0,0,0,0,0,0,0,0,0,0,0,0,0,0,0,0,0,0,16633,0,0,0,0,0,0,0,0,0,0,0,0,16633,0,16633,16633,16633,16633,16633,16633,16633,16633,16633,16633,16633,16633,16633,
16633,16633,16633,16633,16633,16633,16633,16633,16633,16633,16633,16633,0,0,0,0,0,0,0,0,0,0,0,0,0,0,0,0,0,0,0,0,16633,0,0,0,0,0,0,0,0,0,0,0,0,16633,0,16633,16633,16633,16633,16633,16633,16633,16633,16633,16633,16633,16633,16633,
16633,16633,16633,16633,16633,16633,16633,16633,16633,16633,16633,16633,0,0,0,0,0,0,0,0,0,0,0,0,0,0,0,16633,0,0,0,0,16633,0,0,0,0,0,0,0,0,0,0,0,0,16633,0,16633,16633,16633,16633,16633,16633,16633,16633,16633,16633,16633,16633,16633,
16633,16633,16633,16633,16633,16633,16633,16633,16633,16633,16633,16633,0,0,0,0,0,0,0,0,0,0,0,0,0,0,0,0,0,0,0,0,16633,0,0,0,0,0,0,0,0,0,0,0,0,16633,0,16633,16633,16633,16633,16633,16633,16633,16633,16633,16633,16633,16633,16633,
16633,16633,16633,16633,16633,16633,16633,16633,16633,16633,16633,16633,0,0,0,0,0,0,0,0,0,0,0,0,0,0,0,0,0,0,0,0,16633,16633,16633,16633,16633,16633,16633,16633,16633,16633,16633,16633,16633,16633,0,16633,16633,16633,16633,16633,16633,16633,16633,16633,16633,16633,16633,16633,
16633,16633,16633,16633,16633,16633,16633,16633,16633,16633,16633,16633,0,0,0,0,0,0,0,0,0,0,0,0,0,0,0,0,0,0,0,0,0,0,0,0,0,0,0,0,0,0,0,0,0,0,0,16633,16633,16633,16633,16633,16633,16633,16633,16633,16633,16633,16633,16633,
16633,16633,16633,16633,16633,16633,16633,16633,16633,16633,16633,16633,16633,16633,16633,16633,16633,16633,16633,16633,16633,16633,16633,16633,16633,16633,16633,16633,16633,16633,16633,16633,16633,16633,16633,16633,16633,16633,16633,16633,16633,16633,16633,16633,16633,16633,16633,16633,16633,16633,16633,16633,16633,16633,16633,16633,16633,16633,16633,16633,
16633,16633,16633,16633,16633,16633,16633,16633,16633,16633,16633,16633,16633,16633,16633,16633,16633,16633,16633,16633,16633,16633,16633,16633,16633,16633,16633,16633,16633,16633,16633,16633,16633,16633,16633,16633,16633,16633,16633,16633,16633,16633,16633,16633,16633,16633,16633,16633,16633,16633,16633,16633,16633,16633,16633,16633,16633,16633,16633,16633,
16633,16633,16633,16633,16633,16633,16633,16633,16633,16633,16633,16633,16633,16633,16633,16633,16633,16633,16633,16633,16633,16633,16633,16633,16633,16633,16633,16633,16633,16633,16633,16633,16633,16633,16633,16633,16633,16633,16633,16633,16633,16633,16633,16633,16633,16633,16633,16633,16633,16633,16633,16633,16633,16633,16633,16633,16633,16633,16633,16633,
16633,16633,16633,16633,16633,16633,16633,16633,16633,16633,16633,16633,16633,16633,16633,16633,16633,16633,16633,16633,16633,16633,16633,16633,16633,16633,16633,16633,16633,16633,16633,16633,16633,16633,16633,16633,16633,16633,16633,16633,16633,16633,16633,16633,16633,16633,16633,16633,16633,16633,16633,16633,16633,16633,16633,16633,16633,16633,16633,16633,
16633,16633,16633,16633,16633,16633,16633,16633,16633,16633,16633,16633,16633,16633,16633,16633,16633,16633,16633,16633,16633,16633,16633,16633,16633,16633,16633,16633,16633,16633,16633,16633,16633,16633,16633,16633,16633,16633,16633,16633,16633,16633,16633,16633,16633,16633,16633,16633,16633,16633,16633,16633,16633,16633,16633,16633,16633,16633,16633,16633,
16633,16633,16633,16633,16633,16633,16633,16633,16633,16633,16633,16633,16633,16633,16633,16633,16633,16633,16633,16633,16633,16633,16633,16633,16633,16633,16633,16633,16633,16633,16633,16633,16633,16633,16633,16633,16633,16633,16633,16633,16633,16633,16633,16633,16633,16633,16633,16633,16633,16633,16633,16633,16633,16633,16633,16633,16633,16633,16633,16633,
16633,16633,16633,16633,16633,16633,16633,16633,16633,16633,16633,16633,16633,16633,16633,16633,16633,16633,16633,16633,16633,16633,16633,16633,16633,16633,16633,16633,16633,16633,16633,16633,16633,16633,16633,16633,16633,16633,16633,16633,16633,16633,16633,16633,16633,16633,16633,16633,16633,16633,16633,16633,16633,16633,16633,16633,16633,16633,16633,16633,
16633,16633,16633,16633,16633,16633,16633,16633,16633,16633,16633,16633,16633,16633,16633,16633,16633,16633,16633,16633,16633,16633,16633,16633,16633,16633,16633,16633,16633,16633,16633,16633,16633,16633,16633,16633,16633,16633,16633,16633,16633,16633,16633,16633,16633,16633,16633,16633,16633,16633,16633,16633,16633,16633,16633,16633,16633,16633,16633,16633,
16633,16633,16633,16633,16633,16633,16633,16633,16633,16633,16633,16633,16633,16633,16633,16633,16633,16633,16633,16633,16633,16633,16633,16633,16633,16633,16633,16633,16633,16633,16633,16633,16633,16633,16633,16633,16633,16633,16633,16633,16633,16633,16633,16633,16633,16633,16633,16633,16633,16633,16633,16633,16633,16633,16633,16633,16633,16633,16633,16633,
16633,16633,16633,16633,16633,16633,16633,16633,16633,16633,16633,16633,16633,16633,16633,16633,16633,16633,16633,16633,16633,16633,16633,16633,16633,16633,16633,16633,16633,16633,16633,16633,16633,16633,16633,16633,16633,16633,16633,16633,16633,16633,16633,16633,16633,16633,16633,16633,16633,16633,16633,16633,16633,16633,16633,16633,16633,16633,16633,16633,
16633,16633,16633,16633,16633,16633,16633,16633,16633,16633,16633,16633,16633,16633,16633,16633,16633,16633,16633,16633,16633,16633,16633,16633,16633,16633,16633,16633,16633,16633,16633,16633,16633,16633,16633,16633,16633,16633,16633,16633,16633,16633,16633,16633,16633,16633,16633,16633,16633,16633,16633,16633,16633,16633,16633,16633,16633,16633,16633,16633,
16633,16633,16633,16633,16633,16633,16633,16633,16633,16633,16633,16633,16633,16633,16633,16633,16633,16633,16633,16633,16633,16633,16633,16633,16633,16633,16633,16633,16633,16633,16633,16633,16633,16633,16633,16633,16633,16633,16633,16633,16633,16633,16633,16633,16633,16633,16633,16633,16633,16633,16633,16633,16633,16633,16633,16633,16633,16633,16633,16633
</data>
 </layer>
 <layer id="7" name="IntermediaryLayer" width="60" height="60">
  <data encoding="csv">
0,0,0,0,0,0,0,0,0,0,0,0,0,0,0,0,0,0,0,0,0,0,0,0,0,0,0,0,0,0,0,0,0,0,0,0,0,0,0,0,0,0,0,0,0,0,0,0,0,0,0,0,0,0,0,0,0,0,0,0,
0,0,0,0,0,0,0,0,0,0,0,0,0,0,0,0,0,0,0,0,0,0,0,0,0,0,0,0,0,0,0,0,0,0,0,0,0,0,0,0,0,0,0,0,0,0,0,0,0,0,0,0,0,0,0,0,0,0,0,0,
0,0,0,0,0,0,0,0,0,0,0,0,0,0,0,0,0,0,0,0,0,0,0,0,0,0,0,0,0,0,0,0,0,0,0,0,0,0,0,0,0,0,0,0,0,0,0,0,0,0,0,0,0,0,0,0,0,0,0,0,
0,0,0,0,0,0,0,0,0,0,0,0,0,0,0,0,0,0,0,0,0,0,0,0,0,0,0,0,0,0,0,0,0,0,0,0,0,0,0,0,0,0,0,0,0,0,0,0,0,0,0,0,0,0,0,0,0,0,0,0,
0,0,0,0,0,0,0,0,0,0,0,0,0,0,0,0,0,0,0,0,0,0,0,0,0,0,0,0,0,0,0,0,0,0,0,0,0,0,0,0,0,0,0,0,0,0,0,0,0,0,0,0,0,0,0,0,0,0,0,0,
0,0,0,0,0,0,0,0,0,0,0,0,0,0,0,0,0,0,0,0,0,0,0,0,0,0,0,0,0,0,0,0,0,0,0,0,0,0,0,0,0,0,0,0,0,0,0,0,0,0,0,0,0,0,0,0,0,0,0,0,
0,0,0,0,0,0,0,0,0,0,0,0,0,0,0,0,0,0,0,0,0,0,0,0,0,0,0,0,0,0,0,0,0,0,0,0,0,0,0,0,0,0,0,0,0,0,0,0,0,0,0,0,0,0,0,0,0,0,0,0,
0,0,0,0,0,0,0,0,0,0,0,0,0,0,0,0,0,0,0,0,0,0,0,0,0,0,0,0,0,0,0,0,0,0,0,0,0,0,4250,4250,4250,0,0,0,0,0,0,0,0,0,0,0,0,0,0,0,0,0,0,0,
0,0,0,0,0,0,0,0,0,0,0,0,0,0,0,0,0,0,0,0,0,0,0,0,0,0,0,0,0,0,0,0,0,0,0,0,0,0,3544,3545,3546,0,0,0,0,0,0,0,0,0,0,0,0,0,0,0,0,0,0,0,
0,0,0,0,0,0,0,0,0,0,0,0,0,0,0,0,0,0,0,0,0,0,0,0,0,0,0,0,0,0,0,0,0,0,0,0,0,0,0,0,0,0,0,0,0,0,0,0,0,0,0,0,0,0,0,0,0,0,0,0,
0,0,0,0,0,0,0,0,0,0,0,0,0,0,0,0,0,0,0,0,0,0,0,0,0,0,0,0,0,0,0,0,0,0,0,0,0,0,0,0,0,0,0,0,0,0,0,0,0,0,0,0,0,0,0,0,0,0,0,0,
0,0,0,0,0,0,0,0,0,0,0,0,0,0,0,0,0,0,0,0,0,0,0,0,0,0,0,0,0,0,0,0,0,0,0,0,0,0,0,0,0,0,0,0,0,0,0,0,0,0,0,0,0,0,0,0,0,0,0,0,
0,0,0,0,0,0,0,0,0,0,0,0,0,0,0,0,0,5029,0,0,0,0,0,0,0,0,0,0,0,0,0,0,0,0,0,0,0,0,0,0,0,0,0,0,0,0,0,0,0,0,0,0,0,0,0,0,0,0,0,0,
0,0,0,0,0,0,0,0,0,0,0,0,0,0,0,0,0,5169,0,0,0,0,0,0,0,0,0,0,0,0,0,0,0,0,0,0,0,0,0,0,0,0,0,0,0,0,0,0,0,0,0,0,0,0,0,0,0,0,0,0,
0,0,0,0,0,0,0,0,0,0,0,0,0,0,0,0,0,5169,0,0,0,0,0,0,0,0,0,0,0,0,0,0,0,0,0,0,0,5031,0,0,0,5029,0,0,0,0,5031,0,0,0,0,0,0,0,0,0,0,0,0,0,
0,0,0,0,0,0,0,0,0,0,0,0,0,0,0,0,0,5169,0,0,0,0,0,0,0,0,0,0,0,0,0,0,0,0,0,0,0,5171,0,0,0,5169,0,0,0,0,5171,0,0,0,0,0,0,0,0,0,0,0,0,0,
0,0,0,0,0,0,0,0,0,0,0,0,0,0,0,0,0,5169,0,0,0,0,0,0,0,0,0,0,0,0,0,0,0,0,0,0,0,5171,0,0,0,5169,0,0,0,0,5171,0,0,0,0,0,0,0,0,0,0,0,0,0,
0,0,0,0,0,0,0,0,0,0,0,0,0,0,0,0,0,5309,5310,5310,5310,5310,5310,5310,5310,5310,5310,5310,5310,5310,5310,5310,5310,5310,5310,5310,5310,5311,0,0,0,5309,5310,5310,5310,5310,5311,0,0,0,0,0,0,0,0,0,0,0,0,0,
0,0,0,0,0,0,0,0,0,0,0,0,0,0,0,0,0,0,0,0,0,0,0,0,0,0,0,0,0,0,0,0,0,0,0,0,0,0,0,0,0,0,0,0,0,0,0,0,0,0,0,0,0,0,0,0,0,0,0,0,
0,0,0,0,0,0,0,0,0,0,0,0,0,0,0,0,0,0,0,0,0,0,0,0,0,0,0,0,0,0,0,0,0,0,0,0,0,0,0,0,0,0,0,0,0,0,0,0,0,0,0,0,0,0,0,0,0,0,0,0,
0,0,0,0,0,0,0,0,0,0,0,0,0,0,0,0,0,5029,0,0,0,0,0,0,0,0,0,0,0,0,0,0,0,0,0,0,0,0,0,0,0,0,0,0,0,0,5031,0,0,0,0,0,0,0,0,0,0,0,0,0,
0,0,0,0,0,0,0,0,0,0,0,0,0,0,0,0,0,5169,0,0,0,0,0,0,0,0,0,0,0,0,0,0,0,0,0,0,0,0,0,0,0,0,0,0,0,0,5171,0,0,0,0,0,0,0,0,0,0,0,0,0,
0,0,0,0,0,0,0,0,0,0,0,0,0,0,0,0,0,5169,0,0,0,0,0,0,0,0,0,0,0,0,0,0,0,0,0,0,0,0,0,0,0,0,0,0,0,0,5171,0,0,0,0,0,0,0,0,0,0,0,0,0,
0,0,0,0,0,0,0,0,0,0,0,0,0,0,0,0,0,5309,5310,5310,5310,5310,5310,5310,5310,5310,5310,5310,5310,5310,5310,5310,5310,5310,5310,5310,5310,5310,5310,5310,5310,5310,5310,5310,5310,5310,5311,0,0,0,0,0,0,0,0,0,0,0,0,0,
0,0,0,0,0,0,0,0,0,0,0,0,0,0,0,0,0,0,0,0,0,0,0,0,0,0,0,0,0,0,0,0,0,0,0,0,0,0,0,0,0,0,0,0,0,0,0,0,0,0,0,0,0,0,0,0,0,0,0,0,
0,0,0,0,0,0,0,0,0,0,0,0,0,0,0,0,0,0,0,0,0,0,0,0,0,0,0,0,0,0,0,0,0,0,0,0,0,0,0,0,0,0,0,0,0,0,0,0,0,0,0,0,0,0,0,0,0,0,0,0,
0,0,0,0,0,0,0,0,0,0,0,0,5029,0,0,0,0,0,0,0,0,0,0,0,0,0,0,0,0,0,0,0,0,0,0,0,0,0,0,0,0,5031,0,0,0,0,0,0,0,0,0,0,0,0,0,0,0,0,0,0,
0,0,0,0,0,0,0,0,0,0,0,0,5169,0,0,0,0,0,0,0,0,0,0,0,0,0,0,0,0,0,0,0,0,0,0,0,0,0,0,0,0,5171,0,0,0,0,0,0,0,0,0,0,0,0,0,0,0,0,0,0,
0,0,0,0,0,0,0,0,0,0,0,0,5169,0,0,0,0,0,0,0,0,0,0,0,0,0,0,0,0,0,0,0,0,0,0,0,0,0,0,0,0,5171,0,0,0,0,0,0,0,0,0,0,0,0,0,0,0,0,0,0,
0,0,0,0,0,0,0,0,0,0,0,0,5309,5310,5310,5310,5310,5310,5310,5310,5310,5310,5310,5310,5310,5310,5310,5310,5310,5310,5310,5310,5310,5310,5310,5310,5310,5310,5310,5310,5310,5311,0,0,0,0,0,0,0,0,0,0,0,0,0,0,0,0,0,0,
0,0,0,0,0,0,0,0,0,0,0,0,0,0,0,0,0,0,0,0,0,0,0,0,0,0,0,0,0,0,0,0,0,0,0,0,0,0,0,0,0,0,0,0,0,0,0,0,0,0,0,0,0,0,0,0,0,0,0,0,
0,0,0,0,0,0,0,0,0,0,0,0,0,0,0,0,0,0,0,0,0,0,0,0,0,0,0,0,0,0,0,0,0,0,0,0,0,0,0,0,0,0,0,0,0,0,0,0,0,0,0,0,0,0,0,0,0,0,0,0,
0,0,0,0,0,0,0,0,0,0,0,0,0,0,0,0,0,0,0,0,0,0,0,0,0,0,0,0,0,0,0,0,0,0,0,0,0,0,0,0,0,0,0,0,0,0,0,0,0,0,0,0,0,0,0,0,0,0,0,0,
0,0,0,0,0,0,0,0,0,0,0,0,0,0,0,0,0,0,0,0,0,0,0,0,0,0,0,0,0,0,0,0,0,0,0,0,0,0,0,0,0,0,0,0,0,0,0,0,0,0,0,0,0,0,0,0,0,0,0,0,
0,0,0,0,0,0,0,0,0,0,0,0,0,0,0,0,0,0,0,0,0,0,0,0,0,0,0,0,0,0,0,0,0,0,0,0,0,0,0,0,0,0,0,0,0,0,0,0,0,0,0,0,0,0,0,0,0,0,0,0,
0,0,0,0,0,0,0,0,0,0,0,0,0,0,0,0,0,0,0,0,0,0,0,0,0,0,0,0,0,0,0,0,0,0,0,0,0,0,0,0,0,0,0,0,0,0,0,0,0,0,0,0,0,0,0,0,0,0,0,0,
0,0,0,0,0,0,0,0,0,0,0,0,0,0,0,0,0,0,0,0,0,0,0,0,0,0,0,0,0,0,0,0,0,0,0,0,0,0,0,0,0,0,0,0,0,0,0,0,0,0,0,0,0,0,0,0,0,0,0,0,
0,0,0,0,0,0,0,0,0,0,0,0,0,0,0,0,0,0,0,0,0,0,0,0,0,0,0,0,0,0,0,0,0,0,0,0,0,0,0,0,0,0,0,0,0,0,0,0,0,0,0,0,0,0,0,0,0,0,0,0,
0,0,0,0,0,0,0,0,0,0,0,0,0,0,0,0,0,0,0,0,0,0,0,0,0,0,0,0,0,0,0,0,0,0,0,0,0,0,0,0,0,0,0,0,0,0,0,0,0,0,0,0,0,0,0,0,0,0,0,0,
0,0,0,0,0,0,0,0,0,0,0,0,0,0,0,0,0,0,0,0,0,0,0,0,0,0,0,0,0,0,0,0,0,0,0,0,0,0,0,0,0,0,0,0,0,0,0,0,0,0,0,0,0,0,0,0,0,0,0,0,
0,0,0,0,0,0,0,0,0,0,0,0,0,0,0,0,0,0,0,0,0,0,0,0,0,0,0,0,0,0,0,0,0,0,0,0,0,0,0,0,0,0,0,0,0,0,0,0,0,0,0,0,0,0,0,0,0,0,0,0,
0,0,0,0,0,0,0,0,0,0,0,0,0,0,0,0,0,0,0,0,0,0,0,0,0,0,0,0,0,0,0,0,0,0,0,0,0,0,0,0,0,0,0,0,0,0,0,0,0,0,0,0,0,0,0,0,0,0,0,0,
0,0,0,0,0,0,0,0,0,0,0,0,0,0,0,0,0,0,0,0,0,0,0,0,0,0,0,0,0,0,0,0,0,0,0,0,0,0,0,0,0,0,0,0,0,0,0,0,0,0,0,0,0,0,0,0,0,0,0,0,
0,0,0,0,0,0,0,0,0,0,0,0,0,0,0,0,0,0,0,0,0,0,0,0,0,0,0,0,0,0,0,0,0,0,0,0,0,0,0,0,0,0,0,0,0,0,0,0,0,0,0,0,0,0,0,0,0,0,0,0,
0,0,0,0,0,0,0,0,0,0,0,0,0,0,0,0,0,0,0,0,0,0,0,0,0,0,0,0,0,0,0,0,0,0,0,0,0,0,0,0,0,0,0,0,0,0,0,0,0,0,0,0,0,0,0,0,0,0,0,0,
0,0,0,0,0,0,0,0,0,0,0,0,0,0,0,0,0,0,0,0,0,0,0,0,0,0,0,0,0,0,0,0,0,0,0,0,0,0,0,0,0,0,0,0,0,0,0,0,0,0,0,0,0,0,0,0,0,0,0,0,
0,0,0,0,0,0,0,0,0,0,0,0,0,0,0,0,0,0,0,0,0,0,0,0,0,0,0,0,0,0,0,0,0,0,0,0,0,0,0,0,0,0,0,0,0,0,0,0,0,0,0,0,0,0,0,0,0,0,0,0,
0,0,0,0,0,0,0,0,0,0,0,0,0,0,0,0,0,0,0,0,0,0,0,0,0,0,0,0,4109,4110,4111,0,0,0,0,0,0,0,0,0,0,0,0,0,0,0,0,0,0,0,0,0,0,0,0,0,0,0,0,0,
0,0,0,0,0,0,0,0,0,0,0,0,0,0,0,0,0,0,0,0,0,0,0,0,0,0,0,0,4249,4250,4251,0,0,0,0,0,0,0,0,0,0,0,0,0,0,0,0,0,0,0,0,0,0,0,0,0,0,0,0,0,
0,0,0,0,0,0,0,0,0,0,0,0,0,0,0,0,0,0,0,0,0,0,0,0,0,0,0,0,0,0,0,0,0,0,0,0,0,0,0,0,0,0,0,0,0,0,0,0,0,0,0,0,0,0,0,0,0,0,0,0,
0,0,0,0,0,0,0,0,0,0,0,0,0,0,0,0,0,0,0,0,0,0,0,0,0,0,0,0,0,0,0,0,0,0,0,0,0,0,0,0,0,0,0,0,0,0,0,0,0,0,0,0,0,0,0,0,0,0,0,0,
0,0,0,0,0,0,0,0,0,0,0,0,0,0,0,0,0,0,0,0,0,0,0,0,0,0,0,0,0,0,0,0,0,0,0,0,0,0,0,0,0,0,0,0,0,0,0,0,0,0,0,0,0,0,0,0,0,0,0,0,
0,0,0,0,0,0,0,0,0,0,0,0,0,0,0,0,0,0,0,0,0,0,0,0,0,0,0,0,0,0,0,0,0,0,0,0,0,0,0,0,0,0,0,0,0,0,0,0,0,0,0,0,0,0,0,0,0,0,0,0,
0,0,0,0,0,0,0,0,0,0,0,0,0,0,0,0,0,0,0,0,0,0,0,0,0,0,0,0,0,0,0,0,0,0,0,0,0,0,0,0,0,0,0,0,0,0,0,0,0,0,0,0,0,0,0,0,0,0,0,0,
0,0,0,0,0,0,0,0,0,0,0,0,0,0,0,0,0,0,0,0,0,0,0,0,0,0,0,0,0,0,0,0,0,0,0,0,0,0,0,0,0,0,0,0,0,0,0,0,0,0,0,0,0,0,0,0,0,0,0,0,
0,0,0,0,0,0,0,0,0,0,0,0,0,0,0,0,0,0,0,0,0,0,0,0,0,0,0,0,0,0,0,0,0,0,0,0,0,0,0,0,0,0,0,0,0,0,0,0,0,0,0,0,0,0,0,0,0,0,0,0,
0,0,0,0,0,0,0,0,0,0,0,0,0,0,0,0,0,0,0,0,0,0,0,0,0,0,0,0,0,0,0,0,0,0,0,0,0,0,0,0,0,0,0,0,0,0,0,0,0,0,0,0,0,0,0,0,0,0,0,0,
0,0,0,0,0,0,0,0,0,0,0,0,0,0,0,0,0,0,0,0,0,0,0,0,0,0,0,0,0,0,0,0,0,0,0,0,0,0,0,0,0,0,0,0,0,0,0,0,0,0,0,0,0,0,0,0,0,0,0,0,
0,0,0,0,0,0,0,0,0,0,0,0,0,0,0,0,0,0,0,0,0,0,0,0,0,0,0,0,0,0,0,0,0,0,0,0,0,0,0,0,0,0,0,0,0,0,0,0,0,0,0,0,0,0,0,0,0,0,0,0,
0,0,0,0,0,0,0,0,0,0,0,0,0,0,0,0,0,0,0,0,0,0,0,0,0,0,0,0,0,0,0,0,0,0,0,0,0,0,0,0,0,0,0,0,0,0,0,0,0,0,0,0,0,0,0,0,0,0,0,0
</data>
 </layer>
 <layer id="6" name="VegetationLayer" width="60" height="60">
  <data encoding="csv">
598,599,595,596,597,598,599,595,596,597,598,599,595,596,597,598,599,595,596,597,598,599,595,596,597,598,599,595,596,597,598,599,595,596,597,598,599,595,596,597,598,599,595,596,597,598,599,595,596,597,598,599,595,596,597,598,599,595,596,597,
738,739,735,736,737,738,739,735,736,737,738,739,735,736,737,738,739,735,736,737,738,739,735,736,737,738,739,735,736,737,738,739,735,736,737,738,739,735,736,737,738,739,735,736,737,738,739,735,736,737,738,739,735,736,737,738,739,735,736,737,
878,879,875,876,877,878,879,875,876,877,878,879,875,876,877,878,879,875,876,877,878,879,875,876,877,878,879,875,876,877,878,879,875,876,877,878,879,875,876,877,878,879,875,876,877,878,879,875,876,877,878,879,875,876,877,878,879,875,876,877,
1018,1019,1015,1016,1017,1018,1019,1015,1016,1017,1018,1019,1015,1016,1017,1018,1019,1015,1016,1017,1018,1019,1015,1016,1017,1018,1019,1015,1016,1017,1018,1019,1015,1016,1017,1018,1019,1015,1016,1017,1018,1019,1015,1016,1017,1018,1019,1015,1016,1017,1018,1019,1015,1016,1017,1018,1019,1015,1016,1017,
598,599,595,596,597,598,599,595,596,597,598,599,595,596,597,598,599,595,596,597,598,599,595,596,597,598,599,595,596,597,598,599,595,596,597,598,599,595,596,597,598,599,595,596,597,598,599,595,596,597,598,599,595,596,597,598,599,595,596,597,
738,739,735,736,737,738,739,735,736,737,738,739,735,736,737,738,739,735,736,737,738,739,735,736,737,738,739,735,736,737,738,739,735,736,737,738,739,735,736,737,738,739,735,736,737,738,739,735,736,737,738,739,735,736,737,738,739,735,736,737,
878,879,875,876,877,878,879,875,876,877,878,879,875,876,877,878,879,875,876,877,878,879,875,876,877,878,879,875,876,877,878,879,875,876,877,878,879,875,876,877,878,879,875,876,877,878,879,875,876,877,878,879,875,876,877,878,879,875,876,877,
1018,1019,1015,1016,1017,1018,1019,1015,1016,1017,1018,1019,1015,1016,1017,1018,1019,1015,1016,1017,1018,1019,1015,1016,1017,1018,1019,1015,1016,1017,1018,1019,1015,1016,1017,1018,1019,1015,1016,1017,1018,1019,1015,1016,1017,1018,1019,1015,1016,1017,1018,1019,1015,1016,1017,1018,1019,1015,1016,1017,
598,599,595,596,597,598,599,595,596,597,598,599,595,596,597,598,599,595,596,597,598,599,595,596,597,598,599,595,596,597,598,599,595,596,597,598,599,0,0,0,0,0,595,596,597,598,599,595,596,597,598,599,595,596,597,598,599,595,596,597,
738,739,735,736,737,738,739,735,736,737,738,739,735,736,737,738,739,735,736,737,738,739,735,736,737,738,739,735,736,737,738,739,735,736,737,738,739,0,0,0,0,0,735,736,737,738,739,735,736,737,738,739,735,736,737,738,739,735,736,737,
878,879,875,876,877,878,879,875,876,877,878,879,875,876,877,878,1583,875,876,877,878,879,875,876,877,878,879,875,876,877,878,879,875,876,877,878,879,0,0,0,0,0,875,876,877,878,879,875,876,877,878,879,875,876,877,878,879,875,876,877,
1018,1019,1015,1016,1017,1018,1019,1015,1016,1017,1018,1019,1015,1016,1017,1018,1723,1015,1016,1017,1018,1019,1015,1016,1017,1018,1019,1015,1016,1017,1018,1019,1015,1016,1017,1018,1019,9950,0,0,0,9948,9949,1016,1017,1018,1019,1015,1016,1017,1018,1019,1015,1016,1017,1018,1019,1015,1016,1017,
598,599,595,596,597,598,599,595,596,597,598,599,0,573,574,575,1863,0,0,0,0,0,0,0,0,0,0,0,0,0,0,0,0,0,0,0,0,0,0,0,0,0,0,0,0,0,0,595,596,597,598,599,595,596,597,598,599,595,596,597,
738,739,735,736,737,738,739,735,736,737,738,739,0,713,714,715,0,0,0,0,0,0,0,0,0,0,0,0,0,0,0,0,0,0,0,0,0,0,0,0,0,0,0,0,0,0,0,735,736,737,738,739,735,736,737,738,739,735,736,737,
878,879,875,876,877,878,879,875,876,877,878,879,0,853,854,855,0,0,0,0,0,0,0,0,0,0,0,0,0,0,0,0,0,0,0,0,0,0,0,0,0,0,0,0,0,0,0,875,876,877,878,879,875,876,877,878,879,875,876,877,
1018,1019,1015,1016,1017,1018,1019,1015,1016,1017,1018,1019,0,993,994,995,0,0,0,0,0,0,0,0,0,0,0,0,0,0,0,0,0,0,0,0,0,0,0,0,0,0,0,0,0,0,0,1015,1016,1017,1018,1019,1015,1016,1017,1018,1019,1015,1016,1017,
598,599,595,596,597,598,599,595,596,597,598,599,3297,3297,3297,3297,3297,0,0,0,0,0,0,0,0,0,0,0,0,0,0,0,0,0,0,0,0,0,0,0,0,0,0,567,568,569,1070,595,596,597,598,599,595,596,597,598,599,595,596,597,
738,739,735,736,737,738,739,735,736,737,738,739,3297,3297,3297,3297,3297,0,0,0,0,0,0,0,0,0,0,0,0,0,0,0,0,0,0,0,0,0,0,0,0,0,0,707,708,709,0,735,736,737,738,739,735,736,737,738,739,735,736,737,
878,879,875,876,877,878,879,875,876,877,878,879,3297,3297,3297,3297,3297,0,0,0,0,0,0,0,0,0,0,0,3577,0,0,0,0,0,0,0,0,0,1435,0,0,1438,0,847,848,849,0,875,876,877,878,879,875,876,877,878,879,875,876,877,
1018,1019,1015,1016,1017,1018,1019,1015,1016,1017,1018,1019,3297,3297,3297,3297,3297,0,0,0,0,0,0,0,0,0,0,0,0,0,0,0,0,0,0,3577,0,0,1575,0,0,1578,0,987,988,989,0,1015,1016,1017,1018,1019,1015,1016,1017,1018,1019,1015,1016,1017,
598,599,595,596,597,598,599,595,596,597,598,599,3297,3297,3297,3297,3297,0,0,0,0,0,0,0,0,0,0,0,0,0,0,0,0,0,0,0,0,0,0,0,0,0,0,0,570,571,572,595,596,597,598,599,595,596,597,598,599,595,596,597,
738,739,735,736,737,738,739,735,736,737,738,739,3297,3297,3297,3297,3297,0,0,0,0,0,0,0,0,0,0,0,0,0,0,0,0,0,0,0,0,0,1855,0,0,0,0,0,710,711,712,735,736,737,738,739,735,736,737,738,739,735,736,737,
878,879,875,876,877,878,879,875,876,877,878,879,0,0,0,0,3577,0,0,0,0,0,3577,0,0,0,0,0,0,0,0,0,0,0,0,0,0,3577,0,0,0,0,0,0,850,851,852,875,876,877,878,879,875,876,877,878,879,875,876,877,
1018,1019,1015,1016,1017,1018,1019,1015,1016,1017,1018,1019,0,0,0,0,0,0,0,0,0,0,0,0,0,0,0,0,0,0,0,0,0,0,0,0,0,0,0,0,0,0,0,0,990,991,992,1015,1016,1017,1018,1019,1015,1016,1017,1018,1019,1015,1016,1017,
598,599,595,596,597,598,599,595,596,597,598,599,0,0,0,0,0,0,0,0,0,0,0,3577,0,0,0,0,0,0,0,0,0,0,0,0,0,0,0,3577,0,0,0,0,0,0,0,595,596,597,598,599,595,596,597,598,599,595,596,597,
738,739,735,736,737,738,739,735,736,737,738,739,3577,0,0,0,0,0,0,0,0,0,0,0,0,0,0,0,0,0,0,3577,0,0,0,0,0,0,0,0,0,0,0,0,0,0,0,735,736,737,738,739,735,736,737,738,739,735,736,737,
878,879,875,876,877,878,879,875,876,877,878,879,0,570,571,572,0,0,0,0,0,0,0,0,0,0,0,0,0,0,0,0,0,0,0,0,0,0,0,0,0,0,0,0,0,0,0,875,876,877,878,879,875,876,877,878,879,875,876,877,
1018,1019,1015,1016,1017,1018,1019,1015,1016,1017,1018,1019,0,710,711,712,0,0,0,0,0,0,0,0,0,0,0,0,0,0,0,0,0,0,0,0,0,0,0,0,0,0,0,0,0,0,0,1015,1016,1017,1018,1019,1015,1016,1017,1018,1019,1015,1016,1017,
598,599,595,596,597,598,599,595,596,597,598,599,0,850,851,852,0,3577,0,0,0,0,0,1583,0,0,0,0,0,3577,0,0,0,0,0,0,0,0,0,3577,0,0,0,0,0,0,0,595,596,597,598,599,595,596,597,598,599,595,596,597,
738,739,735,736,737,738,739,735,736,737,738,739,0,990,991,992,0,0,0,0,0,0,0,1723,0,0,0,0,0,0,0,0,0,0,0,0,0,0,0,0,0,0,0,0,0,0,0,735,736,737,738,739,735,736,737,738,739,735,736,737,
878,879,875,876,877,878,879,875,876,877,878,879,0,0,0,0,0,0,0,0,3577,0,0,1863,0,0,0,0,0,0,0,3577,0,0,0,0,0,0,0,0,0,0,0,0,0,0,0,875,876,877,878,879,875,876,877,878,879,875,876,877,
1018,1019,1015,1016,1017,1018,1019,1015,1016,1017,1018,1019,0,3297,3297,3297,3297,3297,3297,3297,3297,3297,3297,0,3581,3581,3581,3581,3581,3581,3581,3581,3581,3581,3581,0,3297,3297,3581,3581,3581,3581,0,0,0,0,0,1015,1016,1017,1018,1019,1015,1016,1017,1018,1019,1015,1016,1017,
598,599,595,596,597,598,599,595,596,597,598,599,0,3297,3297,3297,3297,3297,3297,3297,3297,3297,3297,0,3581,3297,3297,3297,3581,3581,3581,3581,3581,3581,3581,0,3297,3297,3581,3581,3581,3581,0,0,0,0,0,595,596,597,598,599,595,596,597,598,599,595,596,597,
738,739,735,736,737,738,739,735,736,737,738,739,0,3297,3297,3297,3297,3297,3297,3297,3297,3297,3297,0,3297,3297,3297,3297,3297,3297,3297,3297,3297,3297,3297,0,3297,3297,3581,3581,3581,3581,0,0,0,0,0,735,736,737,738,739,735,736,737,738,739,735,736,737,
878,879,875,876,877,878,879,875,876,877,878,879,0,3297,3297,3297,3297,3297,3297,3297,3297,3297,3297,0,3297,3297,3297,3297,3297,3297,3297,3297,3297,3297,3297,0,3297,3297,3581,3581,3581,3581,0,0,0,0,0,875,876,877,878,879,875,876,877,878,879,875,876,877,
1018,1019,1015,1016,1017,1018,1019,1015,1016,1017,1018,1019,0,3297,3297,3297,3297,3297,3297,3297,3297,3297,3297,0,3581,3581,3581,3581,3581,3581,3581,3581,3581,3581,3581,0,3297,3297,3581,3581,3581,3581,0,0,0,0,0,1015,1016,1017,1018,1019,1015,1016,1017,1018,1019,1015,1016,1017,
598,599,595,596,597,598,599,595,596,597,598,599,0,3297,3297,3297,3297,3297,3297,3297,3297,3297,3297,0,3581,3581,3581,3581,3581,3581,3581,3581,3581,3581,3581,0,3297,3297,3581,3581,3581,3581,0,0,0,0,0,595,596,597,598,599,595,596,597,598,599,595,596,597,
738,739,735,736,737,738,739,735,736,737,738,739,0,0,0,0,0,0,0,0,0,3577,0,0,0,0,0,0,0,0,0,0,0,0,0,0,0,0,0,3577,0,0,0,0,0,0,0,735,736,737,738,739,735,736,737,738,739,735,736,737,
878,879,875,876,877,878,879,875,876,877,878,879,0,3297,3297,3297,3297,3297,3297,3297,3297,3297,3297,0,0,0,0,0,0,0,0,0,0,0,0,0,0,0,0,0,0,0,0,0,0,0,0,875,876,877,878,879,875,876,877,878,879,875,876,877,
1018,1019,1015,1016,1017,1018,1019,1015,1016,1017,1018,1019,3577,3297,3297,3297,3297,3297,3297,3297,3297,3297,3297,0,0,0,0,0,0,0,0,0,0,0,0,0,0,0,0,0,0,0,0,0,0,0,0,1015,1016,1017,1018,1019,1015,1016,1017,1018,1019,1015,1016,1017,
598,599,595,596,597,598,599,595,596,597,598,599,0,3297,3297,3297,3297,3297,3297,3297,3297,3297,3297,0,0,0,0,0,0,0,0,0,0,0,0,0,0,0,0,0,0,0,0,0,0,0,0,595,596,597,598,599,595,596,597,598,599,595,596,597,
738,739,735,736,737,738,739,735,736,737,738,739,0,3297,3297,3297,3297,3297,3297,3297,3297,3297,3297,0,0,0,0,0,0,0,0,0,0,0,0,0,3445,0,0,0,0,0,0,0,0,0,0,735,736,737,738,739,735,736,737,738,739,735,736,737,
878,879,875,876,877,878,879,875,876,877,878,879,0,3297,3297,3297,3297,3297,3297,3297,3297,3297,3297,0,0,0,0,0,0,0,0,0,0,0,3717,0,0,0,3717,0,0,0,0,0,3717,0,0,875,876,877,878,879,875,876,877,878,879,875,876,877,
1018,1019,1015,1016,1017,1018,1019,1015,1016,1017,1018,1019,3577,3297,3297,3297,3297,3297,3297,3297,3297,3297,3297,0,0,0,0,0,0,0,0,0,0,0,0,0,0,0,0,0,0,0,3717,0,0,0,0,1015,1016,1017,1018,1019,1015,1016,1017,1018,1019,1015,1016,1017,
598,599,595,596,597,598,599,595,596,597,598,599,0,3297,3297,3297,3297,3297,3297,3297,3297,3297,3297,0,0,0,0,0,0,0,0,0,0,0,3717,0,0,0,0,0,0,0,0,0,0,0,0,595,596,597,598,599,595,596,597,598,599,595,596,597,
738,739,735,736,737,738,739,735,736,737,738,739,0,3297,3297,3297,3297,3297,3297,3297,3297,3297,3297,0,0,0,0,0,0,0,0,0,0,0,0,3717,0,0,0,0,3717,0,0,0,3717,0,0,735,736,737,738,739,735,736,737,738,739,735,736,737,
878,879,875,876,877,878,879,875,876,877,878,879,0,3297,3297,3297,3297,3297,3297,3297,3297,3297,3297,0,0,0,0,0,0,0,0,0,0,0,0,0,0,0,0,0,0,0,0,0,0,0,0,875,876,877,878,879,875,876,877,878,879,875,876,877,
1018,1019,1015,1016,1017,1018,1019,1015,1016,1017,1018,1019,0,0,0,0,0,0,0,0,0,0,0,0,0,0,0,0,0,0,0,0,0,0,0,0,0,0,0,0,0,0,0,0,0,0,0,1015,1016,1017,1018,1019,1015,1016,1017,1018,1019,1015,1016,1017,
598,599,595,596,597,598,599,595,596,597,598,599,595,596,597,598,599,595,596,597,598,599,595,596,597,598,599,595,596,597,598,599,595,596,597,598,599,595,596,597,598,599,595,596,597,598,599,595,596,597,598,599,595,596,597,598,599,595,596,597,
738,739,735,736,737,738,739,735,736,737,738,739,735,736,737,738,739,735,736,737,738,739,735,736,737,738,739,735,736,737,738,739,735,736,737,738,739,735,736,737,738,739,735,736,737,738,739,735,736,737,738,739,735,736,737,738,739,735,736,737,
878,879,875,876,877,878,879,875,876,877,878,879,875,876,877,878,879,875,876,877,878,879,875,876,877,878,879,875,876,877,878,879,875,876,877,878,879,875,876,877,878,879,875,876,877,878,879,875,876,877,878,879,875,876,877,878,879,875,876,877,
1018,1019,1015,1016,1017,1018,1019,1015,1016,1017,1018,1019,1015,1016,1017,1018,1019,1015,1016,1017,1018,1019,1015,1016,1017,1018,1019,1015,1016,1017,1018,1019,1015,1016,1017,1018,1019,1015,1016,1017,1018,1019,1015,1016,1017,1018,1019,1015,1016,1017,1018,1019,1015,1016,1017,1018,1019,1015,1016,1017,
598,599,595,596,597,598,599,595,596,597,598,599,595,596,597,598,599,595,596,597,598,599,595,596,597,598,599,595,596,597,598,599,595,596,597,598,599,595,596,597,598,599,595,596,597,598,599,595,596,597,598,599,595,596,597,598,599,595,596,597,
738,739,735,736,737,738,739,735,736,737,738,739,735,736,737,738,739,735,736,737,738,739,735,736,737,738,739,735,736,737,738,739,735,736,737,738,739,735,736,737,738,739,735,736,737,738,739,735,736,737,738,739,735,736,737,738,739,735,736,737,
878,879,875,876,877,878,879,875,876,877,878,879,875,876,877,878,879,875,876,877,878,879,875,876,877,878,879,875,876,877,878,879,875,876,877,878,879,875,876,877,878,879,875,876,877,878,879,875,876,877,878,879,875,876,877,878,879,875,876,877,
1018,1019,1015,1016,1017,1018,1019,1015,1016,1017,1018,1019,1015,1016,1017,1018,1019,1015,1016,1017,1018,1019,1015,1016,1017,1018,1019,1015,1016,1017,1018,1019,1015,1016,1017,1018,1019,1015,1016,1017,1018,1019,1015,1016,1017,1018,1019,1015,1016,1017,1018,1019,1015,1016,1017,1018,1019,1015,1016,1017,
598,599,595,596,597,598,599,595,596,597,598,599,595,596,597,598,599,595,596,597,598,599,595,596,597,598,599,595,596,597,598,599,595,596,597,598,599,595,596,597,598,599,595,596,597,598,599,595,596,597,598,599,595,596,597,598,599,595,596,597,
738,739,735,736,737,738,739,735,736,737,738,739,735,736,737,738,739,735,736,737,738,739,735,736,737,738,739,735,736,737,738,739,735,736,737,738,739,735,736,737,738,739,735,736,737,738,739,735,736,737,738,739,735,736,737,738,739,735,736,737,
878,879,875,876,877,878,879,875,876,877,878,879,875,876,877,878,879,875,876,877,878,879,875,876,877,878,879,875,876,877,878,879,875,876,877,878,879,875,876,877,878,879,875,876,877,878,879,875,876,877,878,879,875,876,877,878,879,875,876,877,
1018,1019,1015,1016,1017,1018,1019,1015,1016,1017,1018,1019,1015,1016,1017,1018,1019,1015,1016,1017,1018,1019,1015,1016,1017,1018,1019,1015,1016,1017,1018,1019,1015,1016,1017,1018,1019,1015,1016,1017,1018,1019,1015,1016,1017,1018,1019,1015,1016,1017,1018,1019,1015,1016,1017,1018,1019,1015,1016,1017
</data>
 </layer>
 <layer id="8" name="ObjectLayer" width="60" height="60">
  <data encoding="csv">
0,0,0,0,0,0,0,0,0,0,0,0,0,0,0,0,0,0,0,0,0,0,0,0,0,0,0,0,0,0,0,0,0,0,0,0,0,0,0,0,0,0,0,0,0,0,0,0,0,0,0,0,0,0,0,0,0,0,0,0,
0,0,0,0,0,0,0,0,0,0,0,0,0,0,0,0,0,0,0,0,0,0,0,0,0,0,0,0,0,0,0,0,0,0,0,0,0,0,0,0,0,0,0,0,0,0,0,0,0,0,0,0,0,0,0,0,0,0,0,0,
0,0,0,0,0,0,0,0,0,0,0,0,0,0,0,0,0,0,0,0,0,0,0,0,0,0,0,0,0,0,0,0,0,0,0,0,0,0,0,0,0,0,0,0,0,0,0,0,0,0,0,0,0,0,0,0,0,0,0,0,
0,0,0,0,0,0,0,0,0,0,0,0,0,0,0,0,0,0,0,0,0,0,0,0,0,0,0,0,0,0,0,0,0,0,0,0,0,0,0,0,0,0,0,0,0,0,0,0,0,0,0,0,0,0,0,0,0,0,0,0,
0,0,0,0,0,0,0,0,0,0,0,0,0,0,0,0,0,0,0,0,0,0,0,0,0,0,0,0,0,0,0,0,0,0,0,0,0,0,0,0,0,0,0,0,0,0,0,0,0,0,0,0,0,0,0,0,0,0,0,0,
0,0,0,0,0,0,0,0,0,0,0,0,0,0,0,0,0,0,0,0,0,0,0,0,0,0,0,0,0,0,0,0,0,0,0,0,0,0,0,0,0,0,0,0,0,0,0,0,0,0,0,0,0,0,0,0,0,0,0,0,
0,0,0,0,0,0,0,0,0,0,0,0,0,0,0,0,0,0,0,0,0,0,0,0,0,0,0,0,0,0,0,0,0,0,0,0,0,0,0,0,0,0,0,0,0,0,0,0,0,0,0,0,0,0,0,0,0,0,0,0,
0,0,0,0,0,0,0,0,0,0,0,0,0,0,0,0,0,0,0,0,0,0,0,0,0,0,0,0,0,0,0,0,0,0,0,0,0,9670,0,0,0,9668,0,0,0,0,0,0,0,0,0,0,0,0,0,0,0,0,0,0,
0,0,0,0,0,0,0,0,0,0,0,0,0,0,0,0,0,0,0,0,0,0,0,0,0,0,0,0,0,0,0,0,0,0,0,0,0,9810,0,0,0,9808,0,0,0,0,0,0,0,0,0,0,0,0,0,0,0,0,0,0,
0,0,0,0,0,0,0,0,0,0,0,0,0,0,0,0,0,0,0,0,0,0,0,0,0,0,0,0,0,0,0,0,0,0,0,0,0,8829,0,0,0,9808,0,0,0,0,0,0,0,0,0,0,0,0,0,0,0,0,0,0,
0,0,0,0,0,0,0,0,0,0,0,0,0,0,0,0,0,0,0,0,0,0,0,0,0,0,0,0,0,0,0,0,0,0,0,0,0,8829,0,0,0,9808,0,0,0,0,0,0,0,0,0,0,0,0,0,0,0,0,0,0,
0,0,0,0,0,0,0,0,0,0,0,0,0,0,0,0,0,0,0,0,0,0,0,0,0,0,0,0,0,0,0,0,6745,9669,7025,6745,9669,6745,0,0,0,0,6745,7025,9669,6745,0,6745,0,0,0,0,0,0,0,0,0,0,0,0,
0,0,0,0,0,0,0,0,0,0,0,0,0,0,0,0,0,0,0,0,0,0,0,0,0,0,0,0,0,0,0,0,6885,0,7165,6885,0,6885,0,0,0,0,6885,7165,0,6885,0,6885,0,0,0,0,0,0,0,0,0,0,0,0,
0,0,0,0,0,0,0,0,0,0,0,0,0,0,0,0,0,0,0,0,0,0,0,0,0,0,0,0,0,0,0,0,0,0,0,0,0,0,0,0,0,0,0,0,0,0,0,0,0,0,0,0,0,0,0,0,0,0,0,0,
0,0,0,0,0,0,0,0,0,0,0,0,0,0,0,0,0,0,0,0,0,0,0,0,0,0,0,0,0,0,0,0,0,0,0,0,0,0,0,0,0,0,0,0,0,0,0,0,0,0,0,0,0,0,0,0,0,0,0,0,
0,0,0,0,0,0,0,0,0,0,0,0,0,0,0,0,0,0,0,0,0,0,0,0,0,0,0,0,0,0,0,0,0,0,0,0,8283,0,0,0,0,0,0,0,0,0,0,0,0,0,0,0,0,0,0,0,0,0,0,0,
0,0,0,0,0,0,0,0,0,0,0,0,0,0,0,0,0,0,0,0,0,0,0,0,0,0,0,0,0,0,0,0,0,0,0,0,8423,0,0,0,0,0,0,0,0,0,0,0,0,0,0,0,0,0,0,0,0,0,0,0,
0,0,0,0,0,0,0,0,0,0,0,0,0,0,0,0,0,0,0,0,0,0,0,0,0,0,0,0,0,0,0,0,0,0,0,0,0,0,0,0,0,0,0,0,0,0,0,0,0,0,0,0,0,0,0,0,0,0,0,0,
0,0,0,0,0,0,0,0,0,0,0,0,0,0,0,0,0,0,0,0,0,0,0,0,0,0,0,0,0,0,0,0,0,0,0,0,0,0,0,0,0,0,0,0,0,0,0,0,0,0,0,0,0,0,0,0,0,0,0,0,
0,0,0,0,0,0,0,0,0,0,0,0,0,0,0,0,0,0,0,0,0,0,0,0,0,0,0,0,0,0,0,0,0,0,0,0,0,0,0,0,0,0,0,0,0,0,0,0,0,0,0,0,0,0,0,0,0,0,0,0,
0,0,0,0,0,0,0,0,0,0,0,0,0,0,0,0,0,0,0,0,0,0,0,0,0,0,0,0,0,0,0,0,0,0,0,0,0,0,0,0,0,0,0,0,0,0,0,0,0,0,0,0,0,0,0,0,0,0,0,0,
0,0,0,0,0,0,0,0,0,0,0,0,0,0,0,0,0,0,0,0,0,0,0,0,0,0,0,0,0,0,0,0,0,0,0,0,0,0,0,0,0,0,0,0,0,0,0,0,0,0,0,0,0,0,0,0,0,0,0,0,
0,0,0,0,0,0,0,0,0,0,0,0,0,0,0,0,0,0,0,0,0,0,0,0,0,0,0,0,0,0,0,0,0,0,0,0,0,0,0,0,0,0,0,0,0,0,0,0,0,0,0,0,0,0,0,0,0,0,0,0,
0,0,0,0,0,0,0,0,0,0,0,0,0,0,0,0,0,0,0,0,0,0,0,0,0,0,0,0,0,0,0,0,0,0,0,0,0,0,0,0,0,0,0,0,0,0,0,0,0,0,0,0,0,0,0,0,0,0,0,0,
0,0,0,0,0,0,0,0,0,0,0,0,0,0,0,0,0,0,0,0,0,0,0,0,0,0,0,0,0,0,0,0,0,0,0,0,0,0,0,0,0,0,0,0,0,0,0,0,0,0,0,0,0,0,0,0,0,0,0,0,
0,0,0,0,0,0,0,0,0,0,0,0,0,0,0,0,0,0,0,0,0,0,0,0,0,0,0,0,0,0,0,0,0,0,0,0,0,0,0,0,0,0,0,0,0,0,8283,0,0,0,0,0,0,0,0,0,0,0,0,0,
0,0,0,0,0,0,0,0,0,0,0,0,0,0,0,0,0,0,0,0,0,0,0,0,0,0,0,0,0,0,0,0,0,0,0,0,0,0,0,0,0,0,0,2595,2596,2597,8423,0,0,0,0,0,0,0,0,0,0,0,0,0,
0,0,0,0,0,0,0,0,0,0,0,0,0,0,0,0,0,0,0,0,0,0,0,0,0,0,0,0,0,0,0,0,0,0,0,0,0,0,0,0,0,0,0,0,0,0,0,0,0,0,0,0,0,0,0,0,0,0,0,0,
0,0,0,0,0,0,0,0,0,0,0,0,0,0,0,0,0,0,0,0,0,0,0,0,0,0,0,0,0,0,0,0,0,0,0,0,0,0,0,0,0,0,0,0,0,0,0,0,0,0,0,0,0,0,0,0,0,0,0,0,
0,0,0,0,0,0,0,0,0,0,0,0,0,0,0,0,0,0,0,0,0,0,0,0,0,0,0,0,0,0,0,0,0,0,0,0,0,0,0,0,0,0,0,0,0,0,0,0,0,0,0,0,0,0,0,0,0,0,0,0,
0,0,0,0,0,0,0,0,0,0,0,0,0,0,0,0,0,0,0,0,0,0,0,0,0,0,0,0,0,0,0,0,0,0,0,0,0,0,0,0,0,0,0,0,0,0,0,0,0,0,0,0,0,0,0,0,0,0,0,0,
0,0,0,0,0,0,0,0,0,0,0,0,0,0,0,0,0,0,0,0,0,0,0,0,0,0,0,0,0,0,0,0,0,0,0,0,0,0,0,0,0,0,0,0,0,0,0,0,0,0,0,0,0,0,0,0,0,0,0,0,
0,0,0,0,0,0,0,0,0,0,0,0,0,0,0,0,0,0,0,0,0,0,0,0,0,0,0,0,0,0,0,0,0,0,0,0,0,0,0,0,0,0,0,0,0,0,0,0,0,0,0,0,0,0,0,0,0,0,0,0,
0,0,0,0,0,0,0,0,0,0,0,0,0,0,0,0,0,0,0,0,0,0,0,0,0,0,0,0,0,0,0,0,0,0,0,0,0,0,0,0,0,0,0,0,0,0,0,0,0,0,0,0,0,0,0,0,0,0,0,0,
0,0,0,0,0,0,0,0,0,0,0,0,0,0,0,0,0,0,0,0,0,0,0,0,0,0,0,0,0,0,0,0,0,0,0,0,0,0,0,0,0,0,0,0,0,0,0,0,0,0,0,0,0,0,0,0,0,0,0,0,
0,0,0,0,0,0,0,0,0,0,0,0,0,0,0,0,0,0,0,0,0,0,0,0,0,0,0,0,0,0,0,0,0,0,0,0,0,0,0,0,0,0,0,0,0,0,9681,0,0,0,0,0,0,0,0,0,0,0,0,0,
0,0,0,0,0,0,0,0,0,0,0,0,0,0,0,0,0,0,0,0,0,0,0,0,0,0,0,8283,0,0,0,0,0,0,0,0,0,0,0,0,0,0,8283,0,0,0,9821,0,0,0,0,0,0,0,0,0,0,0,0,0,
0,0,0,0,0,0,0,0,0,0,0,0,0,0,0,0,0,0,0,0,0,0,0,0,0,0,0,8423,0,0,0,0,0,0,0,0,0,0,0,0,0,0,8423,0,0,0,0,0,0,0,0,0,0,0,0,0,0,0,0,0,
0,0,0,0,0,0,0,0,0,0,0,0,0,0,0,0,0,0,0,0,0,0,0,0,0,0,0,0,0,0,0,0,0,0,0,0,0,0,0,0,0,0,0,0,0,0,0,0,0,0,0,0,0,0,0,0,0,0,0,0,
0,0,0,0,0,0,0,0,0,0,0,0,0,0,0,0,0,0,0,0,0,0,0,0,0,0,0,0,0,0,0,0,0,0,0,0,0,0,0,0,0,0,0,0,0,0,0,0,0,0,0,0,0,0,0,0,0,0,0,0,
0,0,0,0,0,0,0,0,0,0,0,0,0,0,0,0,0,0,0,0,0,0,0,0,0,0,0,0,0,0,0,0,0,0,0,0,0,0,0,0,0,0,0,0,0,0,0,0,0,0,0,0,0,0,0,0,0,0,0,0,
0,0,0,0,0,0,0,0,0,0,0,0,0,0,0,0,0,0,0,0,0,0,0,0,0,0,0,0,0,0,0,0,8687,8688,8688,8688,8688,8688,0,0,8688,8688,8688,8688,8688,8689,0,0,0,0,0,0,0,0,0,0,0,0,0,0,
0,0,0,0,0,0,0,0,0,0,0,0,0,0,0,0,0,0,0,0,0,0,0,0,0,0,0,0,0,0,0,0,8827,0,0,0,0,0,0,0,0,0,0,0,0,8829,0,0,0,0,0,0,0,0,0,0,0,0,0,0,
0,0,0,0,0,0,0,0,0,0,0,0,0,0,0,0,0,0,0,0,0,0,0,0,0,0,0,8283,0,0,0,0,8827,0,0,0,0,3445,0,0,0,0,0,0,0,8829,0,0,0,0,0,0,0,0,0,0,0,0,0,0,
0,0,0,0,0,0,0,0,0,0,0,0,0,0,0,0,0,0,0,0,0,0,0,0,0,0,0,8423,0,0,0,0,8827,0,0,0,0,0,3445,0,2174,2175,2176,0,0,8829,0,0,0,0,0,0,0,0,0,0,0,0,0,0,
0,0,0,0,0,0,0,0,0,0,0,0,0,0,0,0,0,0,0,0,0,0,0,0,0,0,0,0,0,0,0,0,8827,0,0,0,0,0,0,0,0,0,0,0,0,8829,0,0,0,0,0,0,0,0,0,0,0,0,0,0,
0,0,0,0,0,0,0,0,0,0,0,0,0,0,0,0,0,0,0,0,0,0,0,0,0,0,0,0,0,0,0,0,8967,8968,8968,8968,8968,8968,8968,8968,8968,8968,8968,8968,8968,8969,0,0,0,0,0,0,0,0,0,0,0,0,0,0,
0,0,0,0,0,0,0,0,0,0,0,0,0,0,0,0,0,0,0,0,0,0,0,0,0,0,0,0,0,0,0,0,0,0,0,0,0,0,0,0,0,0,0,0,0,0,0,0,0,0,0,0,0,0,0,0,0,0,0,0,
0,0,0,0,0,0,0,0,0,0,0,0,0,0,0,0,0,0,0,0,0,0,0,0,0,0,0,0,0,0,0,0,0,0,0,0,0,0,0,0,0,0,0,0,0,0,0,0,0,0,0,0,0,0,0,0,0,0,0,0,
0,0,0,0,0,0,0,0,0,0,0,0,0,0,0,0,0,0,0,0,0,0,0,0,0,0,0,0,0,0,0,0,0,0,0,0,0,0,0,0,0,0,0,0,0,0,0,0,0,0,0,0,0,0,0,0,0,0,0,0,
0,0,0,0,0,0,0,0,0,0,0,0,0,0,0,0,0,0,0,0,0,0,0,0,0,0,0,0,0,0,0,0,0,0,0,0,0,0,0,0,0,0,0,0,0,0,0,0,0,0,0,0,0,0,0,0,0,0,0,0,
0,0,0,0,0,0,0,0,0,0,0,0,0,0,0,0,0,0,0,0,0,0,0,0,0,0,0,0,0,0,0,0,0,0,0,0,0,0,0,0,0,0,0,0,0,0,0,0,0,0,0,0,0,0,0,0,0,0,0,0,
0,0,0,0,0,0,0,0,0,0,0,0,0,0,0,0,0,0,0,0,0,0,0,0,0,0,0,0,0,0,0,0,0,0,0,0,0,0,0,0,0,0,0,0,0,0,0,0,0,0,0,0,0,0,0,0,0,0,0,0,
0,0,0,0,0,0,0,0,0,0,0,0,0,0,0,0,0,0,0,0,0,0,0,0,0,0,0,0,0,0,0,0,0,0,0,0,0,0,0,0,0,0,0,0,0,0,0,0,0,0,0,0,0,0,0,0,0,0,0,0,
0,0,0,0,0,0,0,0,0,0,0,0,0,0,0,0,0,0,0,0,0,0,0,0,0,0,0,0,0,0,0,0,0,0,0,0,0,0,0,0,0,0,0,0,0,0,0,0,0,0,0,0,0,0,0,0,0,0,0,0,
0,0,0,0,0,0,0,0,0,0,0,0,0,0,0,0,0,0,0,0,0,0,0,0,0,0,0,0,0,0,0,0,0,0,0,0,0,0,0,0,0,0,0,0,0,0,0,0,0,0,0,0,0,0,0,0,0,0,0,0,
0,0,0,0,0,0,0,0,0,0,0,0,0,0,0,0,0,0,0,0,0,0,0,0,0,0,0,0,0,0,0,0,0,0,0,0,0,0,0,0,0,0,0,0,0,0,0,0,0,0,0,0,0,0,0,0,0,0,0,0,
0,0,0,0,0,0,0,0,0,0,0,0,0,0,0,0,0,0,0,0,0,0,0,0,0,0,0,0,0,0,0,0,0,0,0,0,0,0,0,0,0,0,0,0,0,0,0,0,0,0,0,0,0,0,0,0,0,0,0,0,
0,0,0,0,0,0,0,0,0,0,0,0,0,0,0,0,0,0,0,0,0,0,0,0,0,0,0,0,0,0,0,0,0,0,0,0,0,0,0,0,0,0,0,0,0,0,0,0,0,0,0,0,0,0,0,0,0,0,0,0,
0,0,0,0,0,0,0,0,0,0,0,0,0,0,0,0,0,0,0,0,0,0,0,0,0,0,0,0,0,0,0,0,0,0,0,0,0,0,0,0,0,0,0,0,0,0,0,0,0,0,0,0,0,0,0,0,0,0,0,0
</data>
 </layer>
 <objectgroup id="17" name="Lighting">
  <object id="34" x="439.333" y="599.333">
   <properties>
    <property name="LIGHT_COLOR" type="color" value="#ffffc58f"/>
    <property name="LIGHT_LEVEL" type="int" value="3"/>
    <property name="LIGHT_RADIUS" type="int" value="1"/>
   </properties>
  </object>
  <object id="35" x="439.333" y="711.333">
   <properties>
    <property name="LIGHT_COLOR" type="color" value="#ffffd6aa"/>
    <property name="LIGHT_LEVEL" type="int" value="3"/>
    <property name="LIGHT_RADIUS" type="int" value="150"/>
   </properties>
  </object>
  <object id="36" x="678.667" y="599.333">
   <properties>
    <property name="LIGHT_COLOR" type="color" value="#ffffc58f"/>
    <property name="LIGHT_LEVEL" type="int" value="3"/>
    <property name="LIGHT_RADIUS" type="int" value="150"/>
   </properties>
  </object>
  <object id="37" x="744" y="422">
   <properties>
    <property name="LIGHT_COLOR" type="color" value="#ffffc58f"/>
    <property name="LIGHT_LEVEL" type="int" value="3"/>
    <property name="LIGHT_RADIUS" type="int" value="150"/>
   </properties>
  </object>
  <object id="38" x="584" y="262.667">
   <properties>
    <property name="LIGHT_COLOR" type="color" value="#ffffc58f"/>
    <property name="LIGHT_LEVEL" type="int" value="3"/>
    <property name="LIGHT_RADIUS" type="int" value="150"/>
   </properties>
  </object>
  <object id="39" x="345" y="599.333">
   <properties>
    <property name="LIGHT_COLOR" type="color" value="#ffff6347"/>
    <property name="LIGHT_LEVEL" type="int" value="1"/>
    <property name="LIGHT_RADIUS" type="int" value="75"/>
   </properties>
  </object>
  <object id="40" x="200" y="633.333">
   <properties>
    <property name="LIGHT_COLOR" type="color" value="#ffff6347"/>
    <property name="LIGHT_LEVEL" type="int" value="1"/>
    <property name="LIGHT_RADIUS" type="int" value="75"/>
   </properties>
  </object>
  <object id="41" x="200" y="695.333">
   <properties>
    <property name="LIGHT_COLOR" type="color" value="#ffff6347"/>
    <property name="LIGHT_LEVEL" type="int" value="2"/>
    <property name="LIGHT_RADIUS" type="int" value="75"/>
   </properties>
  </object>
  <object id="42" x="327.333" y="487.333">
   <properties>
    <property name="LIGHT_COLOR" type="color" value="#ffff6347"/>
    <property name="LIGHT_LEVEL" type="int" value="1"/>
    <property name="LIGHT_RADIUS" type="int" value="75"/>
   </properties>
  </object>
  <object id="43" x="505.333" y="487.333">
   <properties>
    <property name="LIGHT_COLOR" type="color" value="#ffff6347"/>
    <property name="LIGHT_LEVEL" type="int" value="1"/>
    <property name="LIGHT_RADIUS" type="int" value="75"/>
   </properties>
  </object>
  <object id="44" x="471.333" y="456">
   <properties>
    <property name="LIGHT_COLOR" type="color" value="#ffff6347"/>
    <property name="LIGHT_LEVEL" type="int" value="1"/>
    <property name="LIGHT_RADIUS" type="int" value="75"/>
   </properties>
  </object>
  <object id="45" x="503.333" y="406.667">
   <properties>
    <property name="LIGHT_COLOR" type="color" value="#ffff6347"/>
    <property name="LIGHT_LEVEL" type="int" value="1"/>
    <property name="LIGHT_RADIUS" type="int" value="75"/>
   </properties>
  </object>
  <object id="46" x="632" y="454.667">
   <properties>
    <property name="LIGHT_COLOR" type="color" value="#ffff6347"/>
    <property name="LIGHT_LEVEL" type="int" value="1"/>
    <property name="LIGHT_RADIUS" type="int" value="75"/>
   </properties>
  </object>
  <object id="47" x="632" y="390.667">
   <properties>
    <property name="LIGHT_COLOR" type="color" value="#ffff6347"/>
    <property name="LIGHT_LEVEL" type="int" value="1"/>
    <property name="LIGHT_RADIUS" type="int" value="75"/>
   </properties>
  </object>
  <object id="48" x="376" y="392">
   <properties>
    <property name="LIGHT_COLOR" type="color" value="#ffff6347"/>
    <property name="LIGHT_LEVEL" type="int" value="1"/>
    <property name="LIGHT_RADIUS" type="int" value="75"/>
   </properties>
  </object>
  <object id="49" x="280" y="454.667">
   <properties>
    <property name="LIGHT_COLOR" type="color" value="#ffff6347"/>
    <property name="LIGHT_LEVEL" type="int" value="1"/>
    <property name="LIGHT_RADIUS" type="int" value="75"/>
   </properties>
  </object>
  <object id="50" x="200" y="407.333">
   <properties>
    <property name="LIGHT_COLOR" type="color" value="#ffff6347"/>
    <property name="LIGHT_LEVEL" type="int" value="1"/>
    <property name="LIGHT_RADIUS" type="int" value="75"/>
   </properties>
  </object>
  <object id="51" x="264.667" y="358.667">
   <properties>
    <property name="LIGHT_COLOR" type="color" value="#ffff6347"/>
    <property name="LIGHT_LEVEL" type="int" value="1"/>
    <property name="LIGHT_RADIUS" type="int" value="75"/>
   </properties>
  </object>
  <object id="52" x="360" y="358.667">
   <properties>
    <property name="LIGHT_COLOR" type="color" value="#ffff6347"/>
    <property name="LIGHT_LEVEL" type="int" value="1"/>
    <property name="LIGHT_RADIUS" type="int" value="75"/>
   </properties>
  </object>
  <object id="53" x="456.667" y="294.667">
   <properties>
    <property name="LIGHT_COLOR" type="color" value="#ffff6347"/>
    <property name="LIGHT_LEVEL" type="int" value="1"/>
    <property name="LIGHT_RADIUS" type="int" value="75"/>
   </properties>
  </object>
  <object id="54" x="568" y="311.333">
   <properties>
    <property name="LIGHT_COLOR" type="color" value="#ffff6347"/>
    <property name="LIGHT_LEVEL" type="int" value="1"/>
    <property name="LIGHT_RADIUS" type="int" value="75"/>
   </properties>
  </object>
  <object id="55" x="600" y="359.333">
   <properties>
    <property name="LIGHT_COLOR" type="color" value="#ffff6347"/>
    <property name="LIGHT_LEVEL" type="int" value="1"/>
    <property name="LIGHT_RADIUS" type="int" value="75"/>
   </properties>
  </object>
  <object id="56" x="630.667" y="600">
   <properties>
    <property name="LIGHT_COLOR" type="color" value="#ffff6347"/>
    <property name="LIGHT_LEVEL" type="int" value="1"/>
    <property name="LIGHT_RADIUS" type="int" value="75"/>
   </properties>
  </object>
 </objectgroup>
 <objectgroup id="16" name="Jumpable">
  <object id="23" x="288" y="271.333" width="304.667" height="16">
   <properties>
    <property name="JUMP_DIR" value="DOWN"/>
   </properties>
  </object>
  <object id="24" x="655.667" y="239.333" width="16.0003" height="32">
   <properties>
    <property name="JUMP_DIR" value="LEFT"/>
   </properties>
  </object>
  <object id="25" x="271.333" y="208" width="16.0003" height="62.6667">
   <properties>
    <property name="JUMP_DIR" value="LEFT"/>
   </properties>
  </object>
  <object id="26" x="272" y="335.333" width="16.0003" height="32.6667">
   <properties>
    <property name="JUMP_DIR" value="LEFT"/>
   </properties>
  </object>
  <object id="27" x="288.333" y="368" width="447.334" height="16">
   <properties>
    <property name="JUMP_DIR" value="DOWN"/>
   </properties>
  </object>
  <object id="28" x="592.667" y="240" width="16.0003" height="30.6667">
   <properties>
    <property name="JUMP_DIR" value="RIGHT"/>
   </properties>
  </object>
  <object id="30" x="673" y="271.333" width="15.3337" height="16">
   <properties>
    <property name="JUMP_DIR" value="DOWN"/>
   </properties>
  </object>
  <object id="31" x="656.667" y="430.667" width="16.0003" height="30.6667">
   <properties>
    <property name="JUMP_DIR" value="RIGHT"/>
   </properties>
  </object>
  <object id="32" x="385.666" y="464" width="270.667" height="16">
   <properties>
    <property name="JUMP_DIR" value="DOWN"/>
   </properties>
  </object>
  <object id="33" x="256.666" y="464.667" width="110.667" height="16">
   <properties>
    <property name="JUMP_DIR" value="DOWN"/>
   </properties>
  </object>
 </objectgroup>
 <objectgroup id="12" name="Sign">
  <properties>
   <property name="message" value="Hello World"/>
  </properties>
  <object id="4" type="sign" gid="8422" x="656" y="208" width="16" height="16">
   <properties>
    <property name="message" value="Hello World::Hello Mars"/>
   </properties>
  </object>
  <object id="22" type="sign" gid="8422" x="432" y="752" width="16" height="16">
   <properties>
    <property name="message" value="Route 101"/>
   </properties>
  </object>
 </objectgroup>
 <objectgroup id="14" name="PokemonSpawns">
  <object id="7" x="192.667" y="255.333" width="80" height="97.3333">
   <properties>
    <property name="ID" value="001_001"/>
   </properties>
  </object>
  <object id="8" x="208" y="496" width="160.667" height="96">
   <properties>
    <property name="ID" value="001_002"/>
   </properties>
  </object>
  <object id="16" x="208.667" y="607.333" width="158" height="143.333">
   <properties>
    <property name="ID" value="001_005"/>
   </properties>
  </object>
  <object id="19" x="385" y="496" width="175.333" height="96">
   <properties>
    <property name="ID" value="001_003"/>
   </properties>
  </object>
  <object id="20" x="576.5" y="496" width="95.5" height="96.5">
   <properties>
    <property name="ID" value="001_004"/>
   </properties>
  </object>
 </objectgroup>
</map>
